; generated by PrusaSlicer 2.6.1+win64 on 2024-01-18 at 17:05:08 UTC

; 

; external perimeters extrusion width = 0.42mm
; perimeters extrusion width = 0.44mm
; infill extrusion width = 0.44mm
; solid infill extrusion width = 0.44mm
; top infill extrusion width = 0.40mm
; support material extrusion width = 0.36mm
; first layer extrusion width = 0.42mm

M201 X500 Y500 Z100 E5000 ; sets maximum accelerations, mm/sec^2
M203 X500 Y500 Z10 E60 ; sets maximum feedrates, mm / sec
M204 S500 T1000 ; sets acceleration (S) and retract acceleration (R), mm/sec^2
M205 X8.00 Y8.00 Z0.40 E5.00 ; sets the jerk limits, mm/sec
M205 S0 T0 ; sets the minimum extruding and travel feed rate, mm/sec
;TYPE:Custom
G90 ; use absolute coordinates
M83 ; extruder relative mode
M104 S150 ; set temporary nozzle temp to prevent oozing during homing
M140 S60 ; set final bed temp
G4 S30 ; allow partial nozzle warmup
G28 ; home all axis and restore leveling
G1 Z50 F240
G1 X2.0 Y10 F3000
M104 S215 ; set final nozzle temp
M190 S60 ; wait for bed temp to stabilize
M109 S215 ; wait for nozzle temp to stabilize
G1 Z0.28 F240
G92 E0
G1 X2.0 Y140 E10 F1500 ; prime the nozzle
G1 X2.3 Y140 F5000
G92 E0
G1 X2.3 Y10 E10 F1200 ; prime the nozzle
G92 E0
G21 ; set units to millimeters
G90 ; use absolute coordinates
M83 ; use relative distances for extrusion
; Filament gcode
M107
;LAYER_CHANGE
;Z:0.2
;HEIGHT:0.2
;BEFORE_LAYER_CHANGE
G92 E0
;0.2


G1 E-.8 F1800
G1 Z.2 F9000
;AFTER_LAYER_CHANGE
;0.2
G1 X97.895 Y97.895
G1 E.8 F1800
M204 S500
;TYPE:Skirt/Brim
;WIDTH:0.42
G1 F1057
G1 X98.413 Y97.377 E.01952
G1 X98.818 Y97.106 E.01299
G1 X100.172 Y96.546 E.03905
G1 X101.382 Y96.378 E.03256
G1 X118.618 Y96.378 E.45936
G1 X119.828 Y96.546 E.03256
G1 X121.182 Y97.106 E.03905
G1 X121.587 Y97.377 E.01299
G1 X122.623 Y98.413 E.03905
G1 X122.894 Y98.818 E.01299
G1 X123.454 Y100.172 E.03905
G1 X123.55 Y100.65 E.01299
G1 X123.622 Y101.382 E.0196
G1 X123.622 Y118.618 E.45936
G1 X123.454 Y119.828 E.03256
G1 X122.894 Y121.182 E.03905
G1 X122.623 Y121.587 E.01299
G1 X121.587 Y122.623 E.03905
G1 X121.182 Y122.894 E.01299
G1 X119.828 Y123.454 E.03905
G1 X118.618 Y123.622 E.03256
G1 X101.382 Y123.622 E.45936
G1 X100.172 Y123.454 E.03256
G1 X98.818 Y122.894 E.03905
G1 X98.413 Y122.623 E.01299
G1 X97.377 Y121.587 E.03905
G1 X97.106 Y121.182 E.01299
G1 X96.546 Y119.828 E.03905
G1 X96.378 Y118.618 E.03256
G1 X96.378 Y101.382 E.45936
G1 X96.546 Y100.172 E.03256
G1 X97.106 Y98.818 E.03905
G1 X97.377 Y98.413 E.01299
G1 X97.853 Y97.937 E.01794
G1 X98.114 Y98.199 F9000
G1 F1057
G1 X98.622 Y97.691 E.01915
G1 X99.028 Y97.42 E.01301
G1 X100.245 Y96.915 E.03512
G1 X101.382 Y96.755 E.0306
G1 X118.618 Y96.755 E.45936
G1 X119.755 Y96.915 E.0306
G1 X120.972 Y97.42 E.03512
G1 X121.378 Y97.691 E.01301
G1 X122.309 Y98.622 E.03509
G1 X122.58 Y99.028 E.01301
G1 X123.085 Y100.245 E.03512
G1 X123.18 Y100.724 E.01301
G1 X123.245 Y101.382 E.01762
G1 X123.245 Y118.618 E.45936
G1 X123.085 Y119.755 E.0306
G1 X122.58 Y120.972 E.03512
G1 X122.309 Y121.378 E.01301
G1 X121.378 Y122.309 E.03509
G1 X120.972 Y122.58 E.01301
G1 X119.755 Y123.085 E.03512
G1 X118.618 Y123.245 E.0306
G1 X101.382 Y123.245 E.45936
G1 X100.245 Y123.085 E.0306
G1 X99.028 Y122.58 E.03512
G1 X98.622 Y122.309 E.01301
G1 X97.691 Y121.378 E.03509
G1 X97.42 Y120.972 E.01301
G1 X96.915 Y119.755 E.03512
G1 X96.755 Y118.618 E.0306
G1 X96.755 Y101.382 E.45936
G1 X96.915 Y100.245 E.0306
G1 X97.42 Y99.028 E.03512
G1 X97.691 Y98.622 E.01301
G1 X98.072 Y98.241 E.01436
; printing object 3.0-s-ii-loxtank.stl id:0 copy 4
;WIPE_START
G1 F7200
G1 X98.622 Y97.691 E-.18473
G1 X99.028 Y97.42 E-.11593
G1 X100.245 Y96.915 E-.31293
G1 X101.022 Y96.806 E-.18641
;WIPE_END
G1 X109.898 Y101.629 F9000
G1 E.8 F1800
;TYPE:Perimeter
G1 F1057
G1 X109.811 Y101.571 E.00279
G1 X109.753 Y101.485 E.00276
G1 X109.733 Y101.382 E.0028
G1 X109.753 Y101.28 E.00277
G1 X109.811 Y101.194 E.00276
G1 X109.895 Y101.138 E.00269
G1 X110.006 Y101.117 E.00301
G1 X110.102 Y101.136 E.00261
G1 X110.189 Y101.194 E.00279
G1 X110.247 Y101.28 E.00276
G1 X110.267 Y101.382 E.00277
G1 X110.247 Y101.485 E.0028
G1 X110.189 Y101.571 E.00276
G1 X110.102 Y101.629 E.00279
G1 X109.957 Y101.641 E.00388
G1 X109.751 Y101.984 F9000
G1 F1057
G1 X109.539 Y101.843 E.00679
G1 X109.398 Y101.632 E.00676
G1 X109.349 Y101.382 E.00679
G1 X109.398 Y101.133 E.00676
G1 X109.539 Y100.922 E.00676
G1 X109.749 Y100.782 E.00673
G1 X110.007 Y100.732 E.007
G1 X110.249 Y100.781 E.00658
G1 X110.461 Y100.922 E.00679
G1 X110.602 Y101.133 E.00676
G1 X110.651 Y101.382 E.00676
G1 X110.602 Y101.632 E.00679
G1 X110.461 Y101.843 E.00676
G1 X110.249 Y101.984 E.00679
G1 X110 Y102.034 E.00677
G1 X109.81 Y101.996 E.00516
G1 X109.604 Y102.339 F9000
;TYPE:External perimeter
G1 F1057
G1 X109.268 Y102.115 E.01076
G1 X109.043 Y101.779 E.01078
G1 X108.964 Y101.382 E.01079
G1 X109.043 Y100.986 E.01076
G1 X109.268 Y100.65 E.01078
G1 X109.603 Y100.426 E.01074
G1 X110.009 Y100.348 E.01102
G1 X110.396 Y100.425 E.01052
G1 X110.732 Y100.65 E.01078
G1 X110.957 Y100.986 E.01078
G1 X111.036 Y101.382 E.01076
G1 X110.957 Y101.779 E.01079
G1 X110.732 Y102.115 E.01078
G1 X110.396 Y102.339 E.01076
G1 X110 Y102.418 E.01076
G1 X109.662 Y102.351 E.00918
G1 X109.551 Y101.943 F9000
; stop printing object 3.0-s-ii-loxtank.stl id:0 copy 4
; printing object 3.0-s-ii-loxtank.stl id:0 copy 2
;WIPE_START
G1 F7200
G1 X109.268 Y102.115 E-.10908
G1 X109.043 Y101.779 E-.09604
G1 X108.964 Y101.382 E-.09614
G1 X109.043 Y100.986 E-.0959
G1 X109.268 Y100.65 E-.09604
G1 X109.603 Y100.426 E-.09571
G1 X110.009 Y100.348 E-.09819
G1 X110.396 Y100.425 E-.09371
G1 X110.463 Y100.47 E-.01919
;WIPE_END
G1 X101.28 Y101.629 F9000
G1 E.8 F1800
;TYPE:Perimeter
G1 F1057
G1 X101.194 Y101.571 E.00276
G1 X101.136 Y101.485 E.00276
G1 X101.116 Y101.382 E.0028
G1 X101.136 Y101.28 E.00277
G1 X101.194 Y101.194 E.00276
G1 X101.277 Y101.138 E.00267
G1 X101.388 Y101.117 E.00301
G1 X101.485 Y101.136 E.00263
G1 X101.571 Y101.194 E.00276
G1 X101.629 Y101.28 E.00276
G1 X101.649 Y101.382 E.00277
G1 X101.629 Y101.485 E.0028
G1 X101.571 Y101.571 E.00276
G1 X101.485 Y101.629 E.00276
G1 X101.339 Y101.641 E.0039
G1 X101.133 Y101.984 F9000
G1 F1057
G1 X100.922 Y101.843 E.00676
G1 X100.781 Y101.632 E.00676
G1 X100.731 Y101.382 E.00679
G1 X100.781 Y101.133 E.00677
G1 X100.922 Y100.922 E.00676
G1 X101.131 Y100.782 E.0067
G1 X101.39 Y100.732 E.00703
G1 X101.632 Y100.781 E.00658
G1 X101.843 Y100.922 E.00676
G1 X101.984 Y101.133 E.00676
G1 X102.034 Y101.382 E.00677
G1 X101.984 Y101.632 E.00679
G1 X101.843 Y101.843 E.00676
G1 X101.632 Y101.984 E.00676
G1 X101.382 Y102.034 E.00679
G1 X101.192 Y101.996 E.00516
G1 X100.986 Y102.339 F9000
;TYPE:External perimeter
G1 F1057
G1 X100.65 Y102.115 E.01076
G1 X100.425 Y101.779 E.01078
G1 X100.347 Y101.382 E.01078
G1 X100.425 Y100.986 E.01076
G1 X100.65 Y100.65 E.01078
G1 X100.985 Y100.426 E.01074
G1 X101.391 Y100.348 E.01102
G1 X101.779 Y100.425 E.01054
G1 X102.115 Y100.65 E.01078
G1 X102.339 Y100.986 E.01076
G1 X102.418 Y101.382 E.01076
G1 X102.339 Y101.779 E.01079
G1 X102.115 Y102.115 E.01076
G1 X101.779 Y102.339 E.01076
G1 X101.382 Y102.418 E.01079
G1 X101.045 Y102.351 E.00916
G1 X100.934 Y101.943 F9000
; stop printing object 3.0-s-ii-loxtank.stl id:0 copy 2
; printing object 3.0-s-ii-loxtank.stl id:0 copy 5
;WIPE_START
G1 F7200
G1 X100.65 Y102.115 E-.10928
G1 X100.425 Y101.779 E-.09604
G1 X100.347 Y101.382 E-.09609
G1 X100.425 Y100.986 E-.09586
G1 X100.65 Y100.65 E-.09604
G1 X100.985 Y100.426 E-.09571
G1 X101.391 Y100.348 E-.09819
G1 X101.779 Y100.425 E-.09395
G1 X101.845 Y100.469 E-.01884
;WIPE_END
G1 X101.28 Y110.247 F9000
G1 E.8 F1800
;TYPE:Perimeter
G1 F1057
G1 X101.194 Y110.189 E.00276
G1 X101.136 Y110.102 E.00279
G1 X101.116 Y110 E.00277
G1 X101.136 Y109.898 E.00277
G1 X101.194 Y109.811 E.00279
G1 X101.277 Y109.755 E.00267
G1 X101.388 Y109.734 E.00301
G1 X101.485 Y109.753 E.00263
G1 X101.571 Y109.811 E.00276
G1 X101.629 Y109.898 E.00279
G1 X101.649 Y110 E.00277
G1 X101.629 Y110.102 E.00277
G1 X101.571 Y110.189 E.00279
G1 X101.485 Y110.247 E.00276
G1 X101.339 Y110.258 E.0039
G1 X101.133 Y110.602 F9000
G1 F1057
G1 X100.922 Y110.461 E.00676
G1 X100.781 Y110.249 E.00679
G1 X100.731 Y110 E.00677
G1 X100.781 Y109.751 E.00677
G1 X100.922 Y109.539 E.00679
G1 X101.131 Y109.399 E.0067
G1 X101.39 Y109.35 E.00703
G1 X101.632 Y109.398 E.00658
G1 X101.843 Y109.539 E.00676
G1 X101.984 Y109.751 E.00679
G1 X102.034 Y110 E.00677
G1 X101.984 Y110.249 E.00677
G1 X101.843 Y110.461 E.00679
G1 X101.632 Y110.602 E.00676
G1 X101.382 Y110.651 E.00679
G1 X101.192 Y110.614 E.00516
G1 X100.986 Y110.957 F9000
;TYPE:External perimeter
G1 F1057
G1 X100.65 Y110.732 E.01078
G1 X100.425 Y110.396 E.01078
G1 X100.347 Y110 E.01076
G1 X100.425 Y109.604 E.01076
G1 X100.65 Y109.268 E.01078
G1 X100.985 Y109.043 E.01075
G1 X101.391 Y108.966 E.01101
G1 X101.779 Y109.043 E.01054
G1 X102.115 Y109.268 E.01078
G1 X102.339 Y109.604 E.01076
G1 X102.418 Y110 E.01076
G1 X102.339 Y110.396 E.01076
G1 X102.115 Y110.732 E.01076
G1 X101.779 Y110.957 E.01078
G1 X101.382 Y111.036 E.01079
G1 X101.045 Y110.969 E.00916
G1 X100.934 Y110.56 F9000
; stop printing object 3.0-s-ii-loxtank.stl id:0 copy 5
; printing object 3.0-s-ii-loxtank.stl id:0 copy 6
;WIPE_START
G1 F7200
G1 X100.65 Y110.732 E-.1094
G1 X100.425 Y110.396 E-.09604
G1 X100.347 Y110 E-.09586
G1 X100.425 Y109.604 E-.09586
G1 X100.65 Y109.268 E-.09604
G1 X100.985 Y109.043 E-.09584
G1 X101.391 Y108.966 E-.09814
G1 X101.779 Y109.043 E-.09395
G1 X101.845 Y109.087 E-.01887
;WIPE_END
G1 X109.898 Y110.247 F9000
G1 E.8 F1800
;TYPE:Perimeter
G1 F1057
G1 X109.811 Y110.189 E.00279
G1 X109.753 Y110.102 E.00279
G1 X109.733 Y110 E.00277
G1 X109.753 Y109.898 E.00277
G1 X109.811 Y109.811 E.00279
G1 X109.895 Y109.755 E.00269
G1 X110.006 Y109.734 E.00301
G1 X110.102 Y109.753 E.00261
G1 X110.189 Y109.811 E.00279
G1 X110.247 Y109.898 E.00279
G1 X110.267 Y110 E.00277
G1 X110.247 Y110.102 E.00277
G1 X110.189 Y110.189 E.00279
G1 X110.102 Y110.247 E.00279
G1 X109.957 Y110.258 E.00388
G1 X109.751 Y110.602 F9000
G1 F1057
G1 X109.539 Y110.461 E.00679
G1 X109.398 Y110.249 E.00679
G1 X109.349 Y110 E.00676
G1 X109.398 Y109.751 E.00676
G1 X109.539 Y109.539 E.00679
G1 X109.749 Y109.399 E.00673
G1 X110.007 Y109.35 E.007
G1 X110.249 Y109.398 E.00658
G1 X110.461 Y109.539 E.00679
G1 X110.602 Y109.751 E.00679
G1 X110.651 Y110 E.00676
G1 X110.602 Y110.249 E.00676
G1 X110.461 Y110.461 E.00679
G1 X110.249 Y110.602 E.00679
G1 X110 Y110.651 E.00676
G1 X109.81 Y110.614 E.00516
G1 X109.604 Y110.957 F9000
;TYPE:External perimeter
G1 F1057
G1 X109.268 Y110.732 E.01078
G1 X109.043 Y110.396 E.01078
G1 X108.964 Y110 E.01076
G1 X109.043 Y109.604 E.01076
G1 X109.268 Y109.268 E.01078
G1 X109.603 Y109.043 E.01075
G1 X110.009 Y108.966 E.01101
G1 X110.396 Y109.043 E.01052
G1 X110.732 Y109.268 E.01078
G1 X110.957 Y109.604 E.01078
G1 X111.036 Y110 E.01076
G1 X110.957 Y110.396 E.01076
G1 X110.732 Y110.732 E.01078
G1 X110.396 Y110.957 E.01078
G1 X110 Y111.036 E.01076
G1 X109.662 Y110.969 E.00918
G1 X109.551 Y110.56 F9000
; stop printing object 3.0-s-ii-loxtank.stl id:0 copy 6
; printing object 3.0-s-ii-loxtank.stl id:0 copy 7
;WIPE_START
G1 F7200
G1 X109.268 Y110.732 E-.1092
G1 X109.043 Y110.396 E-.09604
G1 X108.964 Y110 E-.0959
G1 X109.043 Y109.604 E-.0959
G1 X109.268 Y109.268 E-.09604
G1 X109.603 Y109.043 E-.09584
G1 X110.009 Y108.966 E-.09814
G1 X110.396 Y109.043 E-.09371
G1 X110.463 Y109.088 E-.01923
;WIPE_END
G1 X118.515 Y110.247 F9000
G1 E.8 F1800
;TYPE:Perimeter
G1 F1057
G1 X118.429 Y110.189 E.00276
G1 X118.371 Y110.102 E.00279
G1 X118.351 Y110 E.00277
G1 X118.371 Y109.898 E.00277
G1 X118.429 Y109.811 E.00279
G1 X118.512 Y109.755 E.00267
G1 X118.623 Y109.734 E.00301
G1 X118.72 Y109.753 E.00263
G1 X118.806 Y109.811 E.00276
G1 X118.864 Y109.898 E.00279
G1 X118.884 Y110 E.00277
G1 X118.864 Y110.102 E.00277
G1 X118.806 Y110.189 E.00279
G1 X118.72 Y110.247 E.00276
G1 X118.574 Y110.258 E.0039
G1 X118.368 Y110.602 F9000
G1 F1057
G1 X118.157 Y110.461 E.00676
G1 X118.016 Y110.249 E.00679
G1 X117.966 Y110 E.00677
G1 X118.016 Y109.751 E.00677
G1 X118.157 Y109.539 E.00679
G1 X118.366 Y109.399 E.0067
G1 X118.625 Y109.35 E.00703
G1 X118.867 Y109.398 E.00658
G1 X119.078 Y109.539 E.00676
G1 X119.219 Y109.751 E.00679
G1 X119.269 Y110 E.00677
G1 X119.219 Y110.249 E.00677
G1 X119.078 Y110.461 E.00679
G1 X118.867 Y110.602 E.00676
G1 X118.618 Y110.651 E.00676
G1 X118.427 Y110.614 E.00519
G1 X118.221 Y110.957 F9000
;TYPE:External perimeter
G1 F1057
G1 X117.885 Y110.732 E.01078
G1 X117.661 Y110.396 E.01076
G1 X117.582 Y110 E.01076
G1 X117.661 Y109.604 E.01076
G1 X117.885 Y109.268 E.01076
G1 X118.22 Y109.043 E.01075
G1 X118.626 Y108.966 E.01101
G1 X119.014 Y109.043 E.01054
G1 X119.35 Y109.268 E.01078
G1 X119.575 Y109.604 E.01078
G1 X119.653 Y110 E.01076
G1 X119.575 Y110.396 E.01076
G1 X119.35 Y110.732 E.01078
G1 X119.014 Y110.957 E.01078
G1 X118.618 Y111.036 E.01076
G1 X118.28 Y110.969 E.00918
G1 X118.169 Y110.56 F9000
; stop printing object 3.0-s-ii-loxtank.stl id:0 copy 7
; printing object 3.0-s-ii-loxtank.stl id:0 copy 3
;WIPE_START
G1 F7200
G1 X117.885 Y110.732 E-.1094
G1 X117.661 Y110.396 E-.09591
G1 X117.582 Y110 E-.0959
G1 X117.661 Y109.604 E-.0959
G1 X117.885 Y109.268 E-.09591
G1 X118.22 Y109.043 E-.09584
G1 X118.626 Y108.966 E-.09814
G1 X119.014 Y109.043 E-.09395
G1 X119.081 Y109.088 E-.01905
;WIPE_END
G1 X118.515 Y101.629 F9000
G1 E.8 F1800
;TYPE:Perimeter
G1 F1057
G1 X118.429 Y101.571 E.00276
G1 X118.371 Y101.485 E.00276
G1 X118.351 Y101.382 E.0028
G1 X118.371 Y101.28 E.00277
G1 X118.429 Y101.194 E.00276
G1 X118.512 Y101.138 E.00267
G1 X118.623 Y101.117 E.00301
G1 X118.72 Y101.136 E.00263
G1 X118.806 Y101.194 E.00276
G1 X118.864 Y101.28 E.00276
G1 X118.885 Y101.382 E.00278
G1 X118.864 Y101.485 E.0028
G1 X118.806 Y101.571 E.00276
G1 X118.72 Y101.629 E.00276
G1 X118.574 Y101.641 E.0039
G1 X118.368 Y101.984 F9000
G1 F1057
G1 X118.157 Y101.843 E.00676
G1 X118.016 Y101.632 E.00676
G1 X117.966 Y101.382 E.00679
G1 X118.016 Y101.133 E.00677
G1 X118.157 Y100.922 E.00676
G1 X118.366 Y100.782 E.0067
G1 X118.625 Y100.732 E.00703
G1 X118.867 Y100.781 E.00658
G1 X119.078 Y100.922 E.00676
G1 X119.219 Y101.133 E.00676
G1 X119.269 Y101.382 E.00677
G1 X119.219 Y101.632 E.00679
G1 X119.078 Y101.843 E.00676
G1 X118.867 Y101.984 E.00676
G1 X118.618 Y102.034 E.00677
G1 X118.427 Y101.996 E.00519
G1 X118.221 Y102.339 F9000
;TYPE:External perimeter
G1 F1057
G1 X117.885 Y102.115 E.01076
G1 X117.661 Y101.779 E.01076
G1 X117.582 Y101.382 E.01079
G1 X117.661 Y100.986 E.01076
G1 X117.885 Y100.65 E.01076
G1 X118.22 Y100.426 E.01074
G1 X118.626 Y100.348 E.01102
G1 X119.014 Y100.425 E.01054
G1 X119.35 Y100.65 E.01078
G1 X119.575 Y100.986 E.01078
G1 X119.653 Y101.382 E.01076
G1 X119.575 Y101.779 E.01078
G1 X119.35 Y102.115 E.01078
G1 X119.014 Y102.339 E.01076
G1 X118.618 Y102.418 E.01076
G1 X118.28 Y102.351 E.00918
G1 X118.169 Y101.943 F9000
; stop printing object 3.0-s-ii-loxtank.stl id:0 copy 3
; printing object 3.0-s-ii-loxtank.stl id:0 copy 8
;WIPE_START
G1 F7200
G1 X117.885 Y102.115 E-.10928
G1 X117.661 Y101.779 E-.09591
G1 X117.582 Y101.382 E-.09614
G1 X117.661 Y100.986 E-.0959
G1 X117.885 Y100.65 E-.09591
G1 X118.22 Y100.426 E-.09571
G1 X118.626 Y100.348 E-.09819
G1 X119.014 Y100.425 E-.09395
G1 X119.081 Y100.47 E-.01901
;WIPE_END
G1 X118.515 Y118.864 F9000
G1 E.8 F1800
;TYPE:Perimeter
G1 F1057
G1 X118.429 Y118.806 E.00276
G1 X118.371 Y118.72 E.00276
G1 X118.351 Y118.618 E.00277
G1 X118.371 Y118.515 E.0028
G1 X118.429 Y118.429 E.00276
G1 X118.512 Y118.373 E.00267
G1 X118.623 Y118.352 E.00301
G1 X118.72 Y118.371 E.00263
G1 X118.806 Y118.429 E.00276
G1 X118.864 Y118.515 E.00276
G1 X118.884 Y118.618 E.0028
G1 X118.864 Y118.72 E.00277
G1 X118.806 Y118.806 E.00276
G1 X118.72 Y118.864 E.00276
G1 X118.574 Y118.876 E.0039
G1 X118.368 Y119.219 F9000
G1 F1057
G1 X118.157 Y119.078 E.00676
G1 X118.016 Y118.867 E.00676
G1 X117.966 Y118.618 E.00677
G1 X118.016 Y118.368 E.00679
G1 X118.157 Y118.157 E.00676
G1 X118.366 Y118.017 E.0067
G1 X118.625 Y117.968 E.00703
