; generated by PrusaSlicer 2.6.1+win64 on 2024-01-20 at 04:55:07 UTC

; 

; external perimeters extrusion width = 0.42mm
; perimeters extrusion width = 0.44mm
; infill extrusion width = 0.44mm
; solid infill extrusion width = 0.44mm
; top infill extrusion width = 0.40mm
; support material extrusion width = 0.36mm
; first layer extrusion width = 0.42mm

M201 X500 Y500 Z100 E5000 ; sets maximum accelerations, mm/sec^2
M203 X500 Y500 Z10 E60 ; sets maximum feedrates, mm / sec
M204 S500 T1000 ; sets acceleration (S) and retract acceleration (R), mm/sec^2
M205 X8.00 Y8.00 Z0.40 E5.00 ; sets the jerk limits, mm/sec
M205 S0 T0 ; sets the minimum extruding and travel feed rate, mm/sec
;TYPE:Custom
G90 ; use absolute coordinates
M83 ; extruder relative mode
M104 S150 ; set temporary nozzle temp to prevent oozing during homing
M140 S60 ; set final bed temp
G4 S30 ; allow partial nozzle warmup
G28 ; home all axis and restore leveling
G1 Z50 F240
G1 X2.0 Y10 F3000
M104 S215 ; set final nozzle temp
M190 S60 ; wait for bed temp to stabilize
M109 S215 ; wait for nozzle temp to stabilize
G1 Z0.28 F240
G92 E0
G1 X2.0 Y140 E10 F1500 ; prime the nozzle
G1 X2.3 Y140 F5000
G92 E0
G1 X2.3 Y10 E10 F1200 ; prime the nozzle
G92 E0
G21 ; set units to millimeters
G90 ; use absolute coordinates
M83 ; use relative distances for extrusion
; Filament gcode
M107
;LAYER_CHANGE
;Z:0.2
;HEIGHT:0.2
;BEFORE_LAYER_CHANGE
G92 E0
;0.2


G1 E-.8 F1800
G1 Z.2 F9000
;AFTER_LAYER_CHANGE
;0.2
G1 X89.536 Y89.298
G1 E.8 F1800
M204 S500
;TYPE:Skirt/Brim
;WIDTH:0.42
G1 F1200
G1 X91.473 Y87.548 E.06957
G1 X94.155 Y85.581 E.08864
G1 X96.41 Y84.258 E.06968
G1 X99.016 Y83.043 E.07663
G1 X101.478 Y82.166 E.06965
G1 X104.707 Y81.376 E.08859
G1 X107.295 Y81.017 E.06963
G1 X110.004 Y80.891 E.07228
G1 X112.776 Y81.024 E.07396
G1 X116.182 Y81.539 E.09181
G1 X118.688 Y82.2 E.06907
G1 X121.214 Y83.119 E.07164
G1 X122.56 Y83.725 E.03934
G1 X124.499 Y84.739 E.05832
G1 X126.646 Y86.099 E.06773
G1 X128.778 Y87.736 E.07164
G1 X130.702 Y89.536 E.07022
G1 X132.452 Y91.473 E.06957
G1 X134.419 Y94.156 E.08866
G1 X135.742 Y96.41 E.06966
G1 X136.957 Y99.016 E.07663
G1 X137.833 Y101.478 E.06964
G1 X138.624 Y104.707 E.0886
G1 X138.983 Y107.295 E.06963
G1 X139.109 Y110.168 E.07664
G1 X138.976 Y112.778 E.06965
G1 X138.47 Y116.064 E.08861
G1 X137.812 Y118.593 E.06964
G1 X136.828 Y121.295 E.07664
G1 X135.708 Y123.653 E.06957
G1 X133.983 Y126.497 E.08865
G1 X132.407 Y128.582 E.06966
G1 X130.464 Y130.702 E.07664
G1 X128.525 Y132.454 E.06965
G1 X125.844 Y134.419 E.08859
G1 X123.59 Y135.742 E.06966
G1 X120.984 Y136.957 E.07663
G1 X118.522 Y137.833 E.06964
G1 X115.293 Y138.624 E.0886
G1 X112.705 Y138.983 E.06963
G1 X109.832 Y139.109 E.07664
G1 X107.222 Y138.976 E.06965
G1 X103.936 Y138.47 E.08861
G1 X101.408 Y137.812 E.06962
G1 X98.705 Y136.828 E.07666
G1 X96.345 Y135.707 E.06963
G1 X93.503 Y133.983 E.08859
G1 X91.418 Y132.407 E.06966
G1 X89.298 Y130.464 E.07664
G1 X87.546 Y128.525 E.06965
G1 X85.581 Y125.844 E.08859
G1 X84.258 Y123.59 E.06966
G1 X83.043 Y120.984 E.07663
G1 X82.167 Y118.522 E.06964
G1 X81.376 Y115.293 E.0886
G1 X81.017 Y112.705 E.06963
G1 X80.891 Y109.831 E.07667
G1 X81.024 Y107.222 E.06962
G1 X81.53 Y103.936 E.08861
G1 X82.188 Y101.407 E.06964
G1 X83.172 Y98.705 E.07664
G1 X84.293 Y96.345 E.06963
G1 X86.017 Y93.503 E.08859
G1 X87.593 Y91.418 E.06966
G1 X89.496 Y89.342 E.07506
; printing object 3.0-s-ii-aftskirt.stl id:0 copy 0
;WIPE_START
G1 F7200
G1 X91.473 Y87.548 E-.63404
G1 X92.036 Y87.135 E-.16596
;WIPE_END
G1 X111.107 Y86.49 F9000
G1 E.8 F1800
;TYPE:Support material
G1 F1200
G1 X112.307 Y86.576 E.03206
G1 X113.454 Y86.718 E.0308
G1 X114.592 Y86.915 E.03078
G1 X115.719 Y87.168 E.03078
G1 X116.832 Y87.476 E.03078
G1 X117.929 Y87.839 E.0308
G1 X119.007 Y88.254 E.03079
G1 X120.063 Y88.723 E.03079
G1 X121.095 Y89.242 E.03079
G1 X122.101 Y89.811 E.0308
G1 X123.077 Y90.429 E.03079
G1 X124.021 Y91.095 E.03079
G1 X124.932 Y91.805 E.03078
G1 X125.807 Y92.56 E.0308
G1 X126.643 Y93.357 E.03078
G1 X127.44 Y94.193 E.03078
G1 X128.195 Y95.068 E.0308
G1 X128.905 Y95.979 E.03078
G1 X129.571 Y96.923 E.03079
G1 X130.189 Y97.899 E.03079
G1 X130.758 Y98.905 E.0308
G1 X131.277 Y99.937 E.03079
G1 X131.746 Y100.993 E.03079
G1 X132.161 Y102.071 E.03079
G1 X132.524 Y103.168 E.0308
G1 X132.832 Y104.281 E.03078
G1 X133.085 Y105.408 E.03078
G1 X133.282 Y106.546 E.03078
G1 X133.424 Y107.693 E.0308
G1 X133.509 Y108.845 E.03079
G1 X133.537 Y110 E.03079
G1 X133.509 Y111.155 E.03079
G1 X133.424 Y112.307 E.03079
G1 X133.282 Y113.454 E.0308
G1 X133.085 Y114.592 E.03078
G1 X132.832 Y115.719 E.03078
G1 X132.524 Y116.832 E.03078
G1 X132.161 Y117.929 E.0308
G1 X131.746 Y119.007 E.03079
G1 X131.277 Y120.063 E.03079
G1 X130.758 Y121.095 E.03079
G1 X130.189 Y122.101 E.0308
G1 X129.57 Y123.077 E.0308
G1 X128.905 Y124.021 E.03077
G1 X128.195 Y124.932 E.03078
G1 X127.44 Y125.807 E.0308
G1 X126.643 Y126.643 E.03078
G1 X125.807 Y127.44 E.03078
G1 X124.932 Y128.195 E.0308
G1 X124.021 Y128.905 E.03078
G1 X123.077 Y129.57 E.03077
G1 X122.101 Y130.189 E.0308
G1 X121.095 Y130.758 E.0308
G1 X120.063 Y131.277 E.03079
G1 X119.007 Y131.746 E.03079
G1 X117.929 Y132.161 E.03079
G1 X116.832 Y132.524 E.0308
G1 X115.719 Y132.832 E.03078
G1 X114.592 Y133.085 E.03078
G1 X113.454 Y133.282 E.03078
G1 X112.307 Y133.424 E.0308
G1 X111.155 Y133.509 E.03079
G1 X110 Y133.537 E.03079
G1 X108.845 Y133.509 E.03079
G1 X107.694 Y133.424 E.03076
G1 X106.547 Y133.283 E.0308
G1 X105.409 Y133.085 E.03078
G1 X104.282 Y132.832 E.03078
G1 X103.168 Y132.524 E.0308
G1 X102.071 Y132.162 E.03079
G1 X100.993 Y131.746 E.03079
G1 X99.937 Y131.278 E.03078
G1 X98.905 Y130.758 E.0308
G1 X97.9 Y130.189 E.03078
G1 X96.924 Y129.571 E.03079
G1 X95.979 Y128.906 E.0308
G1 X95.069 Y128.195 E.03078
G1 X94.194 Y127.44 E.0308
G1 X93.357 Y126.643 E.0308
G1 X92.56 Y125.807 E.03078
G1 X91.805 Y124.932 E.0308
G1 X91.095 Y124.021 E.03078
G1 X90.43 Y123.077 E.03077
G1 X89.811 Y122.101 E.0308
G1 X89.242 Y121.095 E.0308
G1 X88.723 Y120.063 E.03079
G1 X88.254 Y119.007 E.03079
G1 X87.839 Y117.929 E.03079
G1 X87.476 Y116.833 E.03077
G1 X87.168 Y115.719 E.0308
G1 X86.915 Y114.592 E.03078
G1 X86.718 Y113.454 E.03078
G1 X86.576 Y112.307 E.0308
G1 X86.491 Y111.155 E.03079
G1 X86.463 Y110 E.03079
G1 X86.491 Y108.845 E.03079
G1 X86.576 Y107.694 E.03076
G1 X86.717 Y106.547 E.0308
G1 X86.915 Y105.409 E.03078
G1 X87.168 Y104.282 E.03078
G1 X87.476 Y103.168 E.0308
G1 X87.838 Y102.071 E.03079
G1 X88.254 Y100.993 E.03079
G1 X88.723 Y99.937 E.03079
G1 X89.242 Y98.905 E.03079
G1 X89.811 Y97.899 E.0308
G1 X90.43 Y96.923 E.0308
G1 X91.095 Y95.979 E.03077
G1 X91.805 Y95.068 E.03078
G1 X92.56 Y94.193 E.0308
G1 X93.357 Y93.357 E.03078
G1 X94.193 Y92.56 E.03078
G1 X95.068 Y91.805 E.0308
G1 X95.978 Y91.095 E.03076
G1 X96.923 Y90.43 E.0308
G1 X97.899 Y89.812 E.03079
G1 X98.904 Y89.242 E.03079
G1 X99.936 Y88.723 E.03079
G1 X100.992 Y88.255 E.03078
G1 X102.071 Y87.839 E.03082
G1 X103.167 Y87.476 E.03077
G1 X104.281 Y87.168 E.0308
G1 X105.408 Y86.915 E.03078
G1 X106.546 Y86.718 E.03078
G1 X107.693 Y86.576 E.0308
G1 X108.845 Y86.491 E.03079
G1 X110 Y86.463 E.03079
G1 X111.051 Y86.489 E.02802
G1 X109.408 Y95.312 F9000
G1 F1200
G1 X109.989 Y94.778 E.02103
G1 X110.192 Y94.975 E.00754
G1 X111.143 Y95.605 E.0304
G1 X112.194 Y96.044 E.03036
G1 X113.273 Y96.271 E.02939
G1 X113.848 Y96.297 E.01534
G1 X114.471 Y96.296 E.0166
G1 X115.561 Y96.111 E.02947
G1 X116.624 Y95.715 E.03023
G1 X116.923 Y95.534 E.00932
G1 X117.083 Y95.579 E.00443
G1 X117.617 Y95.609 E.01425
G1 X117.924 Y96.013 E.01352
G1 X118.804 Y96.76 E.03076
G1 X119.823 Y97.3 E.03074
G1 X120.182 Y97.4 E.00993
G1 X120.253 Y97.554 E.00452
G1 X120.952 Y98.472 E.03075
G1 X121.831 Y99.219 E.03074
G1 X122.283 Y99.459 E.01364
G1 X122.766 Y100.501 E.03061
G1 X123.464 Y101.419 E.03073
G1 X123.969 Y101.848 E.01766
G1 X124.14 Y102.624 E.02118
G1 X124.625 Y103.672 E.03078
G1 X125.198 Y104.427 E.02526
G1 X125.199 Y105.091 E.0177
G1 X125.447 Y106.218 E.03075
G1 X125.931 Y107.265 E.03074
G1 X126.06 Y107.435 E.00569
G1 X125.892 Y108.187 E.02054
G1 X125.889 Y109.34 E.03073
G1 X126.022 Y109.955 E.01677
G1 X125.908 Y110.201 E.00723
G1 X125.658 Y111.325 E.03069
G1 X125.655 Y112.477 E.0307
G1 X125.796 Y113.128 E.01775
G1 X125.392 Y113.999 E.02559
G1 X125.143 Y115.126 E.03076
G1 X125.142 Y116.007 E.02348
G1 X124.929 Y116.188 E.00745
G1 X124.231 Y117.108 E.03078
G1 X123.747 Y118.156 E.03077
G1 X123.653 Y118.585 E.0117
G1 X123.174 Y118.991 E.01673
G1 X122.476 Y119.909 E.03073
G1 X122.089 Y120.744 E.02453
G1 X121.587 Y121.012 E.01517
G1 X120.709 Y121.76 E.03074
G1 X120.012 Y122.679 E.03074
G1 X119.873 Y122.98 E.00884
G1 X118.986 Y123.227 E.02454
G1 X117.967 Y123.77 E.03077
G1 X117.089 Y124.517 E.03072
G1 X116.801 Y124.896 E.01269
G1 X115.589 Y124.961 E.03235
G1 X114.477 Y125.269 E.03075
G1 X113.834 Y125.61 E.0194
G1 X113.082 Y125.65 E.02007
G1 X112.959 Y125.551 E.00421
G1 X111.903 Y125.006 E.03167
G1 X110.822 Y124.701 E.02993
G1 X109.681 Y124.614 E.0305
G1 X108.544 Y124.756 E.03054
G1 X107.503 Y125.107 E.02928
G1 X106.958 Y125.398 E.01647
G1 X106.438 Y125.723 E.01634
G1 X106.197 Y125.56 E.00775
G1 X105.124 Y125.133 E.03078
G1 X103.985 Y124.947 E.03076
G1 X103.659 Y124.965 E.0087
G1 X103.282 Y124.567 E.01461
G1 X102.326 Y123.922 E.03074
G1 X101.254 Y123.497 E.03073
G1 X101.092 Y123.47 E.00438
G1 X101.046 Y123.395 E.00234
G1 X100.252 Y122.558 E.03075
G1 X99.296 Y121.911 E.03077
G1 X98.225 Y121.486 E.03071
G1 X97.754 Y121.409 E.01272
G1 X97.694 Y120.852 E.01493
G1 X97.326 Y119.759 E.03074
G1 X97.374 Y119.659 E.00296
G1 X97.655 Y118.515 E.0314
G1 X97.732 Y117.38 E.03032
G1 X97.611 Y116.246 E.03039
G1 X97.296 Y115.158 E.03019
G1 X96.785 Y114.123 E.03076
G1 X96.123 Y113.219 E.02986
G1 X95.311 Y112.438 E.03003
G1 X94.23 Y111.707 E.03478
G1 X94.255 Y111.533 E.00468
G1 X94.205 Y110.751 E.02088
G1 X94.087 Y110.094 E.01779
G1 X93.891 Y109.56 E.01516
G1 X94.09 Y108.97 E.01659
G1 X94.214 Y107.823 E.03075
G1 X94.109 Y106.851 E.02606
G1 X94.477 Y106.238 E.01905
G1 X94.845 Y105.144 E.03076
G1 X94.965 Y104.04 E.0296
G1 X95.267 Y103.722 E.01169
G1 X95.861 Y102.733 E.03075
G1 X96.23 Y101.64 E.03074
G1 X96.247 Y101.477 E.00437
G1 X96.468 Y101.327 E.00712
G1 X97.262 Y100.489 E.03077
G1 X97.856 Y99.5 E.03075
G1 X97.882 Y99.424 E.00214
G1 X98.448 Y99.041 E.01821
G1 X99.243 Y98.203 E.03078
G1 X99.811 Y97.26 E.02934
G1 X100.045 Y97.222 E.00632
G1 X101.117 Y96.795 E.03075
G1 X101.762 Y96.357 E.02078
G1 X102.631 Y96.379 E.02317
G1 X103.6 Y96.194 E.02629
G1 X103.962 Y96.335 E.01035
G1 X105.09 Y96.547 E.03059
G1 X106.237 Y96.547 E.03057
G1 X107.365 Y96.335 E.03059
G1 X108.434 Y95.918 E.03058
G1 X109.36 Y95.342 E.02906
;WIPE_START
G1 F7200
G1 X108.434 Y95.918 E-.259
G1 X107.365 Y96.335 E-.27252
G1 X106.254 Y96.544 E-.26848
;WIPE_END
G1 X125.197 Y127.742 F9000
G1 E.8 F1800
G1 F1200
G1 X131.467 Y118.788 E.29132
G1 X131.842 Y117.815 E.02779
G1 X132.199 Y116.734 E.03034
G1 X132.339 Y116.226 E.01404
G1 X123.49 Y128.864 E.41117
G1 X122.888 Y129.288 E.01962
G1 X121.794 Y129.972 E.03439
G1 X132.799 Y114.255 E.51135
G1 X132.947 Y113.404 E.02302
G1 X133.048 Y112.585 E.02199
G1 X120.313 Y130.772 E.59172
G1 X119.918 Y130.971 E.01179
G1 X118.954 Y131.398 E.0281
G1 X133.171 Y111.094 E.66059
G1 X133.192 Y109.75 E.03582
G1 X117.695 Y131.881 E.72004
G1 X116.508 Y132.261 E.03322
G1 X133.143 Y108.504 E.77294
G1 X133.086 Y107.726 E.02079
G1 X133.038 Y107.339 E.01039
G1 X115.378 Y132.561 E.82059
G1 X114.295 Y132.792 E.02951
G1 X132.885 Y106.243 E.86378
G1 X132.691 Y105.205 E.02814
G1 X125.482 Y115.501 E.33498
G1 X125.482 Y115.163 E.00901
G1 X125.715 Y114.108 E.02879
G1 X126.065 Y113.353 E.02218
G1 X132.462 Y104.217 E.29724
G1 X132.201 Y103.275 E.02605
G1 X125.995 Y112.139 E.28838
G1 X125.997 Y111.363 E.02068
G1 X126.174 Y110.568 E.02171
G1 X131.907 Y102.381 E.26637
G1 X131.587 Y101.523 E.02441
G1 X126.229 Y109.175 E.24896
G1 X126.232 Y108.225 E.02532
G1 X126.352 Y107.684 E.01477
G1 X131.244 Y100.698 E.2273
G1 X130.971 Y100.082 E.01796
G1 X130.88 Y99.902 E.00538
G1 X126.074 Y106.766 E.22332
G1 X125.77 Y106.109 E.01929
G1 X125.733 Y105.939 E.00464
G1 X130.495 Y99.137 E.22129
G1 X130.086 Y98.407 E.0223
G1 X125.538 Y104.902 E.21132
G1 X125.538 Y104.312 E.01572
G1 X125.274 Y103.965 E.01162
G1 X129.661 Y97.7 E.20384
G1 X129.22 Y97.015 E.02171
G1 X124.823 Y103.293 E.20427
G1 X124.46 Y102.498 E.02329
G1 X128.758 Y96.359 E.19972
G1 X128.279 Y95.728 E.02111
G1 X124.18 Y101.582 E.19046
G1 X123.712 Y101.184 E.01637
G1 X123.621 Y101.065 E.00399
G1 X127.787 Y95.116 E.19356
G1 X127.279 Y94.527 E.02073
G1 X123.142 Y100.435 E.19222
G1 X123.058 Y100.325 E.00369
G1 X122.756 Y99.672 E.01917
G1 X126.753 Y93.964 E.18571
G1 X126.215 Y93.417 E.02045
G1 X122.261 Y99.063 E.1837
G1 X122.022 Y98.937 E.0072
G1 X121.65 Y98.621 E.01301
G1 X125.662 Y92.891 E.18642
G1 X125.092 Y92.391 E.02021
G1 X121.095 Y98.1 E.18574
G1 X120.615 Y97.469 E.02113
G1 X124.51 Y91.907 E.18097
G1 X123.915 Y91.442 E.02013
G1 X120.021 Y97.003 E.18093
G1 X119.949 Y96.983 E.00199
G1 X119.34 Y96.66 E.01837
G1 X123.302 Y91.003 E.18406
G1 X122.678 Y90.579 E.02011
G1 X118.715 Y96.239 E.18415
G1 X118.143 Y95.74 E.02023
G1 X122.04 Y90.175 E.18106
G1 X121.385 Y89.796 E.02017
G1 X117.555 Y95.265 E.17794
G1 X117.138 Y95.242 E.01113
G1 X116.873 Y95.168 E.00733
G1 X116.577 Y95.347 E.00922
G1 X120.719 Y89.432 E.19245
G1 X120.038 Y89.09 E.02031
G1 X115.337 Y95.805 E.21846
G1 X114.443 Y95.956 E.02416
G1 X114.309 Y95.957 E.00357
G1 X119.339 Y88.773 E.23373
G1 X118.629 Y88.472 E.02055
G1 X113.402 Y95.937 E.24287
G1 X113.315 Y95.933 E.00232
G1 X112.591 Y95.781 E.01972
G1 X117.904 Y88.193 E.24687
G1 X117.159 Y87.942 E.02095
G1 X111.846 Y95.531 E.2469
G1 X111.303 Y95.304 E.01569
G1 X111.153 Y95.205 E.00479
G1 X116.402 Y87.709 E.24389
G1 X115.637 Y87.497 E.02116
G1 X110.524 Y94.788 E.23733
G1 X110.406 Y94.71 E.00377
G1 X109.996 Y94.311 E.01525
G1 X109.832 Y94.461 E.00592
G1 X114.835 Y87.317 E.23244
G1 X114.024 Y87.161 E.02201
G1 X108.038 Y95.709 E.27812
G1 X107.272 Y96.007 E.02191
G1 X106.854 Y96.086 E.01134
G1 X113.196 Y87.028 E.2947
G1 X112.349 Y86.923 E.02275
G1 X105.848 Y96.208 E.30208
G1 X105.121 Y96.208 E.01938
G1 X104.95 Y96.175 E.00464
G1 X111.476 Y86.855 E.30323
G1 X110.582 Y86.817 E.02385
G1 X104.136 Y96.022 E.29949
G1 X104.056 Y96.007 E.00217
G1 X103.632 Y95.842 E.01213
G1 X103.297 Y95.906 E.00909
G1 X109.666 Y86.81 E.29594
G1 X108.724 Y86.84 E.02512
G1 X102.289 Y96.031 E.29902
G1 X101.662 Y96.015 E.01672
G1 X101.124 Y96.38 E.01733
G1 X107.753 Y86.912 E.30803
G1 X106.747 Y87.035 E.02701
G1 X99.83 Y96.913 E.32139
G1 X99.601 Y96.951 E.00619
G1 X98.971 Y97.996 E.03252
G1 X98.227 Y98.78 E.02881
G1 X97.597 Y99.207 E.02028
G1 X97.547 Y99.357 E.00421
G1 X96.99 Y100.283 E.0288
G1 X96.247 Y101.067 E.02879
G1 X95.927 Y101.284 E.0103
G1 X95.896 Y101.566 E.00756
G1 X95.552 Y102.59 E.02879
G1 X94.995 Y103.515 E.02878
G1 X94.64 Y103.89 E.01376
G1 X94.584 Y104.404 E.01378
G1 X87.309 Y114.795 E.33806
G1 X87.538 Y115.783 E.02703
G1 X93.771 Y106.881 E.28962
G1 X93.873 Y107.823 E.02525
G1 X93.844 Y108.091 E.00718
G1 X87.799 Y116.725 E.2809
G1 X88.093 Y117.619 E.02508
G1 X93.601 Y109.754 E.2559
G1 X93.758 Y110.183 E.01217
G1 X93.853 Y110.708 E.01422
G1 X88.413 Y118.477 E.25277
G1 X88.756 Y119.302 E.02381
G1 X93.93 Y111.913 E.2404
G1 X94.554 Y112.336 E.02009
G1 X89.12 Y120.098 E.25252
G1 X89.505 Y120.863 E.02282
G1 X95.169 Y112.773 E.2632
G1 X95.72 Y113.302 E.02036
G1 X89.914 Y121.593 E.26976
G1 X90.339 Y122.3 E.02198
G1 X96.211 Y113.914 E.27284
G1 X96.494 Y114.3 E.01276
G1 X96.648 Y114.606 E.00913
G1 X90.78 Y122.985 E.27263
G1 X91.242 Y123.641 E.02138
G1 X97.012 Y115.4 E.26812
G1 X97.279 Y116.334 E.02589
G1 X91.721 Y124.272 E.25826
G1 X92.213 Y124.884 E.02093
G1 X97.384 Y117.499 E.24027
G1 X97.319 Y118.463 E.02575
G1 X97.15 Y119.148 E.0188
G1 X92.721 Y125.473 E.20579
G1 X93.247 Y126.036 E.02053
G1 X97.187 Y120.41 E.18305
G1 X97.361 Y120.925 E.01449
G1 X97.412 Y121.403 E.01281
G1 X93.785 Y126.583 E.16853
G1 X94.338 Y127.109 E.02034
G1 X98.054 Y121.802 E.17266
G1 X98.133 Y121.815 E.00213
