; generated by PrusaSlicer 2.6.1+win64 on 2024-01-25 at 20:55:36 UTC

; 

; external perimeters extrusion width = 0.42mm
; perimeters extrusion width = 0.44mm
; infill extrusion width = 0.44mm
; solid infill extrusion width = 0.44mm
; top infill extrusion width = 0.40mm
; support material extrusion width = 0.36mm
; first layer extrusion width = 0.42mm

M201 X500 Y500 Z100 E5000 ; sets maximum accelerations, mm/sec^2
M203 X500 Y500 Z10 E60 ; sets maximum feedrates, mm / sec
M204 S500 T1000 ; sets acceleration (S) and retract acceleration (R), mm/sec^2
M205 X8.00 Y8.00 Z0.40 E5.00 ; sets the jerk limits, mm/sec
M205 S0 T0 ; sets the minimum extruding and travel feed rate, mm/sec
;TYPE:Custom
G90 ; use absolute coordinates
M83 ; extruder relative mode
M104 S150 ; set temporary nozzle temp to prevent oozing during homing
M140 S60 ; set final bed temp
G4 S30 ; allow partial nozzle warmup
G28 ; home all axis and restore leveling
G1 Z50 F240
G1 X2.0 Y10 F3000
M104 S215 ; set final nozzle temp
M190 S60 ; wait for bed temp to stabilize
M109 S215 ; wait for nozzle temp to stabilize
G1 Z0.28 F240
G92 E0
G1 X2.0 Y140 E10 F1500 ; prime the nozzle
G1 X2.3 Y140 F5000
G92 E0
G1 X2.3 Y10 E10 F1200 ; prime the nozzle
G92 E0
G21 ; set units to millimeters
G90 ; use absolute coordinates
M83 ; use relative distances for extrusion
; Filament gcode
M107
;LAYER_CHANGE
;Z:0.2
;HEIGHT:0.2
;BEFORE_LAYER_CHANGE
G92 E0
;0.2


G1 E-.8 F1800
G1 Z.2 F9000
;AFTER_LAYER_CHANGE
;0.2
G1 X89.536 Y89.298
G1 E.8 F1800
M204 S500
;TYPE:Skirt/Brim
;WIDTH:0.42
G1 F1200
G1 X91.47 Y87.551 E.06946
G1 X94.156 Y85.581 E.08877
G1 X96.41 Y84.258 E.06966
G1 X99.016 Y83.043 E.07663
G1 X101.472 Y82.169 E.06948
G1 X104.707 Y81.376 E.08877
G1 X107.295 Y81.017 E.06963
G1 X110.165 Y80.891 E.07656
G1 X112.778 Y81.024 E.06973
G1 X116.064 Y81.53 E.08861
G1 X118.592 Y82.188 E.06962
G1 X121.289 Y83.169 E.07649
G1 X123.655 Y84.293 E.06981
G1 X126.497 Y86.017 E.08859
G1 X128.582 Y87.593 E.06966
G1 X130.702 Y89.536 E.07664
G1 X132.454 Y91.475 E.06965
G1 X134.419 Y94.156 E.08859
G1 X135.742 Y96.41 E.06966
G1 X136.957 Y99.016 E.07663
G1 X137.833 Y101.478 E.06964
G1 X138.624 Y104.707 E.0886
G1 X138.983 Y107.295 E.06963
G1 X139.109 Y110.168 E.07664
G1 X138.976 Y112.778 E.06965
G1 X138.47 Y116.064 E.08861
G1 X137.812 Y118.593 E.06964
G1 X136.831 Y121.289 E.07646
G1 X135.707 Y123.655 E.06981
G1 X133.983 Y126.497 E.08859
G1 X132.407 Y128.582 E.06966
G1 X130.464 Y130.702 E.07664
G1 X128.525 Y132.454 E.06965
G1 X125.844 Y134.419 E.08859
G1 X123.59 Y135.742 E.06966
G1 X120.984 Y136.957 E.07663
G1 X118.522 Y137.833 E.06964
G1 X115.293 Y138.624 E.0886
G1 X112.705 Y138.983 E.06963
G1 X109.832 Y139.109 E.07664
G1 X107.222 Y138.976 E.06965
G1 X103.936 Y138.47 E.08861
G1 X101.408 Y137.812 E.06962
G1 X98.711 Y136.831 E.07649
G1 X96.345 Y135.707 E.06981
G1 X93.503 Y133.983 E.08859
G1 X91.418 Y132.407 E.06966
G1 X89.3 Y130.466 E.07657
G1 X87.546 Y128.525 E.06972
G1 X85.581 Y125.844 E.08859
G1 X84.258 Y123.59 E.06966
G1 X83.044 Y120.987 E.07655
G1 X82.167 Y118.522 E.06973
G1 X81.376 Y115.293 E.0886
G1 X81.017 Y112.705 E.06963
G1 X80.891 Y109.838 E.07648
G1 X81.024 Y107.222 E.06981
G1 X81.53 Y103.936 E.08861
G1 X82.188 Y101.408 E.06962
G1 X83.169 Y98.711 E.07649
G1 X84.293 Y96.345 E.06981
G1 X86.017 Y93.503 E.08859
G1 X87.593 Y91.418 E.06966
G1 X89.496 Y89.342 E.07506
; printing object 3.0-s-ii-botinterstage.stl id:0 copy 0
;WIPE_START
G1 F7200
G1 X91.47 Y87.551 E-.63303
G1 X92.037 Y87.135 E-.16697
;WIPE_END
G1 X110.021 Y86.463 F9000
G1 E.8 F1800
;TYPE:Support material
G1 F1200
G1 X111.155 Y86.491 E.03023
G1 X112.307 Y86.576 E.03079
G1 X113.454 Y86.718 E.0308
G1 X114.592 Y86.915 E.03078
G1 X115.719 Y87.168 E.03078
G1 X116.832 Y87.476 E.03078
G1 X117.929 Y87.839 E.0308
G1 X119.007 Y88.254 E.03079
G1 X120.063 Y88.723 E.03079
G1 X121.095 Y89.242 E.03079
G1 X122.101 Y89.811 E.0308
G1 X123.077 Y90.43 E.0308
G1 X124.021 Y91.095 E.03077
G1 X124.932 Y91.805 E.03078
G1 X125.807 Y92.56 E.0308
G1 X126.643 Y93.357 E.03078
G1 X127.44 Y94.193 E.03078
G1 X128.195 Y95.068 E.0308
G1 X128.905 Y95.979 E.03078
G1 X129.57 Y96.923 E.03077
G1 X130.189 Y97.899 E.0308
G1 X130.758 Y98.905 E.0308
G1 X131.277 Y99.937 E.03079
G1 X131.746 Y100.993 E.03079
G1 X132.161 Y102.071 E.03079
G1 X132.524 Y103.168 E.0308
G1 X132.832 Y104.281 E.03078
G1 X133.085 Y105.408 E.03078
G1 X133.282 Y106.546 E.03078
G1 X133.424 Y107.693 E.0308
G1 X133.509 Y108.845 E.03079
G1 X133.537 Y110 E.03079
G1 X133.509 Y111.155 E.03079
G1 X133.424 Y112.307 E.03079
G1 X133.282 Y113.454 E.0308
G1 X133.085 Y114.592 E.03078
G1 X132.832 Y115.719 E.03078
G1 X132.524 Y116.833 E.0308
G1 X132.161 Y117.929 E.03077
G1 X131.746 Y119.007 E.03079
G1 X131.277 Y120.063 E.03079
G1 X130.758 Y121.095 E.03079
G1 X130.189 Y122.1 E.03078
G1 X129.57 Y123.077 E.03082
G1 X128.905 Y124.021 E.03077
G1 X128.195 Y124.932 E.03078
G1 X127.44 Y125.807 E.0308
G1 X126.643 Y126.643 E.03078
G1 X125.807 Y127.44 E.03078
G1 X124.932 Y128.195 E.0308
G1 X124.021 Y128.905 E.03078
G1 X123.077 Y129.57 E.03077
G1 X122.101 Y130.189 E.0308
G1 X121.095 Y130.758 E.0308
G1 X120.063 Y131.277 E.03079
G1 X119.007 Y131.746 E.03079
G1 X117.929 Y132.161 E.03079
G1 X116.832 Y132.524 E.0308
G1 X115.719 Y132.832 E.03078
G1 X114.592 Y133.085 E.03078
G1 X113.454 Y133.282 E.03078
G1 X112.307 Y133.424 E.0308
G1 X111.155 Y133.509 E.03079
G1 X110 Y133.537 E.03079
G1 X108.845 Y133.509 E.03079
G1 X107.693 Y133.424 E.03079
G1 X106.546 Y133.282 E.0308
G1 X105.408 Y133.085 E.03078
G1 X104.281 Y132.832 E.03078
G1 X103.167 Y132.524 E.0308
G1 X102.07 Y132.161 E.0308
G1 X100.993 Y131.746 E.03076
G1 X99.937 Y131.277 E.03079
G1 X98.905 Y130.758 E.03079
G1 X97.899 Y130.189 E.0308
G1 X96.923 Y129.57 E.0308
G1 X95.979 Y128.905 E.03077
G1 X95.068 Y128.195 E.03078
G1 X94.193 Y127.44 E.0308
G1 X93.357 Y126.643 E.03078
G1 X92.56 Y125.807 E.03078
G1 X91.805 Y124.932 E.0308
G1 X91.095 Y124.021 E.03078
G1 X90.43 Y123.077 E.03077
G1 X89.811 Y122.101 E.0308
G1 X89.242 Y121.095 E.0308
G1 X88.723 Y120.063 E.03079
G1 X88.254 Y119.007 E.03079
G1 X87.839 Y117.929 E.03079
G1 X87.476 Y116.833 E.03077
G1 X87.168 Y115.719 E.0308
G1 X86.915 Y114.592 E.03078
G1 X86.718 Y113.454 E.03078
G1 X86.576 Y112.307 E.0308
G1 X86.491 Y111.155 E.03079
G1 X86.463 Y110 E.03079
G1 X86.491 Y108.845 E.03079
G1 X86.576 Y107.693 E.03079
G1 X86.718 Y106.546 E.0308
G1 X86.915 Y105.408 E.03078
G1 X87.168 Y104.281 E.03078
G1 X87.476 Y103.168 E.03078
G1 X87.839 Y102.071 E.0308
G1 X88.254 Y100.993 E.03079
G1 X88.723 Y99.937 E.03079
G1 X89.242 Y98.905 E.03079
G1 X89.811 Y97.899 E.0308
G1 X90.43 Y96.923 E.0308
G1 X91.095 Y95.979 E.03077
G1 X91.805 Y95.068 E.03078
G1 X92.56 Y94.193 E.0308
G1 X93.357 Y93.357 E.03078
G1 X94.193 Y92.56 E.03078
G1 X95.068 Y91.805 E.0308
G1 X95.979 Y91.095 E.03078
G1 X96.923 Y90.43 E.03077
G1 X97.899 Y89.811 E.0308
G1 X98.905 Y89.242 E.0308
G1 X99.937 Y88.723 E.03079
G1 X100.993 Y88.254 E.03079
G1 X102.071 Y87.839 E.03079
G1 X103.168 Y87.476 E.0308
G1 X104.281 Y87.168 E.03078
G1 X105.408 Y86.915 E.03078
G1 X106.546 Y86.718 E.03078
G1 X107.693 Y86.576 E.0308
G1 X108.845 Y86.491 E.03079
G1 X109.964 Y86.464 E.02983
G1 X110.196 Y91.873 F9000
G1 F1200
G1 X111.323 Y91.618 E.0308
G1 X112.177 Y91.953 E.02445
G1 X113.403 Y92.045 E.03277
G1 X113.474 Y92.028 E.00195
G1 X114.325 Y92.362 E.02436
G1 X115.322 Y92.437 E.02665
G1 X115.569 Y92.634 E.00842
G1 X116.713 Y93.083 E.03275
G1 X117.123 Y93.114 E.01096
G1 X117.587 Y93.484 E.01582
G1 X118.772 Y93.949 E.03393
G1 X119.625 Y94.633 E.02914
G1 X120.769 Y95.085 E.03278
G1 X121.01 Y95.104 E.00644
G1 X121.687 Y96.095 E.03199
G1 X122.648 Y96.86 E.03274
G1 X122.909 Y96.962 E.00747
G1 X123.272 Y97.588 E.01929
G1 X123.662 Y98.054 E.01619
G1 X124.176 Y98.527 E.01862
G1 X124.504 Y98.727 E.01024
G1 X124.635 Y99.15 E.0118
G1 X125.327 Y100.166 E.03276
G1 X125.541 Y100.336 E.00728
G1 X125.705 Y100.867 E.01481
G1 X126.397 Y101.884 E.03278
G1 X126.681 Y102.11 E.00967
G1 X126.681 Y102.521 E.01095
G1 X127.044 Y103.697 E.0328
G1 X127.543 Y104.429 E.02361
G1 X127.543 Y105.206 E.02071
G1 X127.905 Y106.381 E.03277
G1 X128.149 Y106.738 E.01152
G1 X128.076 Y106.974 E.00658
G1 X128.074 Y108.203 E.03275
G1 X128.323 Y109.016 E.02266
G1 X128.21 Y109.385 E.01029
G1 X128.21 Y110.615 E.03278
G1 X128.311 Y110.945 E.0092
G1 X128.091 Y111.657 E.01986
G1 X128.091 Y112.887 E.03278
G1 X128.135 Y113.027 E.00391
G1 X127.991 Y113.238 E.00681
G1 X127.629 Y114.413 E.03277
G1 X127.629 Y115.242 E.02209
G1 X127.195 Y115.875 E.02045
G1 X126.831 Y117.05 E.03278
G1 X126.831 Y117.249 E.0053
G1 X126.251 Y118.1 E.02745
G1 X125.941 Y119.104 E.028
G1 X125.607 Y119.37 E.01138
G1 X124.914 Y120.386 E.03278
G1 X124.728 Y120.992 E.01689
G1 X123.981 Y121.586 E.02544
G1 X123.286 Y122.604 E.03285
G1 X123.23 Y122.783 E.005
G1 X122.962 Y122.889 E.00768
G1 X122 Y123.656 E.03279
G1 X121.53 Y124.345 E.02223
G1 X120.548 Y124.74 E.02821
G1 X119.593 Y125.513 E.03274
G1 X119.362 Y125.857 E.01104
G1 X119.103 Y125.877 E.00692
G1 X117.959 Y126.329 E.03278
G1 X117.099 Y127.018 E.02937
G1 X116.945 Y127.004 E.00412
G1 X116.246 Y127.125 E.01891
G1 X115.907 Y126.884 E.01109
G1 X114.715 Y126.559 E.03293
G1 X113.503 Y126.549 E.0323
G1 X112.376 Y126.872 E.03125
G1 X111.728 Y127.262 E.02016
G1 X111.24 Y127.598 E.01579
G1 X110.758 Y128.196 E.02047
G1 X110.191 Y128.239 E.01515
G1 X109.924 Y128.344 E.00765
G1 X108.962 Y128.124 E.0263
G1 X107.838 Y128.208 E.03004
G1 X107.664 Y128.108 E.00535
G1 X106.465 Y127.834 E.03278
G1 X105.4 Y127.914 E.02846
G1 X105.344 Y127.853 E.00221
G1 X104.279 Y127.238 E.03278
G1 X103.015 Y126.95 E.03455
G1 X102.945 Y126.874 E.00275
G1 X101.88 Y126.259 E.03278
G1 X100.874 Y126.03 E.0275
G1 X100.223 Y125.328 E.02552
G1 X99.158 Y124.714 E.03276
G1 X98.743 Y124.619 E.01135
G1 X98.605 Y124.333 E.00846
G1 X97.769 Y123.432 E.03276
G1 X96.784 Y122.863 E.03032
G1 X96.407 Y122.081 E.02314
G1 X95.571 Y121.179 E.03278
G1 X95.198 Y120.964 E.01147
G1 X95.171 Y120.788 E.00475
G1 X94.637 Y119.681 E.03276
G1 X93.819 Y118.802 E.032
G1 X93.721 Y118.151 E.01755
G1 X93.187 Y117.043 E.03278
G1 X92.927 Y116.763 E.01018
G1 X92.773 Y115.739 E.0276
G1 X92.24 Y114.631 E.03277
G1 X92.119 Y114.501 E.00473
G1 X92.199 Y113.97 E.01431
G1 X92.016 Y112.754 E.03277
G1 X91.813 Y112.332 E.01248
G1 X91.908 Y111.701 E.01701
G1 X91.725 Y110.485 E.03277
G1 X91.69 Y110.414 E.00211
G1 X91.853 Y109.336 E.02906
G1 X91.686 Y108.229 E.02984
G1 X92.007 Y107.559 E.0198
G1 X92.188 Y106.345 E.03271
G1 X92.108 Y105.813 E.01434
G1 X92.611 Y104.763 E.03103
G1 X92.736 Y103.919 E.02274
G1 X92.841 Y103.806 E.00411
G1 X93.375 Y102.698 E.03278
G1 X93.501 Y101.859 E.02261
G1 X94.09 Y101.222 E.02312
G1 X94.621 Y100.113 E.03277
G1 X94.685 Y99.682 E.01161
G1 X95.044 Y99.472 E.01108
G1 X95.878 Y98.567 E.0328
G1 X96.364 Y97.549 E.03006
G1 X97.276 Y97.023 E.02806
G1 X98.112 Y96.121 E.03278
G1 X98.334 Y95.66 E.01364
G1 X98.763 Y95.562 E.01173
G1 X99.828 Y94.947 E.03278
G1 X100.27 Y94.47 E.01733
G1 X100.644 Y94.385 E.01022
G1 X101.709 Y93.77 E.03278
G1 X101.848 Y93.62 E.00545
G1 X102.447 Y93.483 E.01638
G1 X103.512 Y92.869 E.03276
G1 X103.765 Y92.595 E.00994
G1 X104.362 Y92.64 E.01596
G1 X105.561 Y92.366 E.03278
G1 X106.219 Y91.987 E.02024
G1 X107.13 Y92.055 E.02435
G1 X108.329 Y91.781 E.03278
G1 X108.591 Y91.63 E.00806
G1 X108.97 Y91.779 E.01085
G1 X110.139 Y91.869 E.03125
;WIPE_START
G1 F7200
G1 X108.97 Y91.779 E-.27846
G1 X108.591 Y91.63 E-.09672
G1 X108.329 Y91.781 E-.07182
G1 X107.13 Y92.055 E-.2921
G1 X106.874 Y92.036 E-.0609
;WIPE_END
G1 X125.197 Y127.742 F9000
G1 E.8 F1800
G1 F1200
G1 X131.467 Y118.788 E.29132
G1 X131.842 Y117.815 E.02779
G1 X132.199 Y116.734 E.03034
G1 X132.339 Y116.226 E.01404
G1 X123.49 Y128.864 E.41117
G1 X122.888 Y129.288 E.01962
G1 X121.794 Y129.972 E.03439
G1 X132.799 Y114.255 E.51135
G1 X132.947 Y113.404 E.02302
G1 X133.048 Y112.585 E.02199
G1 X120.313 Y130.772 E.59172
G1 X119.918 Y130.971 E.01179
G1 X118.954 Y131.398 E.0281
G1 X133.171 Y111.094 E.66059
G1 X133.192 Y109.75 E.03582
G1 X117.695 Y131.881 E.72004
G1 X116.508 Y132.261 E.03322
G1 X122.521 Y123.674 E.27938
G1 X122.252 Y123.889 E.00918
G1 X121.752 Y124.622 E.02365
G1 X120.722 Y125.036 E.02959
G1 X120.548 Y125.176 E.00595
G1 X115.378 Y132.561 E.24026
G1 X114.295 Y132.792 E.02951
G1 X118.797 Y126.363 E.20917
G1 X118.132 Y126.626 E.01906
G1 X117.204 Y127.369 E.03168
G1 X117.174 Y127.366 E.0008
G1 X113.253 Y132.965 E.18217
G1 X112.247 Y133.088 E.02701
G1 X116.171 Y127.483 E.18235
G1 X115.759 Y127.195 E.0134
G1 X115.501 Y127.125 E.00712
G1 X111.276 Y133.16 E.19634
G1 X111.138 Y133.17 E.00369
G1 X110.334 Y133.19 E.02143
G1 X114.728 Y126.914 E.20418
G1 X114.669 Y126.898 E.00163
G1 X113.824 Y126.891 E.02252
G1 X109.418 Y133.183 E.20472
G1 X108.524 Y133.145 E.02385
G1 X112.743 Y127.12 E.19603
G1 X112.512 Y127.186 E.0064
G1 X111.912 Y127.547 E.01866
G1 X111.473 Y127.849 E.0142
G1 X110.93 Y128.524 E.02309
G1 X110.834 Y128.531 E.00257
G1 X107.651 Y133.077 E.1479
G1 X106.804 Y132.972 E.02275
G1 X109.818 Y128.667 E.14006
G1 X109.024 Y128.486 E.0217
G1 X105.976 Y132.839 E.14163
G1 X105.165 Y132.683 E.02201
G1 X108.072 Y128.531 E.13508
G1 X107.759 Y128.554 E.00836
G1 X107.539 Y128.427 E.00677
G1 X107.268 Y128.366 E.0074
G1 X104.363 Y132.503 E.13472
G1 X103.598 Y132.291 E.02116
G1 X106.474 Y128.184 E.13363
G1 X105.51 Y128.246 E.02574
G1 X102.841 Y132.058 E.12402
G1 X102.096 Y131.807 E.02095
G1 X104.807 Y127.935 E.12597
G1 X104.151 Y127.557 E.02018
G1 X101.371 Y131.528 E.12919
G1 X100.661 Y131.227 E.02055
G1 X103.357 Y127.376 E.12528
G1 X102.837 Y127.257 E.01422
G1 X102.731 Y127.143 E.00415
G1 X102.638 Y127.089 E.00287
G1 X99.962 Y130.91 E.12432
G1 X99.281 Y130.568 E.02031
G1 X101.982 Y126.71 E.12551
G1 X101.754 Y126.579 E.00701
G1 X101.236 Y126.461 E.01416
G1 X98.615 Y130.204 E.12178
G1 X97.96 Y129.825 E.02017
G1 X100.528 Y126.157 E.11933
G1 X100.009 Y125.597 E.02035
G1 X97.322 Y129.421 E.12456
G1 X96.698 Y128.997 E.02011
G1 X99.347 Y125.214 E.12308
G1 X99.032 Y125.033 E.00968
G1 X98.619 Y124.939 E.01129
G1 X96.085 Y128.558 E.11774
G1 X95.49 Y128.093 E.02013
G1 X98.131 Y124.321 E.12272
G1 X97.606 Y123.756 E.02056
G1 X94.908 Y127.609 E.12536
G1 X94.338 Y127.109 E.02021
G1 X96.963 Y123.359 E.12199
G1 X96.524 Y123.105 E.01352
G1 X96.4 Y122.848 E.0076
G1 X93.785 Y126.583 E.12151
G1 X93.247 Y126.036 E.02045
G1 X95.986 Y122.125 E.12725
G1 X95.461 Y121.56 E.02056
G1 X92.721 Y125.473 E.12731
G1 X92.213 Y124.884 E.02073
G1 X94.873 Y121.085 E.1236
G1 X94.843 Y120.89 E.00526
G1 X94.535 Y120.252 E.01888
G1 X91.721 Y124.272 E.13078
G1 X91.367 Y123.819 E.01532
G1 X91.242 Y123.641 E.0058
G1 X94.083 Y119.584 E.132
G1 X93.557 Y119.019 E.02057
G1 X90.78 Y122.985 E.12903
G1 X90.339 Y122.3 E.02171
G1 X93.304 Y118.067 E.13774
G1 X92.929 Y117.288 E.02304
G1 X89.914 Y121.593 E.14007
G1 X89.505 Y120.863 E.0223
G1 X92.547 Y116.517 E.14138
G1 X92.445 Y115.84 E.01825
G1 X92.305 Y115.549 E.00861
G1 X89.12 Y120.098 E.148
G1 X88.756 Y119.302 E.02333
G1 X91.919 Y114.785 E.14696
G1 X91.759 Y114.612 E.00628
G1 X91.856 Y113.97 E.0173
G1 X91.805 Y113.633 E.00908
G1 X88.413 Y118.477 E.1576
G1 X88.093 Y117.619 E.02441
G1 X91.583 Y112.636 E.16214
G1 X91.462 Y112.385 E.00743
G1 X91.565 Y111.701 E.01843
G1 X91.521 Y111.409 E.00787
G1 X87.799 Y116.725 E.17295
G1 X87.538 Y115.783 E.02605
G1 X91.361 Y110.323 E.17764
G1 X91.51 Y109.336 E.0266
G1 X91.443 Y108.891 E.01199
G1 X87.309 Y114.795 E.19209
G1 X87.115 Y113.757 E.02814
G1 X91.721 Y107.179 E.21402
G1 X91.845 Y106.345 E.02247
G1 X91.763 Y105.804 E.01458
G1 X86.962 Y112.661 E.22309
G1 X86.914 Y112.274 E.01039
G1 X86.857 Y111.496 E.02079
G1 X92.955 Y102.787 E.28335
G1 X93.047 Y102.596 E.00565
G1 X93.181 Y101.705 E.02401
G1 X93.806 Y101.029 E.02454
G1 X94.292 Y100.012 E.03004
G1 X94.373 Y99.471 E.01458
G1 X94.829 Y99.205 E.01407
G1 X95.594 Y98.375 E.03008
G1 X96.103 Y97.308 E.03151
G1 X97.062 Y96.754 E.02952
G1 X97.539 Y96.24 E.01869
G1 X103.492 Y87.739 E.27659
G1 X104.622 Y87.439 E.03116
G1 X99.511 Y94.738 E.23748
G1 X99.614 Y94.679 E.00316
G1 X100.093 Y94.163 E.01876
G1 X100.518 Y94.066 E.01162
G1 X101.164 Y93.693 E.01988
