; generated by PrusaSlicer 2.6.1+win64 on 2024-01-25 at 20:49:50 UTC

; 

; external perimeters extrusion width = 0.42mm
; perimeters extrusion width = 0.44mm
; infill extrusion width = 0.44mm
; solid infill extrusion width = 0.44mm
; top infill extrusion width = 0.40mm
; support material extrusion width = 0.36mm
; first layer extrusion width = 0.42mm

M201 X500 Y500 Z100 E5000 ; sets maximum accelerations, mm/sec^2
M203 X500 Y500 Z10 E60 ; sets maximum feedrates, mm / sec
M204 S500 T1000 ; sets acceleration (S) and retract acceleration (R), mm/sec^2
M205 X8.00 Y8.00 Z0.40 E5.00 ; sets the jerk limits, mm/sec
M205 S0 T0 ; sets the minimum extruding and travel feed rate, mm/sec
;TYPE:Custom
G90 ; use absolute coordinates
M83 ; extruder relative mode
M104 S150 ; set temporary nozzle temp to prevent oozing during homing
M140 S60 ; set final bed temp
G4 S30 ; allow partial nozzle warmup
G28 ; home all axis and restore leveling
G1 Z50 F240
G1 X2.0 Y10 F3000
M104 S215 ; set final nozzle temp
M190 S60 ; wait for bed temp to stabilize
M109 S215 ; wait for nozzle temp to stabilize
G1 Z0.28 F240
G92 E0
G1 X2.0 Y140 E10 F1500 ; prime the nozzle
G1 X2.3 Y140 F5000
G92 E0
G1 X2.3 Y10 E10 F1200 ; prime the nozzle
G92 E0
G21 ; set units to millimeters
G90 ; use absolute coordinates
M83 ; use relative distances for extrusion
; Filament gcode
M107
;LAYER_CHANGE
;Z:0.2
;HEIGHT:0.2
;BEFORE_LAYER_CHANGE
G92 E0
;0.2


G1 E-.8 F1800
G1 Z.2 F9000
;AFTER_LAYER_CHANGE
;0.2
G1 X84.676 Y84.418
G1 E.8 F1800
M204 S500
;TYPE:Skirt/Brim
;WIDTH:0.42
G1 F1200
G1 X85.588 Y83.65 E.03178
G1 X86.215 Y83.23 E.02011
G1 X87.141 Y82.781 E.02743
G1 X88.191 Y82.468 E.0292
G1 X110.632 Y78.897 E.6056
G1 X111.61 Y78.872 E.02607
G1 X112.26 Y78.941 E.01742
G1 X113.399 Y79.151 E.03087
G1 X114.673 Y79.66 E.03656
G1 X115.822 Y80.387 E.03624
G1 X116.905 Y81.427 E.04002
G1 X118.302 Y83.577 E.06833
G1 X118.694 Y84.5 E.02673
G1 X119.973 Y89.172 E.1291
G1 X120.106 Y90.111 E.02528
G1 X120.412 Y111.973 E.5827
G1 X120.041 Y113.654 E.04588
G1 X118.971 Y114.983 E.04547
G1 X115.833 Y117.437 E.10617
G1 X114.336 Y118.406 E.04753
G1 X112.932 Y118.939 E.04002
G1 X111.134 Y119.209 E.04846
G1 X89.955 Y120.316 E.56522
G1 X88.862 Y120.212 E.02926
G1 X87.494 Y119.875 E.03755
G1 X86.137 Y119.232 E.04002
G1 X85.01 Y118.386 E.03756
G1 X84.014 Y117.263 E.04
G1 X83.363 Y116.137 E.03466
G1 X82.931 Y114.99 E.03267
G1 X82.685 Y113.502 E.0402
G1 X82.001 Y93.146 E.54282
G1 X82.821 Y87.7 E.14678
G1 X83.074 Y86.905 E.02223
G1 X83.647 Y85.75 E.03436
G1 X84.067 Y85.123 E.02011
G1 X84.637 Y84.464 E.02322
G1 X84.928 Y84.699 F9000
G1 F1200
G1 X85.797 Y83.963 E.03035
G1 X86.425 Y83.544 E.02012
G1 X87.258 Y83.14 E.02467
G1 X88.264 Y82.838 E.02799
G1 X110.691 Y79.27 E.60522
G1 X112.221 Y79.316 E.04079
G1 X113.325 Y79.521 E.02993
G1 X114.472 Y79.979 E.03292
G1 X115.62 Y80.706 E.03621
G1 X116.594 Y81.641 E.03598
G1 X117.978 Y83.769 E.06765
G1 X118.33 Y84.599 E.02403
G1 X119.61 Y89.272 E.12913
G1 X119.729 Y90.117 E.02274
G1 X120.035 Y111.979 E.5827
G1 X119.663 Y113.567 E.04347
G1 X118.739 Y114.686 E.03868
G1 X115.326 Y117.334 E.11513
G1 X114.134 Y118.087 E.03758
G1 X112.871 Y118.566 E.036
G1 X111.48 Y118.793 E.03756
G1 X89.936 Y119.939 E.57498
G1 X88.952 Y119.846 E.02634
G1 X87.584 Y119.509 E.03755
G1 X86.363 Y118.931 E.036
G1 X85.236 Y118.085 E.03756
G1 X84.34 Y117.074 E.036
G1 X83.689 Y115.948 E.03466
G1 X83.301 Y114.917 E.02936
G1 X83.062 Y113.489 E.03859
G1 X82.378 Y93.146 E.54247
G1 X83.191 Y87.773 E.14483
G1 X83.418 Y87.058 E.01999
G1 X83.961 Y85.959 E.03267
G1 X84.892 Y84.746 E.04075
; printing object 3.0-s-ii-ullage.stl id:0 copy 2
;WIPE_START
G1 F7200
G1 X85.797 Y83.963 E-.28422
G1 X86.425 Y83.544 E-.1793
G1 X87.258 Y83.14 E-.21988
G1 X87.728 Y82.999 E-.1166
;WIPE_END
G1 X111.868 Y82.674 F9000
G1 E.8 F1800
;TYPE:Support material
G1 F1200
G1 X112.666 Y82.833 E.02169
G1 X113.815 Y83.56 E.03624
G1 X114.615 Y84.72 E.03755
G1 X114.727 Y85.266 E.01485
G1 X115.073 Y85.491 E.011
G1 X114.783 Y88.802 E.08858
G1 X116.353 Y90.164 E.05539
G1 X113.77 Y91.812 E.08166
G1 X113.214 Y92.618 E.0261
G1 X112.023 Y93.371 E.03755
G1 X110.632 Y93.598 E.03756
G1 X109.263 Y93.261 E.03757
G1 X108.136 Y92.415 E.03756
G1 X107.485 Y91.289 E.03466
G1 X107.309 Y90.403 E.02407
G1 X107.309 Y89.75 E.0174
G1 X107.456 Y89.01 E.02011
G1 X107.722 Y88.413 E.01742
G1 X108.141 Y87.786 E.0201
G1 X108.284 Y87.657 E.00513
G1 X108.086 Y87.314 E.01056
G1 X107.91 Y86.428 E.02407
G1 X107.91 Y85.775 E.0174
G1 X108.057 Y85.035 E.02011
G1 X108.322 Y84.439 E.01738
G1 X108.741 Y83.811 E.02012
G1 X109.227 Y83.374 E.01742
G1 X109.854 Y82.955 E.0201
G1 X110.476 Y82.753 E.01743
G1 X111.217 Y82.606 E.02013
G1 X111.812 Y82.668 E.01594
G1 X112.345 Y86.55 F9000
G1 F1200
G1 X112.749 Y86.308 E.01255
G1 X113.481 Y86.626 E.02127
G1 X113.933 Y86.956 E.01492
G1 X114.034 Y87.177 E.00648
G1 X113.824 Y89.582 E.06434
G1 X113.686 Y89.782 E.00648
G1 X113.183 Y90.029 E.01493
G1 X112.408 Y90.215 E.02124
G1 X112.052 Y89.906 E.01256
G1 X112.34 Y86.606 E.08828
;WIPE_START
G1 F7200
G1 X112.052 Y89.906 E-.78673
G1 X112.094 Y89.943 E-.01327
;WIPE_END
G1 X114.91 Y90.883 F9000
G1 E.8 F1800
G1 F1200
G1 X115.573 Y89.937 E.03079
G1 X115 Y89.44 E.02022
G1 X112.931 Y92.395 E.09614
G1 X111.9 Y93.048 E.03253
G1 X111.509 Y93.111 E.01056
G1 X113.517 Y90.243 E.09331
G1 X113.229 Y90.373 E.00842
G1 X112.365 Y90.573 E.02364
G1 X110.513 Y93.219 E.08608
G1 X109.727 Y93.026 E.02157
G1 X111.769 Y90.11 E.09488
G1 X111.699 Y90.049 E.00247
G1 X111.814 Y88.731 E.03526
G1 X109.051 Y92.677 E.12838
G1 X108.447 Y92.224 E.02012
G1 X111.945 Y87.228 E.16254
G1 X112.022 Y86.348 E.02354
G1 X112.723 Y85.928 E.02178
G1 X112.826 Y85.971 E.00297
G1 X113.954 Y84.359 E.05244
G1 X113.575 Y83.809 E.0178
G1 X113.467 Y83.741 E.0034
G1 X108.015 Y91.527 E.25332
G1 X107.807 Y91.168 E.01106
G1 X107.705 Y90.655 E.01394
G1 X112.829 Y83.337 E.23809
G1 X112.538 Y83.153 E.00918
G1 X112.098 Y83.066 E.01195
G1 X107.749 Y89.277 E.20208
G1 X107.782 Y89.113 E.00446
G1 X108.02 Y88.578 E.01561
G1 X108.399 Y88.01 E.0182
G1 X108.716 Y87.725 E.01136
G1 X108.408 Y87.193 E.01638
G1 X108.381 Y87.059 E.00364
G1 X111.258 Y82.951 E.13366
G1 X110.562 Y83.082 E.01887
G1 X110.152 Y83.215 E.01149
G1 X108.079 Y86.176 E.09633
;WIPE_START
G1 F7200
G1 X110.011 Y83.417 E-.8
;WIPE_END
G1 X113.996 Y89.56 F9000
G1 E.8 F1800
G1 F1200
G1 X114.431 Y88.938 E.02023
G1 X114.562 Y87.436 E.04018
G1 X114.322 Y87.779 E.01116
G1 X114.38 Y87.118 E.01768
G1 X114.206 Y86.735 E.01121
G1 X114.157 Y86.699 E.00162
G1 X114.694 Y85.933 E.02493
G1 X114.717 Y85.665 E.00717
G1 X114.423 Y85.473 E.00936
G1 X114.349 Y85.111 E.00985
G1 X113.435 Y86.415 E.04244
G1 X113.125 Y87.198 F9000
;TYPE:External perimeter
G1 F1200
G1 X113.343 Y87.358 E.00721
G1 X113.175 Y89.284 E.05153
G1 X112.932 Y89.403 E.00721
G1 X112.767 Y89.442 E.00452
G1 X112.969 Y87.132 E.0618
G1 X113.07 Y87.175 E.00293
G1 X113.272 Y87.425 F9000
; stop printing object 3.0-s-ii-ullage.stl id:0 copy 2
; printing object 3.0-s-ii-ullage.stl id:0 copy 1
;WIPE_START
G1 F7200
G1 X113.343 Y87.358 E-.07806
G1 X113.175 Y89.284 E-.45916
G1 X112.932 Y89.403 E-.06426
G1 X112.767 Y89.442 E-.04027
G1 X112.825 Y88.778 E-.15825
;WIPE_END
G1 X90.314 Y86.071 F9000
G1 E.8 F1800
;TYPE:Support material
G1 F1200
G1 X91.113 Y86.23 E.02171
G1 X92.261 Y86.956 E.0362
G1 X93.062 Y88.117 E.03759
G1 X93.174 Y88.663 E.01485
G1 X93.52 Y88.888 E.011
G1 X93.23 Y92.199 E.08858
G1 X94.799 Y93.561 E.05537
G1 X92.216 Y95.209 E.08166
G1 X91.661 Y96.015 E.02608
G1 X90.469 Y96.768 E.03758
G1 X89.078 Y96.995 E.03756
G1 X87.71 Y96.658 E.03755
G1 X86.583 Y95.812 E.03756
G1 X85.932 Y94.686 E.03466
G1 X85.756 Y93.799 E.0241
G1 X85.756 Y93.146 E.0174
G1 X85.903 Y92.407 E.02008
G1 X86.168 Y91.81 E.01741
G1 X86.587 Y91.183 E.0201
G1 X86.731 Y91.054 E.00515
G1 X86.532 Y90.711 E.01057
G1 X86.356 Y89.825 E.02407
G1 X86.356 Y89.172 E.0174
G1 X86.503 Y88.432 E.02011
G1 X86.769 Y87.835 E.01742
G1 X87.188 Y87.208 E.0201
G1 X87.673 Y86.771 E.0174
G1 X88.301 Y86.352 E.02012
G1 X88.923 Y86.15 E.01743
G1 X89.663 Y86.003 E.02011
G1 X90.258 Y86.065 E.01594
G1 X90.792 Y89.947 F9000
G1 F1200
G1 X91.196 Y89.705 E.01255
G1 X91.927 Y90.023 E.02125
G1 X92.38 Y90.353 E.01494
G1 X92.48 Y90.574 E.00646
G1 X92.27 Y92.978 E.06431
G1 X92.133 Y93.179 E.00648
G1 X91.63 Y93.426 E.01493
G1 X90.854 Y93.612 E.02127
G1 X90.498 Y93.303 E.01256
G1 X90.787 Y90.003 E.08829
;WIPE_START
G1 F7200
G1 X90.498 Y93.303 E-.78675
G1 X90.54 Y93.34 E-.01325
;WIPE_END
G1 X93.357 Y94.28 F9000
G1 E.8 F1800
G1 F1200
G1 X94.02 Y93.334 E.03079
G1 X93.447 Y92.836 E.02023
G1 X91.377 Y95.792 E.09618
G1 X90.347 Y96.444 E.03249
G1 X89.955 Y96.508 E.01059
G1 X91.964 Y93.64 E.09332
G1 X91.676 Y93.77 E.00842
G1 X90.812 Y93.97 E.02364
G1 X88.959 Y96.616 E.08609
G1 X88.174 Y96.423 E.02154
G1 X90.216 Y93.507 E.09488
G1 X90.145 Y93.446 E.00249
G1 X90.261 Y92.128 E.03526
G1 X87.497 Y96.074 E.1284
G1 X86.894 Y95.621 E.0201
G1 X90.392 Y90.625 E.16254
G1 X90.469 Y89.745 E.02354
G1 X91.17 Y89.325 E.02178
G1 X91.272 Y89.368 E.00295
G1 X92.401 Y87.756 E.05245
G1 X92.021 Y87.206 E.01782
G1 X91.913 Y87.138 E.0034
G1 X86.462 Y94.924 E.25331
G1 X86.254 Y94.564 E.01108
G1 X86.152 Y94.051 E.01394
G1 X91.275 Y86.734 E.23805
G1 X90.985 Y86.55 E.00915
G1 X90.545 Y86.463 E.01195
G1 X86.196 Y92.674 E.20208
G1 X86.228 Y92.51 E.00445
G1 X86.467 Y91.975 E.01562
G1 X86.846 Y91.407 E.0182
G1 X87.162 Y91.122 E.01134
G1 X86.854 Y90.59 E.01638
G1 X86.828 Y90.456 E.00364
G1 X89.704 Y86.348 E.13365
G1 X89.009 Y86.479 E.01885
G1 X88.599 Y86.612 E.01149
G1 X86.526 Y89.573 E.09633
;WIPE_START
G1 F7200
G1 X88.458 Y86.814 E-.8
;WIPE_END
G1 X92.442 Y92.956 F9000
G1 E.8 F1800
G1 F1200
G1 X92.877 Y92.335 E.02021
G1 X93.009 Y90.833 E.04018
G1 X92.768 Y91.176 E.01117
G1 X92.826 Y90.515 E.01768
G1 X92.652 Y90.132 E.01121
G1 X92.604 Y90.096 E.0016
G1 X93.14 Y89.33 E.02492
G1 X93.164 Y89.061 E.0072
G1 X92.869 Y88.87 E.00937
G1 X92.795 Y88.508 E.00985
G1 X91.882 Y89.812 E.04242
G1 X91.572 Y90.595 F9000
;TYPE:External perimeter
G1 F1200
G1 X91.79 Y90.755 E.00721
G1 X91.621 Y92.681 E.05153
G1 X91.379 Y92.8 E.00719
G1 X91.214 Y92.839 E.00452
G1 X91.416 Y90.529 E.0618
G1 X91.517 Y90.572 E.00293
G1 X91.719 Y90.822 F9000
; stop printing object 3.0-s-ii-ullage.stl id:0 copy 1
; printing object 3.0-s-ii-ullage.stl id:0 copy 0
;WIPE_START
G1 F7200
G1 X91.79 Y90.755 E-.07806
G1 X91.621 Y92.681 E-.45918
G1 X91.379 Y92.8 E-.06405
G1 X91.214 Y92.839 E-.04027
G1 X91.272 Y92.174 E-.15844
;WIPE_END
G1 X90.996 Y105.643 F9000
G1 E.8 F1800
;TYPE:Support material
G1 F1200
G1 X91.794 Y105.802 E.02169
G1 X92.943 Y106.529 E.03624
G1 X93.743 Y107.689 E.03755
G1 X93.855 Y108.235 E.01485
G1 X94.201 Y108.46 E.011
G1 X93.911 Y111.771 E.08858
G1 X95.48 Y113.133 E.05537
G1 X92.898 Y114.782 E.08165
G1 X92.342 Y115.587 E.02607
G1 X91.151 Y116.34 E.03755
G1 X89.759 Y116.567 E.03759
G1 X88.391 Y116.23 E.03755
G1 X87.264 Y115.384 E.03756
G1 X86.613 Y114.258 E.03466
G1 X86.437 Y113.372 E.02407
G1 X86.437 Y112.719 E.0174
G1 X86.584 Y111.979 E.02011
G1 X86.85 Y111.382 E.01742
G1 X87.269 Y110.755 E.0201
G1 X87.412 Y110.626 E.00513
G1 X87.214 Y110.283 E.01056
G1 X87.037 Y109.397 E.02408
G1 X87.037 Y108.744 E.0174
G1 X87.185 Y108.004 E.02011
G1 X87.45 Y107.408 E.01738
G1 X87.869 Y106.78 E.02012
G1 X88.355 Y106.343 E.01742
G1 X88.982 Y105.924 E.0201
G1 X89.604 Y105.722 E.01743
G1 X90.345 Y105.575 E.02013
G1 X90.939 Y105.637 E.01592
G1 X91.473 Y109.519 F9000
G1 F1200
G1 X91.877 Y109.277 E.01255
G1 X92.609 Y109.595 E.02127
G1 X93.061 Y109.925 E.01492
G1 X93.162 Y110.146 E.00648
G1 X92.951 Y112.551 E.06434
G1 X92.814 Y112.751 E.00646
G1 X92.311 Y112.998 E.01493
G1 X91.535 Y113.184 E.02127
G1 X91.18 Y112.875 E.01254
G1 X91.468 Y109.576 E.08826
;WIPE_START
G1 F7200
G1 X91.18 Y112.875 E-.78649
G1 X91.223 Y112.912 E-.01351
;WIPE_END
G1 X94.038 Y113.852 F9000
G1 E.8 F1800
G1 F1200
G1 X94.701 Y112.906 E.03079
G1 X94.128 Y112.409 E.02022
G1 X92.059 Y115.364 E.09614
G1 X91.028 Y116.017 E.03253
G1 X90.637 Y116.08 E.01056
G1 X92.645 Y113.212 E.09331
G1 X92.357 Y113.342 E.00842
G1 X91.493 Y113.542 E.02364
G1 X89.641 Y116.188 E.08608
G1 X88.855 Y115.995 E.02157
G1 X90.897 Y113.079 E.09488
G1 X90.827 Y113.018 E.00247
G1 X90.942 Y111.7 E.03526
G1 X88.179 Y115.646 E.12838
G1 X87.575 Y115.193 E.02012
G1 X91.073 Y110.197 E.16254
G1 X91.15 Y109.317 E.02354
G1 X91.851 Y108.897 E.02178
G1 X91.954 Y108.94 E.00297
G1 X93.082 Y107.328 E.05244
G1 X92.703 Y106.778 E.0178
G1 X92.595 Y106.71 E.0034
G1 X87.143 Y114.496 E.25332
G1 X86.935 Y114.137 E.01106
G1 X86.833 Y113.624 E.01394
G1 X91.957 Y106.306 E.23809
G1 X91.666 Y106.123 E.00916
G1 X91.226 Y106.035 E.01196
G1 X86.877 Y112.246 E.20208
G1 X86.909 Y112.083 E.00443
G1 X87.148 Y111.547 E.01564
G1 X87.527 Y110.979 E.0182
G1 X87.844 Y110.694 E.01136
G1 X87.536 Y110.162 E.01638
G1 X87.509 Y110.028 E.00364
G1 X90.386 Y105.92 E.13366
G1 X89.69 Y106.051 E.01887
G1 X89.28 Y106.184 E.01149
G1 X87.207 Y109.145 E.09633
;WIPE_START
G1 F7200
G1 X89.139 Y106.386 E-.8
;WIPE_END
G1 X93.124 Y112.529 F9000
G1 E.8 F1800
G1 F1200
G1 X93.559 Y111.907 E.02023
G1 X93.69 Y110.405 E.04018
G1 X93.45 Y110.748 E.01116
G1 X93.507 Y110.087 E.01768
G1 X93.333 Y109.704 E.01121
G1 X93.285 Y109.669 E.00158
G1 X93.822 Y108.902 E.02495
G1 X93.845 Y108.634 E.00717
G1 X93.551 Y108.442 E.00936
G1 X93.477 Y108.08 E.00985
G1 X92.563 Y109.384 E.04244
G1 X92.253 Y110.167 F9000
;TYPE:External perimeter
G1 F1200
G1 X92.471 Y110.327 E.00721
G1 X92.303 Y112.253 E.05153
G1 X92.06 Y112.372 E.00721
G1 X91.895 Y112.411 E.00452
G1 X92.097 Y110.101 E.0618
G1 X92.198 Y110.144 E.00293
G1 X92.4 Y110.394 F9000
; stop printing object 3.0-s-ii-ullage.stl id:0 copy 0
; printing object 3.0-s-ii-ullage.stl id:0 copy 3
;WIPE_START
G1 F7200
G1 X92.471 Y110.327 E-.07806
G1 X92.303 Y112.253 E-.45916
G1 X92.06 Y112.372 E-.06426
G1 X91.895 Y112.411 E-.04027
G1 X91.953 Y111.747 E-.15825
;WIPE_END
G1 X112.174 Y104.536 F9000
G1 E.8 F1800
;TYPE:Support material
G1 F1200
G1 X112.972 Y104.695 E.02169
G1 X114.121 Y105.421 E.03622
G1 X114.921 Y106.582 E.03758
G1 X115.033 Y107.128 E.01485
G1 X115.379 Y107.353 E.011
G1 X115.089 Y110.664 E.08858
G1 X116.659 Y112.026 E.05539
G1 X114.076 Y113.674 E.08166
G1 X113.52 Y114.48 E.0261
G1 X112.329 Y115.233 E.03755
G1 X110.938 Y115.46 E.03756
G1 X109.569 Y115.123 E.03757
G1 X108.442 Y114.277 E.03756
G1 X107.791 Y113.151 E.03466
G1 X107.615 Y112.264 E.0241
G1 X107.615 Y111.611 E.0174
G1 X107.762 Y110.872 E.02008
G1 X108.028 Y110.275 E.01742
G1 X108.447 Y109.648 E.0201
G1 X108.59 Y109.519 E.00513
G1 X108.392 Y109.176 E.01056
G1 X108.216 Y108.29 E.02407
G1 X108.216 Y107.637 E.0174
G1 X108.363 Y106.897 E.02011
G1 X108.628 Y106.3 E.01741
G1 X109.047 Y105.673 E.0201
G1 X109.533 Y105.236 E.01742
G1 X110.16 Y104.817 E.0201
G1 X110.782 Y104.615 E.01743
G1 X111.523 Y104.468 E.02013
G1 X112.118 Y104.53 E.01594
G1 X112.651 Y108.412 F9000
G1 F1200
G1 X113.055 Y108.17 E.01255
G1 X113.787 Y108.488 E.02127
G1 X114.239 Y108.818 E.01492
G1 X114.34 Y109.039 E.00648
G1 X114.13 Y111.443 E.06431
G1 X113.992 Y111.644 E.0065
G1 X113.489 Y111.891 E.01493
G1 X112.714 Y112.077 E.02124
G1 X112.358 Y111.768 E.01256
G1 X112.647 Y108.468 E.08829
;WIPE_START
G1 F7200
G1 X112.358 Y111.768 E-.78675
G1 X112.4 Y111.805 E-.01325
;WIPE_END
G1 X115.216 Y112.745 F9000
G1 E.8 F1800
G1 F1200
G1 X115.879 Y111.799 E.03079
G1 X115.306 Y111.301 E.02023
G1 X113.237 Y114.257 E.09616
G1 X112.206 Y114.909 E.03251
G1 X111.815 Y114.973 E.01056
G1 X113.823 Y112.105 E.09331
G1 X113.535 Y112.235 E.00842
G1 X112.671 Y112.435 E.02364
G1 X110.819 Y115.081 E.08608
G1 X110.033 Y114.888 E.02157
G1 X112.075 Y111.972 E.09488
G1 X112.005 Y111.911 E.00247
G1 X112.12 Y110.593 E.03526
G1 X109.357 Y114.539 E.12838
G1 X108.753 Y114.086 E.02012
G1 X112.251 Y109.09 E.16254
G1 X112.328 Y108.21 E.02354
G1 X113.029 Y107.79 E.02178
G1 X113.132 Y107.833 E.00297
G1 X114.26 Y106.221 E.05244
G1 X113.881 Y105.671 E.0178
G1 X113.773 Y105.603 E.0034
G1 X108.321 Y113.389 E.25332
G1 X108.113 Y113.029 E.01108
G1 X108.011 Y112.516 E.01394
G1 X113.135 Y105.199 E.23807
