; generated by PrusaSlicer 2.6.1+win64 on 2024-01-18 at 16:52:32 UTC

; 

; external perimeters extrusion width = 0.42mm
; perimeters extrusion width = 0.44mm
; infill extrusion width = 0.44mm
; solid infill extrusion width = 0.44mm
; top infill extrusion width = 0.40mm
; support material extrusion width = 0.36mm
; first layer extrusion width = 0.42mm

; external perimeters extrusion width = 0.42mm
; perimeters extrusion width = 0.44mm
; infill extrusion width = 0.44mm
; solid infill extrusion width = 0.44mm
; top infill extrusion width = 0.40mm
; support material extrusion width = 0.36mm
; first layer extrusion width = 0.42mm

; external perimeters extrusion width = 0.42mm
; perimeters extrusion width = 0.44mm
; infill extrusion width = 0.44mm
; solid infill extrusion width = 0.44mm
; top infill extrusion width = 0.40mm
; support material extrusion width = 0.36mm
; first layer extrusion width = 0.42mm

M201 X500 Y500 Z100 E5000 ; sets maximum accelerations, mm/sec^2
M203 X500 Y500 Z10 E60 ; sets maximum feedrates, mm / sec
M204 S500 T1000 ; sets acceleration (S) and retract acceleration (R), mm/sec^2
M205 X8.00 Y8.00 Z0.40 E5.00 ; sets the jerk limits, mm/sec
M205 S0 T0 ; sets the minimum extruding and travel feed rate, mm/sec
;TYPE:Custom
G90 ; use absolute coordinates
M83 ; extruder relative mode
M104 S150 ; set temporary nozzle temp to prevent oozing during homing
M140 S60 ; set final bed temp
G4 S30 ; allow partial nozzle warmup
G28 ; home all axis and restore leveling
G1 Z50 F240
G1 X2.0 Y10 F3000
M104 S215 ; set final nozzle temp
M190 S60 ; wait for bed temp to stabilize
M109 S215 ; wait for nozzle temp to stabilize
G1 Z0.28 F240
G92 E0
G1 X2.0 Y140 E10 F1500 ; prime the nozzle
G1 X2.3 Y140 F5000
G92 E0
G1 X2.3 Y10 E10 F1200 ; prime the nozzle
G92 E0
G21 ; set units to millimeters
G90 ; use absolute coordinates
M83 ; use relative distances for extrusion
; Filament gcode
M107
;LAYER_CHANGE
;Z:0.2
;HEIGHT:0.2
;BEFORE_LAYER_CHANGE
G92 E0
;0.2


G1 E-.8 F1800
G1 Z.2 F9000
;AFTER_LAYER_CHANGE
;0.2
G1 X88.519 Y66.066
G1 E.8 F1800
M204 S500
;TYPE:Skirt/Brim
;WIDTH:0.42
G1 F1200
G1 X88.891 Y65.568 E.01657
G1 X90.701 Y63.583 E.07159
G1 X92.697 Y61.785 E.0716
G1 X94.86 Y60.191 E.07161
G1 X97.168 Y58.817 E.07159
G1 X99.6 Y57.675 E.07161
G1 X102.132 Y56.778 E.07159
G1 X104.74 Y56.133 E.0716
G1 X107.399 Y55.747 E.07161
G1 X109.917 Y55.623 E.06719
G1 X111.26 Y55.652 E.0358
G1 X112.766 Y55.763 E.04025
G1 X115.26 Y56.133 E.0672
G1 X116.732 Y56.464 E.04021
G1 X119.145 Y57.195 E.0672
G1 X120.553 Y57.739 E.04023
G1 X122.832 Y58.817 E.06719
G1 X125.14 Y60.191 E.07159
G1 X126.374 Y61.06 E.04022
G1 X128.323 Y62.659 E.06719
G1 X129.416 Y63.7 E.04023
G1 X131.109 Y65.568 E.06719
G1 X132.038 Y66.758 E.04023
G1 X133.439 Y68.854 E.06719
G1 X134.712 Y71.219 E.07158
G1 X135.324 Y72.599 E.04023
G1 X136.173 Y74.973 E.06719
G1 X136.576 Y76.428 E.04024
G1 X137.068 Y78.9 E.06717
G1 X137.252 Y80.398 E.04022
G1 X137.376 Y82.916 E.06719
G1 X137.376 Y137.084 E1.44364
G1 X137.236 Y139.767 E.0716
G1 X136.834 Y142.423 E.07159
G1 X136.173 Y145.027 E.0716
G1 X135.26 Y147.554 E.07161
G1 X134.104 Y149.979 E.0716
G1 X132.716 Y152.279 E.07159
G1 X131.109 Y154.432 E.0716
G1 X129.299 Y156.417 E.07159
G1 X127.303 Y158.215 E.0716
G1 X125.14 Y159.809 E.07161
G1 X122.832 Y161.183 E.07159
G1 X120.4 Y162.325 E.07161
G1 X117.868 Y163.222 E.07159
G1 X115.26 Y163.867 E.0716
G1 X112.601 Y164.253 E.07161
G1 X109.917 Y164.377 E.07161
G1 X107.399 Y164.253 E.06719
G1 X105.901 Y164.068 E.04023
G1 X103.429 Y163.577 E.06717
G1 X101.974 Y163.174 E.04024
G1 X99.6 Y162.325 E.06719
G1 X98.22 Y161.713 E.04023
G1 X95.997 Y160.525 E.06718
G1 X93.759 Y159.039 E.0716
G1 X92.569 Y158.11 E.04023
G1 X90.701 Y156.417 E.06719
G1 X89.66 Y155.324 E.04023
G1 X88.061 Y153.375 E.06719
G1 X87.192 Y152.141 E.04022
G1 X85.896 Y149.979 E.06718
G1 X84.74 Y147.554 E.0716
G1 X84.196 Y146.146 E.04023
G1 X83.465 Y143.733 E.0672
G1 X83.134 Y142.26 E.04024
G1 X82.764 Y139.767 E.06717
G1 X82.653 Y138.261 E.04025
G1 X82.624 Y82.916 E1.47501
G1 X82.764 Y80.233 E.0716
G1 X83.166 Y77.577 E.07159
G1 X83.827 Y74.973 E.0716
G1 X84.74 Y72.446 E.07161
G1 X85.896 Y70.021 E.0716
G1 X87.284 Y67.721 E.07159
G1 X88.483 Y66.114 E.05344
; printing object 3.0-s-ii-loxtank.stl id:2 copy 3
;WIPE_START
G1 F7200
G1 X88.891 Y65.568 E-.16188
G1 X90.701 Y63.583 E-.638
G1 X90.701 Y63.583 E-.00012
;WIPE_END
G1 X87.449 Y105.059 F9000
G1 E.8 F1800
;TYPE:Perimeter
G1 F1200
G1 X87.362 Y105.002 E.00277
G1 X87.304 Y104.915 E.00279
G1 X87.284 Y104.813 E.00277
G1 X87.304 Y104.711 E.00277
G1 X87.362 Y104.624 E.00279
G1 X87.445 Y104.568 E.00267
G1 X87.557 Y104.547 E.00304
G1 X87.653 Y104.566 E.00261
G1 X87.74 Y104.624 E.00279
G1 X87.797 Y104.711 E.00277
G1 X87.818 Y104.813 E.00278
G1 X87.797 Y104.915 E.00278
G1 X87.74 Y105.002 E.00277
G1 X87.653 Y105.059 E.00277
G1 X87.507 Y105.071 E.0039
G1 X87.301 Y105.415 F9000
G1 F1200
G1 X87.09 Y105.273 E.00678
G1 X86.949 Y105.062 E.00676
G1 X86.899 Y104.813 E.00677
G1 X86.949 Y104.564 E.00677
G1 X87.09 Y104.352 E.00679
G1 X87.3 Y104.212 E.00673
G1 X87.558 Y104.163 E.007
G1 X87.8 Y104.211 E.00658
G1 X88.011 Y104.352 E.00676
G1 X88.153 Y104.564 E.0068
G1 X88.202 Y104.813 E.00676
G1 X88.153 Y105.062 E.00676
G1 X88.011 Y105.273 E.00678
G1 X87.8 Y105.415 E.00678
G1 X87.551 Y105.464 E.00676
G1 X87.36 Y105.426 E.00519
G1 X87.154 Y105.77 F9000
;TYPE:External perimeter
G1 F1200
G1 X86.818 Y105.545 E.01078
G1 X86.594 Y105.209 E.01076
G1 X86.515 Y104.813 E.01076
G1 X86.594 Y104.416 E.01079
G1 X86.818 Y104.08 E.01076
G1 X87.154 Y103.856 E.01076
G1 X87.56 Y103.779 E.01101
G1 X87.947 Y103.856 E.01052
G1 X88.283 Y104.08 E.01076
G1 X88.508 Y104.416 E.01078
G1 X88.587 Y104.813 E.01079
G1 X88.508 Y105.209 E.01076
G1 X88.283 Y105.545 E.01078
G1 X87.947 Y105.77 E.01078
G1 X87.551 Y105.849 E.01076
G1 X87.213 Y105.782 E.00918
G1 X87.102 Y105.373 F9000
; stop printing object 3.0-s-ii-loxtank.stl id:2 copy 3
; printing object 3.0-s-ii-loxtank.stl id:2 copy 5
;WIPE_START
G1 F7200
G1 X86.818 Y105.545 E-.1094
G1 X86.594 Y105.209 E-.09591
G1 X86.515 Y104.813 E-.0959
G1 X86.594 Y104.416 E-.09614
G1 X86.818 Y104.08 E-.09591
G1 X87.154 Y103.856 E-.09591
G1 X87.559 Y103.779 E-.09791
G1 X87.947 Y103.856 E-.09395
G1 X88.013 Y103.9 E-.01897
;WIPE_END
G1 X94.148 Y110.247 F9000
G1 E.8 F1800
;TYPE:Perimeter
G1 F1200
G1 X94.061 Y110.189 E.00279
G1 X94.003 Y110.102 E.00279
G1 X93.983 Y110 E.00277
G1 X94.003 Y109.898 E.00277
G1 X94.061 Y109.811 E.00279
G1 X94.145 Y109.755 E.00269
G1 X94.256 Y109.734 E.00301
G1 X94.352 Y109.753 E.00261
G1 X94.439 Y109.811 E.00279
G1 X94.496 Y109.898 E.00277
G1 X94.517 Y110 E.00278
G1 X94.496 Y110.102 E.00278
G1 X94.439 Y110.189 E.00277
G1 X94.352 Y110.247 E.00279
G1 X94.207 Y110.258 E.00388
G1 X94.001 Y110.602 F9000
G1 F1200
G1 X93.789 Y110.461 E.00679
G1 X93.648 Y110.249 E.00679
G1 X93.598 Y110 E.00677
G1 X93.648 Y109.751 E.00677
G1 X93.789 Y109.539 E.00679
G1 X93.999 Y109.399 E.00673
G1 X94.257 Y109.35 E.007
G1 X94.499 Y109.398 E.00658
G1 X94.71 Y109.539 E.00676
G1 X94.852 Y109.751 E.0068
G1 X94.901 Y110 E.00676
G1 X94.852 Y110.249 E.00676
G1 X94.71 Y110.461 E.0068
G1 X94.499 Y110.602 E.00676
G1 X94.25 Y110.651 E.00676
G1 X94.059 Y110.614 E.00519
G1 X93.853 Y110.957 F9000
;TYPE:External perimeter
G1 F1200
G1 X93.517 Y110.732 E.01078
G1 X93.293 Y110.396 E.01076
G1 X93.214 Y110 E.01076
G1 X93.293 Y109.604 E.01076
G1 X93.517 Y109.268 E.01076
G1 X93.853 Y109.043 E.01078
G1 X94.259 Y108.966 E.01101
G1 X94.646 Y109.043 E.01052
G1 X94.982 Y109.268 E.01078
G1 X95.207 Y109.604 E.01078
G1 X95.286 Y110 E.01076
G1 X95.207 Y110.396 E.01076
G1 X94.982 Y110.732 E.01078
G1 X94.646 Y110.957 E.01078
G1 X94.25 Y111.036 E.01076
G1 X93.912 Y110.969 E.00918
G1 X93.801 Y110.56 F9000
; stop printing object 3.0-s-ii-loxtank.stl id:2 copy 5
; printing object 3.0-s-ii-loxtank.stl id:2 copy 0
;WIPE_START
G1 F7200
G1 X93.517 Y110.732 E-.1094
G1 X93.293 Y110.396 E-.09591
G1 X93.214 Y110 E-.0959
G1 X93.293 Y109.604 E-.0959
G1 X93.517 Y109.268 E-.09591
G1 X93.853 Y109.043 E-.09604
G1 X94.259 Y108.966 E-.09814
G1 X94.646 Y109.043 E-.09371
G1 X94.713 Y109.088 E-.01909
;WIPE_END
G1 X87.449 Y115.434 F9000
G1 E.8 F1800
;TYPE:Perimeter
G1 F1200
G1 X87.362 Y115.376 E.00279
G1 X87.304 Y115.289 E.00279
G1 X87.284 Y115.187 E.00277
G1 X87.304 Y115.085 E.00277
G1 X87.362 Y114.998 E.00279
G1 X87.445 Y114.943 E.00265
G1 X87.557 Y114.921 E.00304
G1 X87.653 Y114.941 E.00261
G1 X87.74 Y114.998 E.00277
G1 X87.797 Y115.085 E.00277
G1 X87.818 Y115.187 E.00278
G1 X87.797 Y115.289 E.00278
G1 X87.74 Y115.376 E.00277
G1 X87.653 Y115.434 E.00279
G1 X87.507 Y115.446 E.0039
G1 X87.301 Y115.789 F9000
G1 F1200
G1 X87.09 Y115.648 E.00676
G1 X86.949 Y115.437 E.00676
G1 X86.899 Y115.187 E.00679
G1 X86.949 Y114.938 E.00677
G1 X87.09 Y114.727 E.00676
G1 X87.3 Y114.587 E.00673
G1 X87.558 Y114.537 E.007
G1 X87.8 Y114.585 E.00658
G1 X88.011 Y114.727 E.00678
G1 X88.153 Y114.938 E.00678
G1 X88.202 Y115.187 E.00676
G1 X88.153 Y115.436 E.00676
G1 X88.011 Y115.648 E.0068
G1 X87.8 Y115.789 E.00676
G1 X87.551 Y115.839 E.00677
G1 X87.36 Y115.801 E.00519
G1 X87.154 Y116.144 F9000
;TYPE:External perimeter
G1 F1200
G1 X86.818 Y115.92 E.01076
G1 X86.594 Y115.584 E.01076
G1 X86.515 Y115.187 E.01079
G1 X86.594 Y114.791 E.01076
G1 X86.818 Y114.455 E.01076
G1 X87.154 Y114.231 E.01076
G1 X87.56 Y114.153 E.01102
G1 X87.947 Y114.23 E.01052
G1 X88.283 Y114.455 E.01078
G1 X88.508 Y114.791 E.01078
G1 X88.587 Y115.187 E.01076
G1 X88.508 Y115.584 E.01079
G1 X88.283 Y115.92 E.01078
G1 X87.947 Y116.144 E.01076
G1 X87.551 Y116.223 E.01076
G1 X87.213 Y116.156 E.00918
G1 X87.102 Y115.748 F9000
; stop printing object 3.0-s-ii-loxtank.stl id:2 copy 0
; printing object 3.0-s-ii-loxtank.stl id:1 copy 0
;WIPE_START
G1 F7200
G1 X86.818 Y115.92 E-.10928
G1 X86.594 Y115.584 E-.09591
G1 X86.515 Y115.187 E-.09614
G1 X86.594 Y114.791 E-.0959
G1 X86.818 Y114.455 E-.09591
G1 X87.154 Y114.231 E-.09591
G1 X87.56 Y114.153 E-.09819
G1 X87.947 Y114.23 E-.09371
G1 X88.014 Y114.275 E-.01905
;WIPE_END
G1 X120.569 Y147.734 F9000
G1 E.8 F1800
;TYPE:Perimeter
G1 F1200
G1 X120.635 Y147.636 E.00315
G1 X121.433 Y147.103 E.02558
G1 X122.374 Y146.915 E.02557
G1 X123.316 Y147.103 E.0256
G1 X124.114 Y147.636 E.02558
G1 X124.647 Y148.434 E.02558
G1 X124.834 Y149.375 E.02557
G1 X124.647 Y150.317 E.0256
G1 X124.114 Y151.115 E.02558
G1 X123.316 Y151.648 E.02558
G1 X122.374 Y151.835 E.0256
G1 X121.433 Y151.648 E.02557
G1 X120.635 Y151.115 E.02558
G1 X120.102 Y150.317 E.02558
G1 X119.914 Y149.375 E.0256
G1 X120.102 Y148.434 E.02557
G1 X120.536 Y147.784 E.02083
G1 X120.959 Y147.872 F9000
G1 F1200
G1 X121.58 Y147.458 E.01989
G1 X122.374 Y147.3 E.02158
G1 X123.169 Y147.458 E.0216
G1 X123.842 Y147.908 E.02158
G1 X124.292 Y148.581 E.02158
G1 X124.45 Y149.375 E.02158
G1 X124.292 Y150.17 E.0216
G1 X123.842 Y150.843 E.02158
G1 X123.169 Y151.293 E.02158
G1 X122.374 Y151.451 E.0216
G1 X121.58 Y151.293 E.02158
G1 X120.907 Y150.843 E.02158
G1 X120.457 Y150.17 E.02158
G1 X120.299 Y149.375 E.0216
G1 X120.457 Y148.581 E.02158
G1 X120.91 Y147.906 E.02167
G1 X121.179 Y148.179 F9000
;TYPE:External perimeter
G1 F1200
G1 X121.727 Y147.813 E.01756
G1 X122.374 Y147.684 E.01758
G1 X123.022 Y147.813 E.01761
G1 X123.57 Y148.179 E.01756
G1 X123.937 Y148.728 E.0176
G1 X124.065 Y149.375 E.01758
G1 X123.937 Y150.022 E.01758
G1 X123.57 Y150.571 E.0176
G1 X123.022 Y150.938 E.01758
G1 X122.374 Y151.066 E.0176
G1 X121.727 Y150.938 E.01758
G1 X121.179 Y150.571 E.01758
G1 X120.812 Y150.022 E.0176
G1 X120.683 Y149.375 E.01758
G1 X120.812 Y148.728 E.01758
G1 X121.145 Y148.229 E.01599
G1 X121.075 Y147.793 F9000
;WIPE_START
G1 F7200
G1 X121.727 Y147.813 E-.1699
G1 X122.374 Y147.684 E-.15669
G1 X123.022 Y147.813 E-.15692
G1 X123.57 Y148.179 E-.15651
G1 X123.937 Y148.728 E-.15684
G1 X123.94 Y148.741 E-.00314
;WIPE_END
G1 X127.384 Y139.438 F9000
G1 E.8 F1800
;TYPE:Perimeter
G1 F1200
G1 X126.559 Y139.274 E.02242
G1 X125.761 Y138.74 E.02559
G1 X125.227 Y137.942 E.02559
G1 X125.04 Y137.001 E.02557
G1 X125.227 Y136.059 E.0256
G1 X125.761 Y135.261 E.02559
G1 X126.559 Y134.728 E.02558
G1 X127.5 Y134.541 E.02557
G1 X128.441 Y134.728 E.02557
G1 X129.239 Y135.261 E.02558
G1 X129.773 Y136.059 E.02559
G1 X129.96 Y137.001 E.0256
G1 X129.773 Y137.942 E.02557
G1 X129.239 Y138.74 E.02559
G1 X128.441 Y139.274 E.02559
G1 X127.5 Y139.461 E.02557
G1 X127.443 Y139.45 E.00155
G1 X127.437 Y139.064 F9000
G1 F1200
G1 X126.706 Y138.918 E.01987
G1 X126.032 Y138.469 E.02158
G1 X125.582 Y137.795 E.0216
G1 X125.424 Y137.001 E.02158
G1 X125.582 Y136.207 E.02158
G1 X126.032 Y135.533 E.0216
G1 X126.706 Y135.083 E.0216
G1 X127.5 Y134.925 E.02158
G1 X128.294 Y135.083 E.02158
G1 X128.968 Y135.533 E.0216
G1 X129.418 Y136.207 E.0216
G1 X129.576 Y137.001 E.02158
G1 X129.418 Y137.795 E.02158
G1 X128.968 Y138.469 E.0216
G1 X128.294 Y138.918 E.02158
G1 X127.496 Y139.076 E.02168
G1 X127.5 Y138.692 F9000
;TYPE:External perimeter
G1 F1200
G1 X126.853 Y138.563 E.01758
G1 X126.304 Y138.197 E.01758
G1 X125.938 Y137.648 E.01758
G1 X125.809 Y137.001 E.01758
G1 X125.938 Y136.354 E.01758
G1 X126.304 Y135.805 E.01758
G1 X126.853 Y135.439 E.01758
G1 X127.5 Y135.31 E.01758
G1 X128.147 Y135.439 E.01758
G1 X128.696 Y135.805 E.01758
G1 X129.062 Y136.354 E.01758
G1 X129.191 Y137.001 E.01758
G1 X129.062 Y137.648 E.01758
G1 X128.696 Y138.197 E.01758
G1 X128.147 Y138.563 E.01758
G1 X127.559 Y138.68 E.01598
G1 X127.3 Y139.038 F9000
;WIPE_START
G1 F7200
G1 X126.853 Y138.563 E-.16996
G1 X126.304 Y138.197 E-.15671
G1 X125.938 Y137.648 E-.15671
G1 X125.809 Y137.001 E-.15669
G1 X125.938 Y136.354 E-.15669
G1 X125.946 Y136.343 E-.00324
;WIPE_END
G1 X92.384 Y139.438 F9000
G1 E.8 F1800
;TYPE:Perimeter
G1 F1200
G1 X91.559 Y139.274 E.02242
G1 X90.761 Y138.74 E.02559
G1 X90.227 Y137.942 E.02559
G1 X90.04 Y137.001 E.02557
G1 X90.227 Y136.059 E.0256
G1 X90.761 Y135.261 E.02559
G1 X91.559 Y134.728 E.02558
G1 X92.5 Y134.541 E.02557
G1 X93.441 Y134.728 E.02557
G1 X94.239 Y135.261 E.02558
G1 X94.773 Y136.059 E.02559
G1 X94.96 Y137.001 E.0256
G1 X94.773 Y137.942 E.02557
G1 X94.239 Y138.74 E.02559
G1 X93.441 Y139.274 E.02559
G1 X92.5 Y139.461 E.02557
G1 X92.443 Y139.45 E.00155
G1 X92.437 Y139.064 F9000
G1 F1200
G1 X91.706 Y138.918 E.01987
G1 X91.032 Y138.469 E.02158
G1 X90.582 Y137.795 E.0216
G1 X90.424 Y137.001 E.02158
G1 X90.582 Y136.207 E.02158
G1 X91.032 Y135.533 E.0216
G1 X91.706 Y135.083 E.0216
G1 X92.5 Y134.925 E.02158
G1 X93.294 Y135.083 E.02158
G1 X93.968 Y135.533 E.0216
G1 X94.418 Y136.207 E.0216
G1 X94.576 Y137.001 E.02158
G1 X94.418 Y137.795 E.02158
G1 X93.968 Y138.469 E.0216
G1 X93.294 Y138.918 E.02158
G1 X92.496 Y139.076 E.02168
G1 X92.5 Y138.692 F9000
;TYPE:External perimeter
G1 F1200
G1 X91.853 Y138.563 E.01758
G1 X91.304 Y138.197 E.01758
G1 X90.938 Y137.648 E.01758
G1 X90.809 Y137.001 E.01758
G1 X90.938 Y136.354 E.01758
G1 X91.304 Y135.805 E.01758
G1 X91.853 Y135.439 E.01758
G1 X92.5 Y135.31 E.01758
G1 X93.147 Y135.439 E.01758
G1 X93.696 Y135.805 E.01758
G1 X94.062 Y136.354 E.01758
G1 X94.191 Y137.001 E.01758
G1 X94.062 Y137.648 E.01758
G1 X93.696 Y138.197 E.01758
G1 X93.147 Y138.563 E.01758
G1 X92.559 Y138.68 E.01598
G1 X92.3 Y139.038 F9000
;WIPE_START
G1 F7200
G1 X91.853 Y138.563 E-.16996
G1 X91.304 Y138.197 E-.15671
G1 X90.938 Y137.648 E-.15671
G1 X90.809 Y137.001 E-.15669
G1 X90.938 Y136.354 E-.15669
G1 X90.946 Y136.343 E-.00324
;WIPE_END
G1 X132.495 Y132.526 F9000
G1 E.8 F1800
;TYPE:Perimeter
G1 F1200
G1 X132.687 Y133.636 E.03002
G1 X132.825 Y134.753 E.03
G1 X132.908 Y135.876 E.03001
G1 X132.936 Y137.001 E.02999
G1 X132.908 Y138.126 E.02999
G1 X132.825 Y139.249 E.03001
G1 X132.687 Y140.366 E.03
G1 X132.495 Y141.475 E.03
G1 X132.248 Y142.574 E.03002
G1 X131.948 Y143.659 E.03
G1 X131.595 Y144.728 E.03
G1 X131.19 Y145.778 E.02999
G1 X130.733 Y146.807 E.03001
G1 X130.227 Y147.813 E.03001
G1 X129.672 Y148.792 E.02999
G1 X129.07 Y149.743 E.03
G1 X128.422 Y150.664 E.03001
G1 X127.729 Y151.551 E.03
G1 X126.994 Y152.403 E.02999
G1 X126.218 Y153.219 E.03001
G1 X125.403 Y153.995 E.02999
G1 X124.55 Y154.73 E.03001
