; generated by PrusaSlicer 2.6.1+win64 on 2024-01-27 at 11:44:04 UTC

; 

; external perimeters extrusion width = 0.42mm
; perimeters extrusion width = 0.44mm
; infill extrusion width = 0.44mm
; solid infill extrusion width = 0.44mm
; top infill extrusion width = 0.40mm
; support material extrusion width = 0.36mm
; first layer extrusion width = 0.42mm

M201 X500 Y500 Z100 E5000 ; sets maximum accelerations, mm/sec^2
M203 X500 Y500 Z10 E60 ; sets maximum feedrates, mm / sec
M204 S500 T1000 ; sets acceleration (S) and retract acceleration (R), mm/sec^2
M205 X8.00 Y8.00 Z0.40 E5.00 ; sets the jerk limits, mm/sec
M205 S0 T0 ; sets the minimum extruding and travel feed rate, mm/sec
;TYPE:Custom
G90 ; use absolute coordinates
M83 ; extruder relative mode
M104 S150 ; set temporary nozzle temp to prevent oozing during homing
M140 S60 ; set final bed temp
G4 S30 ; allow partial nozzle warmup
G28 ; home all axis and restore leveling
G1 Z50 F240
G1 X2.0 Y10 F3000
M104 S215 ; set final nozzle temp
M190 S60 ; wait for bed temp to stabilize
M109 S215 ; wait for nozzle temp to stabilize
G1 Z0.28 F240
G92 E0
G1 X2.0 Y140 E10 F1500 ; prime the nozzle
G1 X2.3 Y140 F5000
G92 E0
G1 X2.3 Y10 E10 F1200 ; prime the nozzle
G92 E0
G21 ; set units to millimeters
G90 ; use absolute coordinates
M83 ; use relative distances for extrusion
; Filament gcode
M107
;LAYER_CHANGE
;Z:0.2
;HEIGHT:0.2
;BEFORE_LAYER_CHANGE
G92 E0
;0.2


G1 E-.8 F1800
G1 Z.2 F9000
;AFTER_LAYER_CHANGE
;0.2
G1 X97.218 Y97.218
G1 E.8 F1800
M204 S500
;TYPE:Skirt/Brim
;WIDTH:0.42
G1 F1084
G1 X97.736 Y96.7 E.01952
G1 X98.223 Y96.375 E.0156
G1 X99.576 Y95.815 E.03903
G1 X100.882 Y95.628 E.03516
G1 X119.118 Y95.628 E.48601
G1 X119.85 Y95.7 E.0196
G1 X120.424 Y95.815 E.0156
G1 X121.777 Y96.375 E.03903
G1 X122.264 Y96.7 E.0156
G1 X123.3 Y97.736 E.03905
G1 X123.625 Y98.223 E.0156
G1 X124.185 Y99.576 E.03903
G1 X124.3 Y100.15 E.0156
G1 X124.372 Y100.882 E.0196
G1 X124.372 Y119.118 E.48601
G1 X124.185 Y120.424 E.03516
G1 X123.625 Y121.777 E.03903
G1 X123.3 Y122.264 E.0156
G1 X122.264 Y123.3 E.03905
G1 X121.777 Y123.625 E.0156
G1 X120.424 Y124.185 E.03903
G1 X119.118 Y124.372 E.03516
G1 X100.882 Y124.372 E.48601
G1 X99.576 Y124.185 E.03516
G1 X98.223 Y123.625 E.03903
G1 X97.736 Y123.3 E.0156
G1 X96.7 Y122.264 E.03905
G1 X96.375 Y121.777 E.0156
G1 X95.815 Y120.424 E.03903
G1 X95.628 Y119.118 E.03516
G1 X95.628 Y100.882 E.48601
G1 X95.815 Y99.576 E.03516
G1 X96.375 Y98.223 E.03903
G1 X96.7 Y97.736 E.0156
G1 X97.176 Y97.261 E.01792
G1 X97.437 Y97.522 F9000
G1 F1084
G1 X97.946 Y97.014 E.01917
G1 X98.432 Y96.689 E.01558
G1 X99.65 Y96.184 E.03514
G1 X100.882 Y96.005 E.03318
G1 X119.118 Y96.005 E.48601
G1 X119.776 Y96.07 E.01762
G1 X120.35 Y96.184 E.0156
G1 X121.568 Y96.689 E.03514
G1 X122.054 Y97.014 E.01558
G1 X122.986 Y97.946 E.03513
G1 X123.311 Y98.432 E.01558
G1 X123.816 Y99.65 E.03514
G1 X123.93 Y100.224 E.0156
G1 X123.995 Y100.882 E.01762
G1 X123.995 Y119.118 E.48601
G1 X123.816 Y120.35 E.03318
G1 X123.311 Y121.568 E.03514
G1 X122.986 Y122.054 E.01558
G1 X122.054 Y122.986 E.03513
G1 X121.568 Y123.311 E.01558
G1 X120.35 Y123.816 E.03514
G1 X119.118 Y123.995 E.03318
G1 X100.882 Y123.995 E.48601
G1 X99.65 Y123.816 E.03318
G1 X98.432 Y123.311 E.03514
G1 X97.946 Y122.986 E.01558
G1 X97.014 Y122.054 E.03513
G1 X96.689 Y121.568 E.01558
G1 X96.184 Y120.35 E.03514
G1 X96.005 Y119.118 E.03318
G1 X96.005 Y100.882 E.48601
G1 X96.184 Y99.65 E.03318
G1 X96.689 Y98.432 E.03514
G1 X97.014 Y97.946 E.01558
G1 X97.395 Y97.565 E.01436
; printing object 3mm-dowel.stl id:0 copy 2
;WIPE_START
G1 F7200
G1 X97.946 Y97.014 E-.18507
G1 X98.432 Y96.689 E-.13886
G1 X99.65 Y96.184 E-.31315
G1 X100.329 Y96.085 E-.16292
;WIPE_END
G1 X119.366 Y100.882 F9000
G1 E.8 F1800
;TYPE:Perimeter
G1 F1084
G1 X119.347 Y100.977 E.00258
G1 X119.293 Y101.058 E.00259
G1 X119.213 Y101.112 E.00257
G1 X119.118 Y101.131 E.00258
G1 X119.023 Y101.112 E.00258
G1 X118.942 Y101.058 E.00259
G1 X118.888 Y100.977 E.00259
G1 X118.869 Y100.882 E.00258
G1 X118.888 Y100.787 E.00258
G1 X118.942 Y100.707 E.00257
G1 X119.023 Y100.653 E.00259
G1 X119.118 Y100.634 E.00258
G1 X119.212 Y100.653 E.00256
G1 X119.293 Y100.707 E.00259
G1 X119.354 Y100.824 E.00352
G1 X119.75 Y100.882 F9000
G1 F1084
G1 X119.702 Y101.125 E.0066
G1 X119.565 Y101.33 E.00657
G1 X119.36 Y101.467 E.00657
G1 X119.118 Y101.515 E.00658
G1 X118.875 Y101.467 E.0066
G1 X118.67 Y101.33 E.00657
G1 X118.533 Y101.125 E.00657
G1 X118.485 Y100.882 E.0066
G1 X118.533 Y100.64 E.00658
G1 X118.67 Y100.435 E.00657
G1 X118.875 Y100.298 E.00657
G1 X119.118 Y100.25 E.0066
G1 X119.36 Y100.298 E.00658
G1 X119.565 Y100.435 E.00657
G1 X119.702 Y100.64 E.00657
G1 X119.738 Y100.824 E.005
G1 X120.135 Y100.882 F9000
;TYPE:External perimeter
G1 F1084
G1 X120.057 Y101.272 E.0106
G1 X119.837 Y101.602 E.01057
G1 X119.507 Y101.822 E.01057
G1 X119.118 Y101.9 E.01057
G1 X118.728 Y101.822 E.0106
G1 X118.398 Y101.602 E.01057
G1 X118.178 Y101.272 E.01057
G1 X118.1 Y100.882 E.0106
G1 X118.178 Y100.493 E.01057
G1 X118.398 Y100.163 E.01057
G1 X118.728 Y99.943 E.01057
G1 X119.118 Y99.865 E.0106
G1 X119.507 Y99.943 E.01057
G1 X119.837 Y100.163 E.01057
G1 X120.057 Y100.493 E.01057
G1 X120.123 Y100.824 E.009
G1 X119.791 Y101.081 F9000
; stop printing object 3mm-dowel.stl id:0 copy 2
; printing object 3mm-dowel.stl id:0 copy 0
;WIPE_START
G1 F7200
G1 X120.057 Y101.272 E-.10755
G1 X119.837 Y101.602 E-.0942
G1 X119.507 Y101.822 E-.0942
G1 X119.118 Y101.9 E-.09423
G1 X118.728 Y101.822 E-.09446
G1 X118.398 Y101.602 E-.0942
G1 X118.178 Y101.272 E-.0942
G1 X118.1 Y100.882 E-.09446
G1 X118.127 Y100.748 E-.0325
;WIPE_END
G1 X119.366 Y110 F9000
G1 E.8 F1800
;TYPE:Perimeter
G1 F1084
G1 X119.347 Y110.095 E.00258
G1 X119.293 Y110.175 E.00257
G1 X119.213 Y110.229 E.00257
G1 X119.118 Y110.248 E.00258
G1 X119.023 Y110.229 E.00258
G1 X118.942 Y110.175 E.00259
G1 X118.888 Y110.095 E.00257
G1 X118.869 Y110 E.00258
G1 X118.888 Y109.905 E.00258
G1 X118.942 Y109.825 E.00257
G1 X119.023 Y109.771 E.00259
G1 X119.118 Y109.752 E.00258
G1 X119.212 Y109.771 E.00256
G1 X119.293 Y109.825 E.00259
G1 X119.354 Y109.941 E.00349
G1 X119.75 Y110 F9000
G1 F1084
G1 X119.702 Y110.242 E.00658
G1 X119.565 Y110.447 E.00657
G1 X119.36 Y110.584 E.00657
G1 X119.118 Y110.633 E.00658
G1 X118.875 Y110.584 E.00661
G1 X118.67 Y110.447 E.00657
G1 X118.533 Y110.242 E.00657
G1 X118.485 Y110 E.00658
G1 X118.533 Y109.758 E.00658
G1 X118.67 Y109.553 E.00657
G1 X118.875 Y109.416 E.00657
G1 X119.118 Y109.367 E.00661
G1 X119.36 Y109.416 E.00658
G1 X119.565 Y109.553 E.00657
G1 X119.702 Y109.758 E.00657
G1 X119.738 Y109.941 E.00497
G1 X120.135 Y110 F9000
;TYPE:External perimeter
G1 F1084
G1 X120.057 Y110.389 E.01057
G1 X119.837 Y110.719 E.01057
G1 X119.507 Y110.94 E.01058
G1 X119.118 Y111.017 E.01057
G1 X118.728 Y110.94 E.01059
G1 X118.398 Y110.719 E.01058
G1 X118.178 Y110.389 E.01057
G1 X118.1 Y110 E.01057
G1 X118.178 Y109.611 E.01057
G1 X118.398 Y109.281 E.01057
G1 X118.728 Y109.06 E.01058
G1 X119.118 Y108.983 E.01059
G1 X119.507 Y109.06 E.01057
G1 X119.837 Y109.281 E.01058
G1 X120.057 Y109.611 E.01057
G1 X120.123 Y109.941 E.00897
G1 X119.791 Y110.198 F9000
; stop printing object 3mm-dowel.stl id:0 copy 0
; printing object 3mm-dowel.stl id:0 copy 1
;WIPE_START
G1 F7200
G1 X120.057 Y110.389 E-.10755
G1 X119.837 Y110.719 E-.0942
G1 X119.507 Y110.94 E-.09433
G1 X119.118 Y111.017 E-.09418
G1 X118.728 Y110.94 E-.09441
G1 X118.398 Y110.719 E-.09433
G1 X118.178 Y110.389 E-.0942
G1 X118.1 Y110 E-.09423
G1 X118.127 Y109.866 E-.03257
;WIPE_END
G1 X119.366 Y119.118 F9000
G1 E.8 F1800
;TYPE:Perimeter
G1 F1084
G1 X119.347 Y119.213 E.00258
G1 X119.293 Y119.293 E.00257
G1 X119.213 Y119.347 E.00257
G1 X119.118 Y119.366 E.00258
G1 X119.023 Y119.347 E.00258
G1 X118.942 Y119.293 E.00259
G1 X118.888 Y119.213 E.00257
G1 X118.869 Y119.118 E.00258
G1 X118.888 Y119.023 E.00258
G1 X118.942 Y118.942 E.00259
G1 X119.023 Y118.888 E.00259
G1 X119.118 Y118.869 E.00258
G1 X119.213 Y118.888 E.00258
G1 X119.293 Y118.942 E.00257
G1 X119.354 Y119.059 E.00352
G1 X119.75 Y119.118 F9000
G1 F1084
G1 X119.702 Y119.36 E.00658
G1 X119.565 Y119.565 E.00657
G1 X119.36 Y119.702 E.00657
G1 X119.118 Y119.75 E.00658
G1 X118.875 Y119.702 E.0066
G1 X118.67 Y119.565 E.00657
G1 X118.533 Y119.36 E.00657
G1 X118.485 Y119.118 E.00658
G1 X118.533 Y118.875 E.0066
G1 X118.67 Y118.67 E.00657
G1 X118.875 Y118.533 E.00657
G1 X119.118 Y118.485 E.0066
G1 X119.36 Y118.533 E.00658
G1 X119.565 Y118.67 E.00657
G1 X119.702 Y118.875 E.00657
G1 X119.738 Y119.059 E.005
G1 X120.135 Y119.118 F9000
;TYPE:External perimeter
G1 F1084
G1 X120.057 Y119.507 E.01057
G1 X119.837 Y119.837 E.01057
G1 X119.507 Y120.057 E.01057
G1 X119.118 Y120.135 E.01057
G1 X118.728 Y120.057 E.0106
G1 X118.398 Y119.837 E.01057
G1 X118.178 Y119.507 E.01057
G1 X118.1 Y119.118 E.01057
G1 X118.178 Y118.728 E.0106
G1 X118.398 Y118.398 E.01057
G1 X118.728 Y118.178 E.01057
G1 X119.118 Y118.1 E.0106
G1 X119.507 Y118.178 E.01057
G1 X119.837 Y118.398 E.01057
G1 X120.057 Y118.728 E.01057
G1 X120.123 Y119.059 E.009
G1 X119.791 Y119.316 F9000
; stop printing object 3mm-dowel.stl id:0 copy 1
; printing object 3mm-dowel.stl id:0 copy 5
;WIPE_START
G1 F7200
G1 X120.057 Y119.507 E-.10755
G1 X119.837 Y119.837 E-.0942
G1 X119.507 Y120.057 E-.0942
G1 X119.118 Y120.135 E-.09423
G1 X118.728 Y120.057 E-.09446
G1 X118.398 Y119.837 E-.0942
G1 X118.178 Y119.507 E-.0942
G1 X118.1 Y119.118 E-.09423
G1 X118.127 Y118.983 E-.03273
;WIPE_END
G1 X110.248 Y119.118 F9000
G1 E.8 F1800
;TYPE:Perimeter
G1 F1084
G1 X110.229 Y119.213 E.00258
G1 X110.175 Y119.293 E.00257
G1 X110.095 Y119.347 E.00257
G1 X110 Y119.366 E.00258
G1 X109.905 Y119.347 E.00258
G1 X109.825 Y119.293 E.00257
G1 X109.771 Y119.213 E.00257
G1 X109.752 Y119.118 E.00258
G1 X109.771 Y119.023 E.00258
G1 X109.825 Y118.942 E.00259
G1 X109.905 Y118.888 E.00257
G1 X110 Y118.869 E.00258
G1 X110.095 Y118.888 E.00258
G1 X110.175 Y118.942 E.00257
G1 X110.236 Y119.059 E.00352
G1 X110.633 Y119.118 F9000
G1 F1084
G1 X110.584 Y119.36 E.00658
G1 X110.447 Y119.565 E.00657
G1 X110.242 Y119.702 E.00657
G1 X110 Y119.75 E.00658
G1 X109.758 Y119.702 E.00658
G1 X109.553 Y119.565 E.00657
G1 X109.416 Y119.36 E.00657
G1 X109.367 Y119.118 E.00658
G1 X109.416 Y118.875 E.00661
G1 X109.553 Y118.67 E.00657
G1 X109.758 Y118.533 E.00657
G1 X110 Y118.485 E.00658
G1 X110.242 Y118.533 E.00658
G1 X110.447 Y118.67 E.00657
G1 X110.584 Y118.875 E.00657
G1 X110.621 Y119.059 E.005
G1 X111.017 Y119.118 F9000
;TYPE:External perimeter
G1 F1084
G1 X110.94 Y119.507 E.01057
G1 X110.719 Y119.837 E.01058
G1 X110.389 Y120.057 E.01057
G1 X110 Y120.135 E.01057
G1 X109.611 Y120.057 E.01057
G1 X109.281 Y119.837 E.01057
G1 X109.06 Y119.507 E.01058
G1 X108.983 Y119.118 E.01057
G1 X109.06 Y118.728 E.01059
G1 X109.281 Y118.398 E.01058
G1 X109.611 Y118.178 E.01057
G1 X110 Y118.1 E.01057
G1 X110.389 Y118.178 E.01057
G1 X110.719 Y118.398 E.01057
G1 X110.94 Y118.728 E.01058
G1 X111.005 Y119.059 E.00899
G1 X110.673 Y119.316 F9000
; stop printing object 3mm-dowel.stl id:0 copy 5
; printing object 3mm-dowel.stl id:0 copy 3
;WIPE_START
G1 F7200
G1 X110.94 Y119.507 E-.10751
G1 X110.719 Y119.837 E-.09433
G1 X110.389 Y120.057 E-.0942
G1 X110 Y120.135 E-.09423
G1 X109.611 Y120.057 E-.09423
G1 X109.281 Y119.837 E-.0942
G1 X109.06 Y119.507 E-.09433
G1 X108.983 Y119.118 E-.09418
G1 X109.01 Y118.983 E-.03279
;WIPE_END
G1 X110.248 Y110 F9000
G1 E.8 F1800
;TYPE:Perimeter
G1 F1084
G1 X110.229 Y110.095 E.00258
G1 X110.175 Y110.175 E.00257
G1 X110.095 Y110.229 E.00257
G1 X110 Y110.248 E.00258
G1 X109.905 Y110.229 E.00258
G1 X109.825 Y110.175 E.00257
G1 X109.771 Y110.095 E.00257
G1 X109.752 Y110 E.00258
G1 X109.771 Y109.905 E.00258
G1 X109.825 Y109.825 E.00257
G1 X109.905 Y109.771 E.00257
G1 X110 Y109.752 E.00258
G1 X110.095 Y109.771 E.00258
G1 X110.175 Y109.825 E.00257
G1 X110.236 Y109.941 E.00349
G1 X110.633 Y110 F9000
G1 F1084
G1 X110.584 Y110.242 E.00658
G1 X110.447 Y110.447 E.00657
G1 X110.242 Y110.584 E.00657
G1 X110 Y110.633 E.00658
G1 X109.758 Y110.584 E.00658
G1 X109.553 Y110.447 E.00657
G1 X109.416 Y110.242 E.00657
G1 X109.367 Y110 E.00658
G1 X109.416 Y109.758 E.00658
G1 X109.553 Y109.553 E.00657
G1 X109.758 Y109.416 E.00657
G1 X110 Y109.367 E.00658
G1 X110.242 Y109.416 E.00658
G1 X110.447 Y109.553 E.00657
G1 X110.584 Y109.758 E.00657
G1 X110.621 Y109.941 E.00498
G1 X111.017 Y110 F9000
;TYPE:External perimeter
G1 F1084
G1 X110.94 Y110.389 E.01057
G1 X110.719 Y110.719 E.01058
G1 X110.389 Y110.94 E.01058
G1 X110 Y111.017 E.01057
G1 X109.611 Y110.94 E.01057
G1 X109.281 Y110.719 E.01058
G1 X109.06 Y110.389 E.01058
G1 X108.983 Y110 E.01057
G1 X109.06 Y109.611 E.01057
G1 X109.281 Y109.281 E.01058
G1 X109.611 Y109.06 E.01058
G1 X110 Y108.983 E.01057
G1 X110.389 Y109.06 E.01057
G1 X110.719 Y109.281 E.01058
G1 X110.94 Y109.611 E.01058
G1 X111.005 Y109.941 E.00896
G1 X110.673 Y110.198 F9000
; stop printing object 3mm-dowel.stl id:0 copy 3
; printing object 3mm-dowel.stl id:0 copy 7
;WIPE_START
G1 F7200
G1 X110.94 Y110.389 E-.10751
G1 X110.719 Y110.719 E-.09433
G1 X110.389 Y110.94 E-.09433
G1 X110 Y111.017 E-.09418
G1 X109.611 Y110.94 E-.09418
G1 X109.281 Y110.719 E-.09433
G1 X109.06 Y110.389 E-.09433
G1 X108.983 Y110 E-.09418
G1 X109.01 Y109.865 E-.03263
;WIPE_END
G1 X110.248 Y100.882 F9000
G1 E.8 F1800
;TYPE:Perimeter
G1 F1084
G1 X110.229 Y100.977 E.00258
G1 X110.175 Y101.058 E.00259
G1 X110.095 Y101.112 E.00257
G1 X110 Y101.131 E.00258
G1 X109.905 Y101.112 E.00258
G1 X109.825 Y101.058 E.00257
G1 X109.771 Y100.977 E.00259
G1 X109.752 Y100.882 E.00258
G1 X109.771 Y100.788 E.00256
G1 X109.825 Y100.707 E.00259
G1 X109.905 Y100.653 E.00257
G1 X110 Y100.634 E.00258
G1 X110.095 Y100.653 E.00258
G1 X110.175 Y100.707 E.00257
G1 X110.236 Y100.824 E.00352
G1 X110.633 Y100.882 F9000
G1 F1084
G1 X110.584 Y101.125 E.00661
G1 X110.447 Y101.33 E.00657
G1 X110.242 Y101.467 E.00657
G1 X110 Y101.515 E.00658
G1 X109.758 Y101.467 E.00658
G1 X109.553 Y101.33 E.00657
G1 X109.416 Y101.125 E.00657
G1 X109.367 Y100.882 E.00661
G1 X109.416 Y100.64 E.00658
G1 X109.553 Y100.435 E.00657
G1 X109.758 Y100.298 E.00657
G1 X110 Y100.25 E.00658
G1 X110.242 Y100.298 E.00658
G1 X110.447 Y100.435 E.00657
G1 X110.584 Y100.64 E.00657
G1 X110.621 Y100.824 E.005
G1 X111.017 Y100.882 F9000
;TYPE:External perimeter
G1 F1084
G1 X110.94 Y101.272 E.01059
G1 X110.719 Y101.602 E.01058
G1 X110.389 Y101.822 E.01057
G1 X110 Y101.9 E.01057
G1 X109.611 Y101.822 E.01057
G1 X109.281 Y101.602 E.01057
G1 X109.06 Y101.272 E.01058
G1 X108.983 Y100.882 E.01059
G1 X109.06 Y100.493 E.01057
G1 X109.281 Y100.163 E.01058
G1 X109.611 Y99.943 E.01057
G1 X110 Y99.865 E.01057
G1 X110.389 Y99.943 E.01057
G1 X110.719 Y100.163 E.01057
G1 X110.94 Y100.493 E.01058
G1 X111.005 Y100.824 E.00899
G1 X110.673 Y101.081 F9000
; stop printing object 3mm-dowel.stl id:0 copy 7
; printing object 3mm-dowel.stl id:0 copy 8
;WIPE_START
G1 F7200
G1 X110.94 Y101.272 E-.10751
G1 X110.719 Y101.602 E-.09433
G1 X110.389 Y101.822 E-.0942
G1 X110 Y101.9 E-.09423
G1 X109.611 Y101.822 E-.09423
G1 X109.281 Y101.602 E-.0942
G1 X109.06 Y101.272 E-.09433
G1 X108.983 Y100.882 E-.09441
G1 X109.01 Y100.748 E-.03256
;WIPE_END
G1 X101.131 Y100.882 F9000
G1 E.8 F1800
;TYPE:Perimeter
G1 F1084
G1 X101.112 Y100.977 E.00258
G1 X101.058 Y101.058 E.00259
G1 X100.977 Y101.112 E.00259
G1 X100.882 Y101.131 E.00258
G1 X100.787 Y101.112 E.00258
G1 X100.707 Y101.058 E.00257
G1 X100.653 Y100.977 E.00259
G1 X100.634 Y100.882 E.00258
G1 X100.653 Y100.788 E.00256
G1 X100.707 Y100.707 E.00259
G1 X100.787 Y100.653 E.00257
G1 X100.882 Y100.634 E.00258
G1 X100.977 Y100.653 E.00258
G1 X101.058 Y100.707 E.00259
G1 X101.119 Y100.824 E.00352
G1 X101.515 Y100.882 F9000
G1 F1084
G1 X101.467 Y101.125 E.0066
G1 X101.33 Y101.33 E.00657
G1 X101.125 Y101.467 E.00657
G1 X100.882 Y101.515 E.0066
G1 X100.64 Y101.467 E.00658
G1 X100.435 Y101.33 E.00657
G1 X100.298 Y101.125 E.00657
G1 X100.25 Y100.882 E.0066
G1 X100.298 Y100.64 E.00658
G1 X100.435 Y100.435 E.00657
G1 X100.64 Y100.298 E.00657
G1 X100.882 Y100.25 E.00658
G1 X101.125 Y100.298 E.0066
