; generated by PrusaSlicer 2.6.1+win64 on 2024-01-28 at 16:08:37 UTC

; 

; external perimeters extrusion width = 0.42mm
; perimeters extrusion width = 0.44mm
; infill extrusion width = 0.44mm
; solid infill extrusion width = 0.44mm
; top infill extrusion width = 0.40mm
; support material extrusion width = 0.36mm
; first layer extrusion width = 0.42mm

M201 X500 Y500 Z100 E5000 ; sets maximum accelerations, mm/sec^2
M203 X500 Y500 Z10 E60 ; sets maximum feedrates, mm / sec
M204 S500 T1000 ; sets acceleration (S) and retract acceleration (R), mm/sec^2
M205 X8.00 Y8.00 Z0.40 E5.00 ; sets the jerk limits, mm/sec
M205 S0 T0 ; sets the minimum extruding and travel feed rate, mm/sec
;TYPE:Custom
G90 ; use absolute coordinates
M83 ; extruder relative mode
M104 S150 ; set temporary nozzle temp to prevent oozing during homing
M140 S60 ; set final bed temp
G4 S30 ; allow partial nozzle warmup
G28 ; home all axis and restore leveling
G1 Z50 F240
G1 X2.0 Y10 F3000
M104 S215 ; set final nozzle temp
M190 S60 ; wait for bed temp to stabilize
M109 S215 ; wait for nozzle temp to stabilize
G1 Z0.28 F240
G92 E0
G1 X2.0 Y140 E10 F1500 ; prime the nozzle
G1 X2.3 Y140 F5000
G92 E0
G1 X2.3 Y10 E10 F1200 ; prime the nozzle
G92 E0
G21 ; set units to millimeters
G90 ; use absolute coordinates
M83 ; use relative distances for extrusion
; Filament gcode
M107
;LAYER_CHANGE
;Z:0.2
;HEIGHT:0.2
;BEFORE_LAYER_CHANGE
G92 E0
;0.2


G1 E-.8 F1800
G1 Z.2 F9000
;AFTER_LAYER_CHANGE
;0.2
G1 X100.678 Y100.331
G1 E.8 F1800
M204 S500
;TYPE:Skirt/Brim
;WIDTH:0.42
G1 F1200
G1 X102.02 Y99.196 E.04684
G1 X114.115 Y91.306 E.38487
G1 X115.12 Y90.765 E.03042
G1 X116.825 Y90.148 E.04832
G1 X118.612 Y89.845 E.04831
G1 X119.942 Y89.844 E.03545
G1 X121.092 Y89.956 E.03079
G1 X122.205 Y90.211 E.03043
G1 X123.895 Y90.867 E.04831
G1 X125.44 Y91.815 E.04831
G1 X126.792 Y93.024 E.04834
G1 X127.906 Y94.454 E.04831
G1 X128.746 Y96.061 E.04833
G1 X129.286 Y97.791 E.0483
G1 X129.509 Y99.59 E.04831
G1 X129.406 Y101.401 E.04834
G1 X129.286 Y102.063 E.01793
G1 X128.746 Y103.793 E.0483
G1 X128.149 Y105.019 E.03634
G1 X121.666 Y116.667 E.35528
G1 X120.804 Y117.98 E.04186
G1 X119.322 Y119.669 E.05989
G1 X118.37 Y120.505 E.03377
G1 X116.927 Y121.507 E.04682
G1 X104.69 Y128.233 E.37215
G1 X103.311 Y128.842 E.04018
G1 X101.557 Y129.304 E.04834
G1 X99.75 Y129.446 E.04831
G1 X99.078 Y129.415 E.01793
G1 X97.946 Y129.262 E.03044
G1 X96.204 Y128.76 E.04832
G1 X94.58 Y127.954 E.04832
G1 X94.018 Y127.583 E.01795
G1 X92.639 Y126.406 E.04832
G1 X91.888 Y125.547 E.03041
G1 X90.907 Y124.022 E.04833
G1 X90.615 Y123.416 E.01793
G1 X90.035 Y121.698 E.04833
G1 X89.771 Y119.904 E.04833
G1 X89.771 Y118.763 E.03041
G1 X90.035 Y116.969 E.04833
G1 X90.615 Y115.251 E.04833
G1 X91.493 Y113.665 E.04831
G1 X99.196 Y102.02 E.37211
G1 X100.638 Y100.376 E.05828
G1 X100.901 Y100.675 F9000
G1 F1200
G1 X102.229 Y99.51 E.04708
G1 X114.293 Y91.638 E.38391
G1 X115.299 Y91.097 E.03044
G1 X116.941 Y90.507 E.0465
G1 X118.663 Y90.219 E.04653
G1 X119.925 Y90.221 E.03363
G1 X121.008 Y90.324 E.02899
G1 X122.121 Y90.578 E.03043
G1 X123.747 Y91.214 E.04653
G1 X125.233 Y92.13 E.04652
G1 X126.531 Y93.296 E.0465
G1 X127.6 Y94.676 E.04652
G1 X128.406 Y96.224 E.04651
G1 X128.923 Y97.891 E.04652
G1 X129.133 Y99.624 E.04652
G1 X129.031 Y101.367 E.04653
G1 X128.923 Y101.962 E.01612
G1 X128.406 Y103.63 E.04654
G1 X127.819 Y104.835 E.03572
G1 X121.337 Y116.484 E.35529
G1 X120.49 Y117.771 E.04106
G1 X119.074 Y119.386 E.05724
G1 X118.121 Y120.221 E.03377
G1 X116.718 Y121.194 E.0455
G1 X104.508 Y127.903 E.3713
G1 X103.162 Y128.495 E.03919
G1 X101.474 Y128.936 E.0465
G1 X100.874 Y129.018 E.01614
G1 X99.128 Y129.042 E.04654
G1 X97.997 Y128.889 E.03042
G1 X96.321 Y128.401 E.04652
G1 X94.759 Y127.622 E.04652
G1 X94.254 Y127.289 E.01612
G1 X92.923 Y126.158 E.04655
G1 X92.172 Y125.299 E.03041
G1 X91.231 Y123.829 E.04652
G1 X90.968 Y123.283 E.01615
G1 X90.406 Y121.631 E.04651
G1 X90.148 Y119.904 E.04654
G1 X90.202 Y118.16 E.0465
G1 X90.406 Y117.036 E.03045
G1 X90.968 Y115.384 E.04651
G1 X91.816 Y113.858 E.04653
G1 X99.51 Y102.229 E.37162
G1 X100.614 Y100.926 E.04552
G1 X100.856 Y100.715 E.00856
; printing object Apollo-escape-tower-3.0.stl id:0 copy 0
;WIPE_START
G1 F7200
G1 X102.229 Y99.51 E-.43386
G1 X103.52 Y98.668 E-.36614
;WIPE_END
G1 X100.065 Y112.994 F9000
G1 E.8 F1800
;TYPE:Support material
G1 F1200
G1 X100.329 Y113.006 E.00704
G1 X100.633 Y113.896 E.02507
G1 X101.222 Y115.086 E.03539
G1 X101.942 Y116.164 E.03455
G1 X102.816 Y117.163 E.03538
G1 X103.812 Y118.039 E.03535
G1 X104.914 Y118.778 E.03536
G1 X106.104 Y119.367 E.03539
G1 X106.228 Y119.411 E.00351
G1 X106.133 Y120.471 E.02836
G1 X105.829 Y121.571 E.03042
G1 X105.334 Y122.6 E.03043
G1 X104.663 Y123.523 E.03041
G1 X103.838 Y124.312 E.03042
G1 X102.885 Y124.941 E.03043
G1 X101.835 Y125.39 E.03043
G1 X100.722 Y125.644 E.03043
G1 X99.582 Y125.695 E.03041
G1 X98.45 Y125.542 E.03044
G1 X97.364 Y125.189 E.03043
G1 X96.359 Y124.648 E.03042
G1 X95.467 Y123.936 E.03042
G1 X95.034 Y123.441 E.01753
G1 X94.715 Y123.077 E.0129
G1 X94.13 Y122.097 E.03042
G1 X93.729 Y121.028 E.03043
G1 X93.525 Y119.904 E.03045
G1 X93.525 Y118.763 E.03041
G1 X93.729 Y117.639 E.03045
G1 X94.13 Y116.571 E.0304
G1 X94.715 Y115.591 E.03042
G1 X95.467 Y114.731 E.03045
G1 X96.359 Y114.019 E.03042
G1 X97.364 Y113.478 E.03042
G1 X98.45 Y113.125 E.03043
G1 X99.582 Y112.972 E.03044
G1 X100.008 Y112.991 E.01136
G1 X103.8 Y124.113 F9000
G1 F1200
G1 X105.171 Y122.156 E.06368
G1 X105.51 Y121.451 E.02085
G1 X105.798 Y120.41 E.02879
G1 X105.846 Y119.878 E.01424
G1 X102.419 Y124.771 E.15921
G1 X101.73 Y125.066 E.01997
G1 X101.209 Y125.185 E.01424
G1 X105.296 Y119.347 E.18993
G1 X104.781 Y119.093 E.0153
G1 X104.624 Y118.992 E.00498
G1 X100.188 Y125.328 E.20613
G1 X99.597 Y125.355 E.01577
G1 X99.279 Y125.312 E.00855
G1 X103.997 Y118.573 E.21924
G1 X103.638 Y118.334 E.01149
G1 X103.392 Y118.122 E.00865
G1 X98.447 Y125.184 E.22976
G1 X97.697 Y124.941 E.02101
G1 X102.822 Y117.622 E.23813
G1 X102.568 Y117.395 E.00908
G1 X102.285 Y117.073 E.01143
G1 X97.007 Y124.611 E.24525
G1 X96.547 Y124.364 E.01392
G1 X96.363 Y124.217 E.00628
G1 X101.774 Y116.489 E.25143
G1 X101.666 Y116.362 E.00444
G1 X101.313 Y115.833 E.01695
G1 X95.772 Y123.746 E.25745
G1 X95.702 Y123.69 E.00239
G1 X95.251 Y123.174 E.01826
G1 X100.872 Y115.148 E.26114
G1 X100.491 Y114.376 E.02294
G1 X94.783 Y122.528 E.26522
G1 X94.437 Y121.949 E.01798
G1 X94.378 Y121.792 E.00447
G1 X100.153 Y113.544 E.26834
G1 X100.082 Y113.334 E.00591
G1 X99.597 Y113.312 E.01294
G1 X99.374 Y113.343 E.006
G1 X94.057 Y120.936 E.24704
G1 X93.867 Y119.891 E.02831
G1 X98.327 Y113.522 E.20722
G1 X97.498 Y113.791 E.02323
G1 X97.049 Y114.033 E.01359
G1 X93.695 Y118.823 E.15584
;WIPE_START
G1 F7200
G1 X95.627 Y116.064 E-.8
;WIPE_END
G1 X119.773 Y93.595 F9000
G1 E.8 F1800
G1 F1200
G1 X120.256 Y93.617 E.01289
G1 X121.37 Y93.871 E.03045
G1 X122.419 Y94.319 E.0304
G1 X123.372 Y94.948 E.03043
G1 X124.197 Y95.737 E.03042
G1 X124.868 Y96.661 E.03043
G1 X125.364 Y97.689 E.03042
G1 X125.667 Y98.79 E.03043
G1 X125.77 Y99.927 E.03043
G1 X125.667 Y101.064 E.03043
G1 X125.364 Y102.165 E.03043
G1 X124.868 Y103.193 E.03042
G1 X124.197 Y104.117 E.03043
G1 X123.372 Y104.906 E.03042
G1 X122.419 Y105.535 E.03043
G1 X121.37 Y105.983 E.0304
G1 X120.256 Y106.237 E.03045
G1 X119.427 Y106.275 E.02212
G1 X119.367 Y106.104 E.00483
G1 X118.778 Y104.914 E.03539
G1 X118.058 Y103.836 E.03455
G1 X117.184 Y102.837 E.03538
G1 X116.188 Y101.961 E.03535
G1 X115.086 Y101.222 E.03536
G1 X113.896 Y100.633 E.03539
G1 X113.059 Y100.347 E.02357
G1 X113.059 Y99.356 E.02641
G1 X113.263 Y98.233 E.03042
G1 X113.664 Y97.164 E.03043
G1 X114.25 Y96.184 E.03043
G1 X115.001 Y95.324 E.03043
G1 X115.894 Y94.612 E.03044
G1 X116.899 Y94.071 E.03042
G1 X117.985 Y93.719 E.03043
G1 X119.116 Y93.565 E.03042
G1 X119.717 Y93.592 E.01603
G1 X122.524 Y105.262 F9000
G1 F1200
G1 X125.219 Y101.414 E.1252
G1 X125.332 Y101.003 E.01136
G1 X125.429 Y99.927 E.02879
G1 X125.419 Y99.813 E.00305
G1 X121.351 Y105.622 E.189
G1 X121.264 Y105.659 E.00252
G1 X120.241 Y105.893 E.02797
G1 X125.287 Y98.687 E.23445
G1 X125.019 Y97.755 E.02585
G1 X119.509 Y105.624 E.25602
G1 X119.128 Y104.852 E.02294
G1 X124.643 Y96.976 E.25625
G1 X124.576 Y96.836 E.00414
G1 X124.192 Y96.307 E.01742
G1 X118.687 Y104.167 E.25575
G1 X118.334 Y103.638 E.01695
G1 X118.226 Y103.511 E.00444
G1 X123.684 Y95.716 E.25361
G1 X123.16 Y95.215 E.01932
G1 X123.129 Y95.194 E.001
G1 X117.715 Y102.927 E.25158
G1 X117.432 Y102.605 E.01143
G1 X117.178 Y102.378 E.00908
G1 X122.499 Y94.779 E.24724
G1 X122.258 Y94.619 E.00771
G1 X121.821 Y94.433 E.01266
G1 X116.608 Y101.878 E.24222
G1 X116.362 Y101.666 E.00865
G1 X116.003 Y101.427 E.01149
G1 X121.094 Y94.156 E.23656
G1 X120.3 Y93.975 E.0217
G1 X115.376 Y101.008 E.22881
G1 X115.219 Y100.907 E.00498
G1 X114.704 Y100.653 E.0153
G1 X119.419 Y93.919 E.21909
G1 X119.131 Y93.906 E.00768
G1 X118.442 Y93.999 E.01853
G1 X114.019 Y100.316 E.20552
G1 X113.399 Y100.104 E.01746
G1 X113.399 Y99.887 E.00578
G1 X117.316 Y94.293 E.182
G1 X117.033 Y94.385 E.00793
G1 X116.081 Y94.897 E.02881
G1 X115.834 Y95.094 E.00842
G1 X113.365 Y98.62 E.11472
; stop printing object Apollo-escape-tower-3.0.stl id:0 copy 0
M106 S255
;LAYER_CHANGE
;Z:0.4
;HEIGHT:0.2
;BEFORE_LAYER_CHANGE
G92 E0
;0.4


;WIPE_START
G1 F7200
G1 X115.297 Y95.861 E-.8
;WIPE_END
G1 Z.4 F9000
;AFTER_LAYER_CHANGE
;0.4
G1 X112.86 Y92.125
G1 E.8 F1800
;TYPE:Skirt/Brim
G1 F993
G1 X114.115 Y91.306 E.03994
G1 X115.12 Y90.765 E.03042
G1 X116.825 Y90.148 E.04832
G1 X118.612 Y89.845 E.04831
G1 X119.942 Y89.844 E.03545
G1 X121.092 Y89.956 E.03079
G1 X122.205 Y90.211 E.03043
G1 X123.895 Y90.867 E.04831
G1 X125.44 Y91.815 E.04831
G1 X126.792 Y93.024 E.04834
G1 X127.906 Y94.454 E.04831
G1 X128.746 Y96.061 E.04833
G1 X129.286 Y97.791 E.0483
G1 X129.509 Y99.59 E.04831
G1 X129.406 Y101.401 E.04834
G1 X129.286 Y102.063 E.01793
G1 X128.746 Y103.793 E.0483
G1 X128.149 Y105.019 E.03634
G1 X121.666 Y116.667 E.35528
G1 X120.804 Y117.98 E.04186
G1 X119.322 Y119.669 E.05989
G1 X118.37 Y120.505 E.03377
G1 X116.927 Y121.507 E.04682
G1 X104.69 Y128.233 E.37215
G1 X103.311 Y128.842 E.04018
G1 X101.557 Y129.304 E.04834
G1 X99.75 Y129.446 E.04831
G1 X99.078 Y129.415 E.01793
G1 X97.946 Y129.262 E.03044
G1 X96.204 Y128.76 E.04832
G1 X94.58 Y127.954 E.04832
G1 X94.018 Y127.583 E.01795
G1 X92.639 Y126.406 E.04832
G1 X91.888 Y125.547 E.03041
G1 X90.907 Y124.022 E.04833
G1 X90.615 Y123.416 E.01793
G1 X90.035 Y121.698 E.04833
G1 X89.771 Y119.904 E.04833
G1 X89.771 Y118.763 E.03041
G1 X90.035 Y116.969 E.04833
G1 X90.615 Y115.251 E.04833
G1 X91.493 Y113.665 E.04831
G1 X99.196 Y102.02 E.37211
G1 X100.678 Y100.331 E.05989
G1 X102.02 Y99.196 E.04684
G1 X112.81 Y92.158 E.34333
G1 X113.015 Y92.472 F9000
G1 F993
G1 X114.293 Y91.638 E.04067
G1 X115.299 Y91.097 E.03044
G1 X116.941 Y90.507 E.0465
G1 X118.663 Y90.219 E.04653
G1 X119.925 Y90.221 E.03363
G1 X121.008 Y90.324 E.02899
G1 X122.121 Y90.578 E.03043
G1 X123.747 Y91.214 E.04653
G1 X125.233 Y92.13 E.04652
G1 X126.531 Y93.296 E.0465
G1 X127.6 Y94.676 E.04652
G1 X128.406 Y96.224 E.04651
G1 X128.923 Y97.891 E.04652
G1 X129.133 Y99.624 E.04652
G1 X129.031 Y101.367 E.04653
G1 X128.923 Y101.962 E.01612
G1 X128.406 Y103.63 E.04654
G1 X127.819 Y104.835 E.03572
G1 X121.337 Y116.484 E.35529
G1 X120.49 Y117.771 E.04106
G1 X119.074 Y119.386 E.05724
G1 X118.121 Y120.221 E.03377
G1 X116.718 Y121.194 E.0455
G1 X104.508 Y127.903 E.3713
G1 X103.162 Y128.495 E.03919
G1 X101.474 Y128.936 E.0465
G1 X100.874 Y129.018 E.01614
G1 X99.128 Y129.042 E.04654
G1 X97.997 Y128.889 E.03042
G1 X96.321 Y128.401 E.04652
G1 X94.759 Y127.622 E.04652
G1 X94.254 Y127.289 E.01612
G1 X92.923 Y126.158 E.04655
G1 X92.172 Y125.299 E.03041
G1 X91.231 Y123.829 E.04652
G1 X90.968 Y123.283 E.01615
G1 X90.406 Y121.631 E.04651
G1 X90.148 Y119.904 E.04654
G1 X90.202 Y118.16 E.0465
G1 X90.406 Y117.036 E.03045
G1 X90.968 Y115.384 E.04651
G1 X91.816 Y113.858 E.04653
G1 X99.51 Y102.229 E.37162
G1 X100.614 Y100.926 E.04552
G1 X102.229 Y99.51 E.05724
G1 X112.965 Y92.505 E.34165
; printing object Apollo-escape-tower-3.0.stl id:0 copy 0
;WIPE_START
G1 F7200
G1 X114.293 Y91.638 E-.37667
G1 X115.299 Y91.097 E-.27128
G1 X115.901 Y90.881 E-.15205
;WIPE_END
G1 X117.852 Y97.804 F9000
G1 E.8 F1800
;TYPE:Support material
;WIDTH:0.36
G1 F993
G1 X117.949 Y97.727 E.00278
G1 X118.365 Y97.503 E.01059
G1 X118.815 Y97.356 E.01061
G1 X119.299 Y97.294 E.01094
G1 X119.315 Y96.934 E.00808
G1 X119.732 Y96.953 E.00935
G1 X120.333 Y97.078 E.01376
G1 X120.822 Y97.287 E.01192
G1 X121.271 Y97.583 E.01205
G1 X121.659 Y97.954 E.01203
G1 X121.975 Y98.389 E.01205
G1 X122.209 Y98.874 E.01207
G1 X122.352 Y99.392 E.01204
G1 X122.4 Y99.927 E.01204
G1 X122.352 Y100.462 E.01204
G1 X122.209 Y100.98 E.01204
G1 X121.975 Y101.465 E.01207
G1 X121.659 Y101.899 E.01203
G1 X121.271 Y102.271 E.01205
G1 X120.822 Y102.567 E.01205
G1 X120.328 Y102.778 E.01204
G1 X119.804 Y102.898 E.01205
G1 X119.267 Y102.922 E.01205
G1 X118.735 Y102.85 E.01203
G1 X118.223 Y102.684 E.01206
G1 X117.75 Y102.429 E.01204
G1 X117.33 Y102.094 E.01204
G1 X116.976 Y101.689 E.01205
G1 X116.701 Y101.228 E.01203
G1 X116.512 Y100.725 E.01204
G1 X116.416 Y100.196 E.01205
G1 X116.416 Y99.658 E.01206
G1 X116.512 Y99.129 E.01205
G1 X116.701 Y98.626 E.01204
G1 X116.976 Y98.165 E.01203
G1 X117.33 Y97.76 E.01205
G1 X117.75 Y97.425 E.01204
G1 X118.223 Y97.17 E.01204
G1 X118.735 Y97.004 E.01206
G1 X119.267 Y96.932 E.01203
G1 X119.777 Y96.594 F9000
G1 F993
G1 X120.441 Y96.733 E.0152
G1 X120.994 Y96.969 E.01347
G1 X121.496 Y97.3 E.01348
G1 X121.932 Y97.717 E.01352
G1 X122.286 Y98.204 E.01349
G1 X122.547 Y98.747 E.0135
G1 X122.707 Y99.327 E.01348
G1 X122.761 Y99.927 E.0135
G1 X122.707 Y100.527 E.0135
G1 X122.547 Y101.107 E.01348
G1 X122.286 Y101.65 E.0135
G1 X121.932 Y102.137 E.01349
G1 X121.496 Y102.553 E.01351
G1 X120.994 Y102.885 E.01349
G1 X120.44 Y103.122 E.0135
G1 X119.853 Y103.256 E.01349
G1 X119.251 Y103.283 E.0135
G1 X118.654 Y103.202 E.0135
G1 X118.081 Y103.016 E.0135
G1 X117.551 Y102.731 E.01349
G1 X117.08 Y102.355 E.01351
G1 X116.684 Y101.902 E.01348
G1 X116.375 Y101.385 E.0135
G1 X116.163 Y100.821 E.0135
G1 X116.056 Y100.228 E.0135
G1 X116.056 Y99.626 E.01349
G1 X116.163 Y99.033 E.0135
G1 X116.375 Y98.469 E.0135
G1 X116.684 Y97.952 E.0135
G1 X117.08 Y97.499 E.01348
G1 X117.551 Y97.123 E.01351
G1 X118.081 Y96.838 E.01349
G1 X118.654 Y96.652 E.0135
G1 X119.251 Y96.571 E.0135
G1 X119.729 Y96.592 E.01072
;WIPE_START
G1 F7200
G1 X119.251 Y96.571 E-.11363
G1 X118.654 Y96.652 E-.14309
G1 X118.081 Y96.838 E-.14308
G1 X117.551 Y97.123 E-.14292
G1 X117.08 Y97.499 E-.14314
G1 X116.764 Y97.861 E-.11414
;WIPE_END
G1 X98.37 Y117.169 F9000
G1 E.8 F1800
G1 F993
G1 X98.831 Y116.909 E.01186
G1 X99.272 Y116.766 E.01039
G1 X99.836 Y116.704 E.01272
G1 X99.852 Y116.344 E.00808
G1 X100.27 Y116.363 E.00938
G1 X100.794 Y116.482 E.01204
G1 X101.288 Y116.694 E.01205
G1 X101.737 Y116.99 E.01205
G1 X102.125 Y117.361 E.01203
G1 X102.441 Y117.796 E.01205
G1 X102.674 Y118.28 E.01204
G1 X102.817 Y118.798 E.01204
G1 X102.865 Y119.334 E.01206
G1 X102.817 Y119.869 E.01204
G1 X102.674 Y120.387 E.01204
G1 X102.441 Y120.871 E.01204
G1 X102.125 Y121.306 E.01205
G1 X101.737 Y121.678 E.01205
G1 X101.288 Y121.974 E.01205
G1 X100.794 Y122.185 E.01204
G1 X100.27 Y122.305 E.01205
G1 X99.733 Y122.329 E.01205
G1 X99.2 Y122.256 E.01206
G1 X98.689 Y122.09 E.01204
G1 X98.216 Y121.836 E.01203
G1 X97.795 Y121.501 E.01206
G1 X97.442 Y121.096 E.01204
G1 X97.166 Y120.634 E.01206
G1 X96.977 Y120.131 E.01204
G1 X96.881 Y119.602 E.01205
G1 X96.881 Y119.065 E.01203
G1 X96.977 Y118.536 E.01205
G1 X97.166 Y118.033 E.01204
G1 X97.442 Y117.571 E.01206
G1 X97.795 Y117.167 E.01202
G1 X98.216 Y116.832 E.01206
G1 X98.689 Y116.577 E.01204
G1 X99.195 Y116.412 E.01193
G1 X99.805 Y116.342 E.01376
G1 X100.318 Y116.005 F9000
G1 F993
G1 X100.905 Y116.139 E.01349
G1 X101.459 Y116.375 E.01349
G1 X101.962 Y116.707 E.01351
G1 X102.397 Y117.123 E.01349
G1 X102.751 Y117.611 E.01351
G1 X103.013 Y118.153 E.01349
