; generated by PrusaSlicer 2.6.1+win64 on 2024-01-28 at 16:09:03 UTC

; 

; external perimeters extrusion width = 0.42mm
; perimeters extrusion width = 0.44mm
; infill extrusion width = 0.44mm
; solid infill extrusion width = 0.44mm
; top infill extrusion width = 0.40mm
; support material extrusion width = 0.36mm
; first layer extrusion width = 0.42mm

M201 X500 Y500 Z100 E5000 ; sets maximum accelerations, mm/sec^2
M203 X500 Y500 Z10 E60 ; sets maximum feedrates, mm / sec
M204 S500 T1000 ; sets acceleration (S) and retract acceleration (R), mm/sec^2
M205 X8.00 Y8.00 Z0.40 E5.00 ; sets the jerk limits, mm/sec
M205 S0 T0 ; sets the minimum extruding and travel feed rate, mm/sec
;TYPE:Custom
G90 ; use absolute coordinates
M83 ; extruder relative mode
M104 S150 ; set temporary nozzle temp to prevent oozing during homing
M140 S60 ; set final bed temp
G4 S30 ; allow partial nozzle warmup
G28 ; home all axis and restore leveling
G1 Z50 F240
G1 X2.0 Y10 F3000
M104 S215 ; set final nozzle temp
M190 S60 ; wait for bed temp to stabilize
M109 S215 ; wait for nozzle temp to stabilize
G1 Z0.28 F240
G92 E0
G1 X2.0 Y140 E10 F1500 ; prime the nozzle
G1 X2.3 Y140 F5000
G92 E0
G1 X2.3 Y10 E10 F1200 ; prime the nozzle
G92 E0
G21 ; set units to millimeters
G90 ; use absolute coordinates
M83 ; use relative distances for extrusion
; Filament gcode
M107
;LAYER_CHANGE
;Z:0.2
;HEIGHT:0.2
;BEFORE_LAYER_CHANGE
G92 E0
;0.2


G1 E-.8 F1800
G1 Z.2 F9000
;AFTER_LAYER_CHANGE
;0.2
G1 X98.213 Y97.887
G1 E.8 F1800
M204 S500
;TYPE:Skirt/Brim
;WIDTH:0.42
G1 F1200
G1 X99.415 Y96.774 E.04366
G1 X100.846 Y95.727 E.04726
G1 X102.388 Y94.887 E.0468
G1 X103.358 Y94.55 E.02737
G1 X104.541 Y94.314 E.03215
G1 X108.945 Y93.628 E.11879
G1 X112.031 Y93.353 E.08257
G1 X113.086 Y93.408 E.02816
G1 X115.053 Y93.884 E.05394
G1 X117.767 Y94.95 E.07771
G1 X118.983 Y95.647 E.03735
G1 X120.561 Y96.871 E.05322
G1 X122.943 Y99.221 E.08918
G1 X123.976 Y100.43 E.04238
G1 X124.537 Y101.335 E.02838
G1 X126.336 Y105.583 E.12295
G1 X126.591 Y106.516 E.02578
G1 X126.76 Y107.73 E.03267
G1 X126.782 Y108.562 E.02218
G1 X126.37 Y113.454 E.13084
G1 X126.184 Y114.86 E.0378
G1 X125.987 Y115.652 E.02175
G1 X125.336 Y117.421 E.05024
G1 X124.89 Y118.275 E.02568
G1 X124.164 Y119.292 E.0333
G1 X123.105 Y120.521 E.04324
G1 X120.274 Y123.378 E.10719
G1 X118.725 Y124.525 E.05137
G1 X118.059 Y124.892 E.02027
G1 X115.591 Y125.938 E.07144
G1 X114.173 Y126.43 E.04
G1 X113.13 Y126.625 E.02828
G1 X108.326 Y126.815 E.12813
G1 X107.431 Y126.742 E.02393
G1 X105.615 Y126.313 E.04973
G1 X102.237 Y124.973 E.09685
G1 X100.847 Y124.257 E.04167
G1 X99.989 Y123.628 E.02835
G1 X98.812 Y122.429 E.04478
G1 X97.491 Y120.745 E.05704
G1 X95.786 Y118.167 E.08237
G1 X94.841 Y116.464 E.05191
G1 X94.215 Y114.64 E.05139
G1 X93.849 Y113.268 E.03784
G1 X93.735 Y112.566 E.01895
G1 X93.397 Y107.445 E.13678
G1 X93.39 Y106.578 E.02311
G1 X93.516 Y105.451 E.03022
G1 X93.987 Y103.835 E.04486
G1 X94.441 Y102.91 E.02746
G1 X94.974 Y102.073 E.02645
G1 X98.176 Y97.934 E.13947
G1 X98.459 Y98.225 F9000
G1 F1200
G1 X99.637 Y97.078 E.04382
G1 X101.529 Y95.748 E.06164
G1 X102.56 Y95.223 E.03083
G1 X103.432 Y94.92 E.0246
G1 X104.752 Y94.66 E.03586
G1 X108.979 Y94.003 E.11401
G1 X112.065 Y93.729 E.08257
G1 X113.014 Y93.778 E.02533
G1 X114.915 Y94.235 E.05211
G1 X117.63 Y95.301 E.07774
G1 X118.766 Y95.955 E.03493
G1 X120.296 Y97.14 E.05158
G1 X122.678 Y99.489 E.08916
G1 X123.687 Y100.671 E.04142
G1 X124.191 Y101.486 E.02554
G1 X125.988 Y105.729 E.1228
G1 X126.217 Y106.568 E.02318
G1 X126.386 Y107.782 E.03267
G1 X126.406 Y108.53 E.01994
G1 X125.994 Y113.423 E.13087
G1 X125.811 Y114.809 E.03726
G1 X125.633 Y115.521 E.01956
G1 X124.982 Y117.29 E.05024
G1 X124.581 Y118.059 E.02311
G1 X123.873 Y119.052 E.0325
G1 X122.837 Y120.255 E.04231
G1 X120.006 Y123.113 E.10721
G1 X118.511 Y124.215 E.0495
G1 X117.911 Y124.545 E.01825
G1 X115.444 Y125.591 E.07141
G1 X114.052 Y126.073 E.03926
G1 X113.114 Y126.248 E.02543
G1 X108.312 Y126.439 E.12808
G1 X107.507 Y126.373 E.02153
G1 X105.754 Y125.962 E.04799
G1 X102.376 Y124.623 E.09684
G1 X101.025 Y123.925 E.04053
G1 X100.253 Y123.358 E.02553
G1 X99.109 Y122.196 E.04346
G1 X97.788 Y120.512 E.05704
G1 X96.101 Y117.96 E.08153
G1 X95.183 Y116.306 E.05042
G1 X94.573 Y114.522 E.05025
G1 X94.214 Y113.173 E.0372
G1 X94.111 Y112.541 E.01707
G1 X93.774 Y107.42 E.13678
G1 X93.767 Y106.578 E.02244
G1 X93.889 Y105.506 E.02875
G1 X94.146 Y104.491 E.0279
G1 X94.763 Y103.107 E.04038
G1 X95.275 Y102.301 E.02545
G1 X98.134 Y98.542 E.12587
G1 X98.416 Y98.267 E.0105
; printing object Apollo-command-module-3.0.stl id:0 copy 0
;WIPE_START
G1 F7200
G1 X99.637 Y97.078 E-.40477
G1 X100.998 Y96.121 E-.39523
;WIPE_END
G1 X112.967 Y97.21 F9000
G1 E.8 F1800
;TYPE:Support material
G1 F1200
G1 X113.68 Y97.378 E.01952
G1 X114.474 Y97.846 E.02456
G1 X114.771 Y98.056 E.00969
G1 X115.28 Y98.074 E.01357
G1 X116.395 Y98.444 E.03131
G1 X116.82 Y98.715 E.01343
G1 X117.459 Y99.165 E.02083
G1 X117.831 Y99.622 E.0157
G1 X117.925 Y99.544 E.00326
G1 X119.392 Y101.283 E.06063
G1 X120.307 Y101.894 E.02932
G1 X121.096 Y102.838 E.03279
G1 X121.588 Y103.962 E.0327
G1 X121.74 Y105.141 E.03168
G1 X121.771 Y105.21 E.00202
G1 X122.37 Y105.913 E.02461
G1 X122.872 Y107.033 E.03271
G1 X123.041 Y108.247 E.03267
G1 X122.863 Y109.459 E.03265
G1 X122.397 Y110.477 E.02984
G1 X122.576 Y111.687 E.0326
G1 X122.516 Y112.113 E.01147
G1 X122.563 Y112.583 E.01259
G1 X122.55 Y112.614 E.0009
G1 X122.629 Y113.139 E.01415
G1 X122.464 Y114.355 E.0327
G1 X121.94 Y115.501 E.03358
G1 X121.813 Y116.124 E.01695
G1 X121.522 Y116.324 E.00941
G1 X121.269 Y116.902 E.01682
G1 X120.759 Y117.52 E.02135
G1 X120.438 Y117.878 E.01281
G1 X119.725 Y118.355 E.02286
G1 X119.34 Y118.876 E.01727
G1 X119.055 Y118.966 E.00797
G1 X118.585 Y119.294 E.01527
G1 X118.38 Y119.783 E.01413
G1 X117.607 Y120.736 E.0327
G1 X116.593 Y121.436 E.03284
G1 X115.416 Y121.822 E.03301
G1 X115.056 Y121.833 E.0096
G1 X114.126 Y122.482 E.03022
G1 X112.968 Y122.874 E.03258
G1 X111.742 Y122.927 E.0327
G1 X110.545 Y122.632 E.03286
G1 X110.422 Y122.561 E.00379
G1 X109.456 Y122.931 E.02757
G1 X108.182 Y123.064 E.03414
G1 X106.999 Y122.823 E.03218
G1 X105.845 Y122.223 E.03466
G1 X105.366 Y121.741 E.01811
G1 X104.907 Y121.774 E.01226
G1 X104.101 Y121.616 E.02189
G1 X103.62 Y121.483 E.0133
G1 X102.617 Y120.947 E.03031
G1 X101.766 Y120.113 E.03176
G1 X101.238 Y119.229 E.02744
G1 X101.217 Y119.16 E.00192
G1 X100.445 Y118.428 E.02835
G1 X99.858 Y117.462 E.03013
G1 X99.689 Y116.835 E.01731
G1 X98.926 Y116.109 E.02807
G1 X98.468 Y115.366 E.02326
G1 X98.251 Y114.895 E.01382
G1 X97.98 Y113.799 E.03009
G1 X97.781 Y113.466 E.01034
G1 X97.481 Y112.319 E.0316
G1 X97.485 Y111.241 E.02873
G1 X97.647 Y110.629 E.01687
G1 X97.351 Y109.728 E.02528
G1 X97.347 Y108.38 E.03593
G1 X97.371 Y108.3 E.00223
G1 X97.226 Y107.782 E.01434
G1 X97.144 Y107.198 E.01572
G1 X97.144 Y106.582 E.01642
G1 X97.23 Y105.996 E.01578
G1 X97.396 Y105.406 E.01633
G1 X97.646 Y104.865 E.01588
G1 X97.963 Y104.346 E.01621
G1 X98.357 Y103.894 E.01598
G1 X98.844 Y103.441 E.01773
G1 X99.254 Y103.203 E.01263
G1 X99.494 Y102.809 E.0123
G1 X99.836 Y102.417 E.01386
G1 X100.089 Y102.183 E.00918
G1 X100.209 Y101.664 E.0142
G1 X100.822 Y100.586 E.03305
G1 X101.631 Y99.804 E.02999
G1 X102.052 Y99.541 E.01323
G1 X102.414 Y99.358 E.01081
G1 X103.062 Y98.757 E.02355
G1 X104.093 Y98.232 E.03083
G1 X105.276 Y97.996 E.03215
G1 X106.22 Y98.075 E.02525
G1 X106.75 Y98.007 E.01424
G1 X107.119 Y98.014 E.00984
G1 X107.707 Y97.895 E.01599
G1 X107.857 Y97.886 E.004
G1 X108.412 Y97.611 E.01651
G1 X109.278 Y97.367 E.02398
G1 X110.184 Y97.324 E.02417
G1 X110.757 Y97.414 E.01546
G1 X111.063 Y97.256 E.00918
G1 X112.364 Y97.092 E.03495
G1 X112.911 Y97.199 E.01485
G1 X109.985 Y108.012 F9000
G1 F1200
G1 X110.274 Y108.031 E.00772
G1 X110.529 Y108.084 E.00694
G1 X110.747 Y108.158 E.00614
G1 X111.007 Y108.286 E.00772
G1 X111.198 Y108.414 E.00613
G1 X111.383 Y108.573 E.0065
G1 X111.573 Y108.603 E.00513
G1 X111.689 Y108.683 E.00376
G1 X111.791 Y108.859 E.00542
G1 X111.776 Y109.114 E.00681
G1 X111.916 Y109.471 E.01022
G1 X111.969 Y109.726 E.00694
G1 X111.988 Y110.015 E.00772
G1 X111.966 Y110.291 E.00738
G1 X112.019 Y110.532 E.00658
G1 X111.879 Y110.637 E.00466
G1 X111.729 Y110.981 E.01
G1 X111.568 Y111.222 E.00772
G1 X111.416 Y111.395 E.00614
G1 X111.222 Y111.568 E.00693
G1 X111.007 Y111.714 E.00693
G1 X110.775 Y111.831 E.00692
G1 X110.411 Y111.942 E.01014
G1 X110.18 Y112.045 E.00674
G1 X109.999 Y111.988 E.00506
G1 X109.756 Y111.973 E.00649
G1 X109.5 Y111.924 E.00695
G1 X109.227 Y111.832 E.00768
G1 X108.981 Y111.87 E.00663
G1 X108.872 Y111.828 E.00311
G1 X108.532 Y111.466 E.01324
G1 X108.35 Y111.364 E.00556
G1 X108.29 Y111.123 E.00662
G1 X108.253 Y111.082 E.00147
G1 X108.183 Y110.802 E.00769
G1 X108.084 Y110.529 E.00774
G1 X107.994 Y110.05 E.01299
G1 X108.076 Y109.5 E.01482
G1 X108.21 Y109.143 E.01016
G1 X108.164 Y108.962 E.00498
G1 X108.199 Y108.825 E.00377
G1 X108.3 Y108.715 E.00398
G1 X108.572 Y108.619 E.00769
G1 X108.802 Y108.414 E.00821
G1 X108.993 Y108.286 E.00613
G1 X109.225 Y108.169 E.00692
G1 X109.5 Y108.076 E.00774
G1 X109.726 Y108.031 E.00614
G1 X109.928 Y108.016 E.0054
;WIPE_START
G1 F7200
G1 X109.726 Y108.031 E-.04811
G1 X109.5 Y108.076 E-.05473
G1 X109.225 Y108.169 E-.06895
G1 X108.993 Y108.286 E-.06171
G1 X108.802 Y108.414 E-.05461
G1 X108.572 Y108.619 E-.07317
G1 X108.3 Y108.715 E-.06851
G1 X108.199 Y108.825 E-.03547
G1 X108.164 Y108.962 E-.03358
G1 X108.21 Y109.143 E-.04435
G1 X108.076 Y109.5 E-.09056
G1 X107.994 Y110.05 E-.13207
G1 X108.021 Y110.191 E-.03418
;WIPE_END
G1 X120.137 Y117.876 F9000
G1 E.8 F1800
G1 F1200
G1 X121.509 Y115.915 E.06378
G1 X121.625 Y115.349 E.0154
G1 X121.678 Y115.286 E.00219
G1 X122.134 Y114.261 E.0299
G1 X122.228 Y113.575 E.01845
G1 X117.374 Y120.484 E.22503
G1 X116.44 Y121.129 E.03025
G1 X115.891 Y121.309 E.0154
G1 X122.195 Y112.307 E.29289
G1 X122.175 Y112.106 E.00538
G1 X122.233 Y111.688 E.01125
G1 X122.141 Y111.068 E.0167
G1 X114.738 Y121.641 E.34399
G1 X113.971 Y122.176 E.02492
G1 X113.278 Y122.411 E.0195
G1 X122.566 Y109.147 E.43155
G1 X122.698 Y108.245 E.0243
G1 X122.628 Y107.743 E.01351
G1 X112.249 Y122.566 E.48226
G1 X111.776 Y122.586 E.01262
G1 X111.382 Y122.489 E.01081
G1 X122.385 Y106.775 E.51125
G1 X122.08 Y106.097 E.01981
G1 X122.003 Y106.006 E.00318
G1 X110.61 Y122.277 E.52938
G1 X110.452 Y122.186 E.00486
G1 X109.497 Y122.551 E.02725
G1 X121.498 Y105.413 E.5576
G1 X121.409 Y105.233 E.00535
G1 X121.299 Y104.381 E.0229
G1 X108.478 Y122.692 E.59574
G1 X108.198 Y122.721 E.0075
G1 X107.62 Y122.603 E.01572
G1 X121.008 Y103.483 E.62207
G1 X120.805 Y103.018 E.01352
G1 X120.591 Y102.763 E.00887
G1 X106.863 Y122.37 E.6379
G1 X106.188 Y122.019 E.02028
G1 X120.09 Y102.164 E.64597
G1 X119.466 Y101.74 E.02011
G1 X105.62 Y121.515 E.64337
G1 X105.497 Y121.392 E.00464
G1 X104.928 Y121.433 E.0152
G1 X104.777 Y121.403 E.0041
G1 X118.903 Y101.229 E.65636
G1 X118.4 Y100.633 E.02078
G1 X112.252 Y109.413 E.28566
G1 X112.12 Y109.044 E.01044
G1 X112.136 Y108.777 E.00713
G1 X111.973 Y108.496 E.00866
G1 X117.897 Y100.037 E.27523
G1 X117.883 Y100.02 E.00059
G1 X117.785 Y100.101 E.00339
G1 X117.325 Y99.538 E.01938
G1 X111.333 Y108.096 E.27843
G1 X111.141 Y107.971 E.00611
G1 X110.915 Y107.86 E.00671
G1 X110.645 Y107.765 E.00763
G1 X116.733 Y99.069 E.28291
G1 X116.248 Y98.753 E.01543
G1 X116.074 Y98.695 E.00489
G1 X109.779 Y107.686 E.29251
G1 X109.423 Y107.745 E.00962
G1 X109.085 Y107.86 E.00952
G1 X108.814 Y107.998 E.0081
G1 X108.604 Y108.138 E.00673
G1 X108.451 Y108.267 E.00533
G1 X115.327 Y98.447 E.31949
G1 X115.219 Y98.411 E.00303
G1 X114.658 Y98.391 E.01496
G1 X114.516 Y98.291 E.00463
G1 X100.644 Y118.102 E.64455
G1 X100.712 Y118.213 E.00347
G1 X101.178 Y118.655 E.01712
G1 X107.835 Y109.147 E.30933
G1 X107.745 Y109.423 E.00774
G1 X107.644 Y110.05 E.01693
G1 X107.748 Y110.587 E.01458
G1 X101.663 Y119.277 E.28273
G1 X102.035 Y119.901 E.01936
G1 X102.101 Y119.966 E.00247
G1 X108.033 Y111.494 E.27563
G1 X108.057 Y111.589 E.00261
G1 X108.32 Y111.737 E.00804
G1 X108.586 Y112.02 E.01035
G1 X102.647 Y120.501 E.27594
G1 X102.82 Y120.67 E.00645
G1 X103.278 Y120.915 E.01384
G1 X109.355 Y112.235 E.28239
G1 X109.67 Y112.304 E.00859
G1 X109.949 Y112.326 E.00746
G1 X110.16 Y112.401 E.00597
G1 X103.875 Y121.377 E.29203
G1 X100.11 Y117.55 F9000
G1 F1200
G1 X113.877 Y97.888 E.6397
G1 X113.552 Y97.696 E.01006
G1 X113.156 Y97.603 E.01084
G1 X99.887 Y116.555 E.61658
G1 X99.334 Y116.029 E.02034
G1 X112.353 Y97.436 E.60492
G1 X111.344 Y97.562 E.0271
G1 X98.872 Y115.374 E.57951
G1 X98.768 Y115.205 E.00529
G1 X98.573 Y114.782 E.01241
G1 X98.519 Y114.563 E.00601
G1 X110.333 Y97.691 E.54893
G1 X110.166 Y97.664 E.00451
G1 X109.405 Y97.701 E.02031
G1 X98.264 Y113.613 E.51769
G1 X98.097 Y113.334 E.00867
G1 X97.945 Y112.753 E.01601
G1 X108.214 Y98.088 E.47713
G1 X107.947 Y98.22 E.00794
G1 X107.752 Y98.233 E.00521
G1 X107.107 Y98.354 E.01749
G1 X97.823 Y111.613 E.43138
G1 X97.824 Y111.286 E.00871
G1 X98.001 Y110.619 E.01839
G1 X97.872 Y110.227 E.011
G1 X106.147 Y98.41 E.38448
G1 X105.274 Y98.342 E.02334
G1 X97.689 Y109.174 E.35243
G1 X97.687 Y108.428 E.01988
G1 X97.723 Y108.301 E.00352
G1 X97.625 Y107.95 E.00971
G1 X104.203 Y98.557 E.30562
G1 X103.258 Y99.038 E.02826
G1 X102.61 Y99.639 E.02355
G1 X102.477 Y99.706 E.00397
G1 X97.313 Y107.081 E.23995
;WIPE_START
G1 F7200
G1 X99.245 Y104.322 E-.8
;WIPE_END
G1 X110.059 Y109.551 F9000
G1 E.8 F1800
;TYPE:Perimeter
G1 F1200
G1 X110.23 Y109.602 E.00476
G1 X110.381 Y109.746 E.00556
G1 X110.449 Y109.911 E.00476
G1 X110.449 Y110.089 E.00474
G1 X110.381 Y110.254 E.00476
G1 X110.254 Y110.381 E.00479
G1 X110.117 Y110.438 E.00395
G1 X109.968 Y110.457 E.004
G1 X109.746 Y110.381 E.00625
G1 X109.641 Y110.276 E.00396
G1 X109.556 Y110.119 E.00476
G1 X109.551 Y109.911 E.00555
G1 X109.619 Y109.746 E.00476
G1 X109.724 Y109.641 E.00396
G1 X109.881 Y109.556 E.00476
G1 X109.999 Y109.551 E.00315
G1 X110.109 Y109.174 F9000
G1 F1200
G1 X110.338 Y109.235 E.00632
G1 X110.419 Y109.275 E.00241
G1 X110.494 Y109.325 E.0024
G1 X110.675 Y109.506 E.00682
G1 X110.813 Y109.802 E.0087
G1 X110.826 Y110.128 E.0087
G1 X110.714 Y110.435 E.00871
G1 X110.494 Y110.675 E.00868
G1 X110.216 Y110.805 E.00818
G1 X109.981 Y110.836 E.00632
G1 X109.891 Y110.83 E.0024
G1 X109.802 Y110.813 E.00241
G1 X109.565 Y110.714 E.00685
G1 X109.339 Y110.507 E.00817
G1 X109.22 Y110.302 E.00632
G1 X109.191 Y110.217 E.00239
G1 X109.174 Y110.128 E.00241
G1 X109.174 Y109.872 E.00682
G1 X109.286 Y109.565 E.00871
G1 X109.493 Y109.339 E.00817
G1 X109.698 Y109.22 E.00632
G1 X109.783 Y109.191 E.00239
G1 X110.049 Y109.174 E.0071
G1 X110.158 Y108.797 F9000
;TYPE:External perimeter
G1 F1200
G1 X110.471 Y108.88 E.00863
G1 X110.608 Y108.948 E.00408
G1 X110.734 Y109.032 E.00404
G1 X110.968 Y109.266 E.00882
G1 X111.049 Y109.387 E.00388
G1 X111.175 Y109.692 E.00879
G1 X111.203 Y109.835 E.00388
G1 X111.203 Y110.165 E.00879
G1 X111.175 Y110.308 E.00388
G1 X111.049 Y110.613 E.00879
G1 X110.968 Y110.734 E.00388
G1 X110.734 Y110.968 E.00882
G1 X110.613 Y111.048 E.00387
G1 X110.314 Y111.172 E.00863
G1 X109.993 Y111.215 E.00863
G1 X109.841 Y111.205 E.00406
G1 X109.692 Y111.175 E.00405
G1 X109.387 Y111.049 E.00879
G1 X109.266 Y110.968 E.00388
G1 X109.037 Y110.739 E.00863
G1 X108.875 Y110.458 E.00864
G1 X108.826 Y110.314 E.00405
G1 X108.797 Y110.165 E.00405
G1 X108.797 Y109.835 E.00879
G1 X108.825 Y109.692 E.00388
G1 X108.951 Y109.387 E.00879
G1 X109.032 Y109.266 E.00388
G1 X109.261 Y109.037 E.00863
G1 X109.542 Y108.875 E.00864
G1 X109.686 Y108.826 E.00405
G1 X109.835 Y108.797 E.00405
G1 X110.098 Y108.797 E.00701
G1 X110.276 Y109.099 F9000
G1 X109.869 Y109.7
;TYPE:Solid infill
;WIDTH:0.495415
G1 F1200
G1 X110.301 Y110.132 E.01954
; stop printing object Apollo-command-module-3.0.stl id:0 copy 0
M106 S255
;LAYER_CHANGE
;Z:0.4
;HEIGHT:0.2
;BEFORE_LAYER_CHANGE
G92 E0
;0.4


;WIPE_START
G1 F7200
G1 X109.869 Y109.7 E-.1451
;WIPE_END
G1 E-.6549 F1800
G1 Z.4 F9000
;AFTER_LAYER_CHANGE
;0.4
G1 X107.402 Y93.868
G1 E.8 F1800
;TYPE:Skirt/Brim
