; generated by PrusaSlicer 2.6.1+win64 on 2024-01-28 at 16:08:21 UTC

; 

; external perimeters extrusion width = 0.42mm
; perimeters extrusion width = 0.44mm
; infill extrusion width = 0.44mm
; solid infill extrusion width = 0.44mm
; top infill extrusion width = 0.40mm
; support material extrusion width = 0.36mm
; first layer extrusion width = 0.42mm

M201 X500 Y500 Z100 E5000 ; sets maximum accelerations, mm/sec^2
M203 X500 Y500 Z10 E60 ; sets maximum feedrates, mm / sec
M204 S500 T1000 ; sets acceleration (S) and retract acceleration (R), mm/sec^2
M205 X8.00 Y8.00 Z0.40 E5.00 ; sets the jerk limits, mm/sec
M205 S0 T0 ; sets the minimum extruding and travel feed rate, mm/sec
;TYPE:Custom
G90 ; use absolute coordinates
M83 ; extruder relative mode
M104 S150 ; set temporary nozzle temp to prevent oozing during homing
M140 S60 ; set final bed temp
G4 S30 ; allow partial nozzle warmup
G28 ; home all axis and restore leveling
G1 Z50 F240
G1 X2.0 Y10 F3000
M104 S215 ; set final nozzle temp
M190 S60 ; wait for bed temp to stabilize
M109 S215 ; wait for nozzle temp to stabilize
G1 Z0.28 F240
G92 E0
G1 X2.0 Y140 E10 F1500 ; prime the nozzle
G1 X2.3 Y140 F5000
G92 E0
G1 X2.3 Y10 E10 F1200 ; prime the nozzle
G92 E0
G21 ; set units to millimeters
G90 ; use absolute coordinates
M83 ; use relative distances for extrusion
; Filament gcode
M107
;LAYER_CHANGE
;Z:0.2
;HEIGHT:0.2
;BEFORE_LAYER_CHANGE
G92 E0
;0.2


G1 E-.8 F1800
G1 Z.2 F9000
;AFTER_LAYER_CHANGE
;0.2
G1 X90.04 Y102.596
G1 E.8 F1800
M204 S500
;TYPE:Skirt/Brim
;WIDTH:0.42
G1 F1200
G1 X91.693 Y101.426 E.05397
G1 X101.523 Y95.602 E.30451
G1 X103.282 Y94.636 E.05348
G1 X104.891 Y94.012 E.04599
G1 X117.023 Y90.255 E.33848
G1 X118.763 Y89.968 E.047
G1 X120.575 Y89.99 E.0483
G1 X121.241 Y90.08 E.01791
G1 X122.993 Y90.543 E.0483
G1 X124.635 Y91.31 E.0483
G1 X126.113 Y92.358 E.04829
G1 X127.38 Y93.653 E.04828
G1 X128.396 Y95.153 E.04828
G1 X129.128 Y96.811 E.0483
G1 X129.552 Y98.572 E.04827
G1 X129.67 Y100.076 E.04021
G1 X129.518 Y120.119 E.53418
G1 X129.4 Y121.566 E.03869
G1 X128.975 Y123.327 E.04828
G1 X128.244 Y124.985 E.04829
G1 X127.228 Y126.485 E.04828
G1 X125.96 Y127.78 E.0483
G1 X124.482 Y128.828 E.04829
G1 X123.89 Y129.147 E.01792
G1 X122.201 Y129.803 E.04829
G1 X121.089 Y130.058 E.03041
G1 X119.283 Y130.2 E.04828
G1 X118.611 Y130.17 E.01793
G1 X116.824 Y129.868 E.0483
G1 X104.888 Y125.988 E.33449
G1 X102.905 Y125.176 E.05711
G1 X91.527 Y118.484 E.3518
G1 X90.037 Y117.416 E.04886
G1 X88.771 Y116.088 E.0489
G1 X87.773 Y114.546 E.04895
G1 X87.332 Y113.565 E.02867
G1 X86.973 Y112.45 E.03122
G1 X86.684 Y110.638 E.0489
G1 X86.737 Y108.804 E.0489
G1 X87.145 Y106.96 E.05033
G1 X87.774 Y105.467 E.04318
G1 X88.773 Y103.924 E.04899
G1 X89.999 Y102.639 E.04733
G1 X90.271 Y102.9 F9000
G1 F1200
G1 X91.886 Y101.751 E.05282
G1 X101.716 Y95.926 E.30452
G1 X103.42 Y94.987 E.05185
G1 X105.002 Y94.373 E.04523
G1 X117.135 Y90.615 E.33851
G1 X118.813 Y90.342 E.04531
G1 X120.558 Y90.366 E.04651
G1 X121.157 Y90.448 E.01611
G1 X122.845 Y90.889 E.0465
G1 X124.427 Y91.625 E.0465
G1 X125.852 Y92.631 E.04649
G1 X127.075 Y93.875 E.04649
G1 X128.056 Y95.317 E.04648
G1 X128.764 Y96.911 E.04648
G1 X129.176 Y98.606 E.04649
G1 X129.293 Y100.073 E.03922
G1 X129.141 Y120.117 E.53421
G1 X129.024 Y121.532 E.03784
G1 X128.612 Y123.227 E.04649
G1 X127.904 Y124.821 E.04648
G1 X126.923 Y126.263 E.04648
G1 X125.7 Y127.507 E.04649
G1 X124.275 Y128.513 E.04649
G1 X123.742 Y128.8 E.01613
G1 X122.693 Y129.249 E.03041
G1 X121.005 Y129.69 E.0465
G1 X119.266 Y129.823 E.04648
G1 X118.661 Y129.796 E.01614
G1 X116.94 Y129.509 E.0465
G1 X105.004 Y125.63 E.33448
G1 X103.089 Y124.847 E.05514
G1 X91.736 Y118.17 E.35102
G1 X90.301 Y117.146 E.04698
G1 X89.08 Y115.872 E.04703
G1 X88.117 Y114.392 E.04706
G1 X87.676 Y113.41 E.02869
G1 X87.335 Y112.347 E.02975
G1 X87.059 Y110.603 E.04706
G1 X87.112 Y108.839 E.04703
G1 X87.508 Y107.064 E.04847
G1 X88.118 Y105.621 E.04175
G1 X89.082 Y104.14 E.0471
G1 X90.229 Y102.943 E.04418
; printing object Apollo-service-module-3.0.stl id:0 copy 0
;WIPE_START
G1 F7200
G1 X91.886 Y101.751 E-.48479
G1 X93.028 Y101.074 E-.31521
;WIPE_END
G1 X119.933 Y93.719 F9000
G1 E.8 F1800
;TYPE:Support material
G1 F1200
G1 X120.405 Y93.74 E.01259
G1 X121.517 Y93.994 E.0304
G1 X122.566 Y94.443 E.03041
G1 X123.518 Y95.072 E.03041
G1 X124.343 Y95.86 E.03041
G1 X125.014 Y96.783 E.03041
G1 X125.509 Y97.811 E.03041
G1 X125.813 Y98.911 E.03042
G1 X125.916 Y100.047 E.0304
G1 X125.814 Y101.184 E.03042
G1 X125.511 Y102.284 E.03041
G1 X125.017 Y103.313 E.03042
G1 X124.346 Y104.237 E.03043
G1 X123.521 Y105.026 E.03042
G1 X122.569 Y105.656 E.03042
G1 X122.162 Y105.83 E.0118
G1 X122.409 Y106.101 E.00977
G1 X122.806 Y107.679 E.04337
G1 X122.746 Y107.914 E.00646
G1 X123.044 Y109.098 E.03254
G1 X122.828 Y109.959 E.02366
G1 X123.001 Y110.623 E.01829
G1 X122.715 Y111.731 E.0305
G1 X122.798 Y112.041 E.00855
G1 X122.403 Y113.621 E.0434
G1 X122.307 Y113.729 E.00385
G1 X122.149 Y114.367 E.01752
G1 X122.417 Y114.482 E.00777
G1 X123.369 Y115.112 E.03042
G1 X124.194 Y115.901 E.03042
G1 X124.864 Y116.825 E.03042
G1 X125.359 Y117.854 E.03043
G1 X125.662 Y118.954 E.03041
G1 X125.764 Y120.091 E.03042
G1 X125.661 Y121.227 E.0304
G1 X125.357 Y122.327 E.03042
G1 X124.862 Y123.355 E.03041
G1 X124.191 Y124.278 E.03041
G1 X123.366 Y125.066 E.03041
G1 X122.414 Y125.695 E.03041
G1 X121.365 Y126.144 E.03041
G1 X120.253 Y126.398 E.0304
G1 X119.113 Y126.45 E.03041
G1 X117.982 Y126.297 E.03042
G1 X116.896 Y125.945 E.03043
G1 X115.891 Y125.405 E.03041
G1 X114.998 Y124.693 E.03044
G1 X114.246 Y123.834 E.03043
G1 X113.66 Y122.854 E.03043
G1 X113.514 Y122.466 E.01105
G1 X113.292 Y122.549 E.00632
G1 X112.889 Y122.492 E.01085
G1 X111.911 Y122.871 E.02795
G1 X111.074 Y122.764 E.02249
G1 X110.49 Y122.994 E.01673
G1 X109.184 Y122.835 E.03506
G1 X109.081 Y122.877 E.00296
G1 X107.395 Y122.699 E.04518
G1 X107.144 Y122.514 E.00831
G1 X106.048 Y122.418 E.02932
G1 X105.375 Y121.945 E.02192
G1 X104.735 Y121.898 E.0171
G1 X103.728 Y121.207 E.03255
G1 X103.467 Y121.19 E.00697
G1 X102.066 Y120.222 E.04538
G1 X101.963 Y120.022 E.006
G1 X100.975 Y119.358 E.03173
G1 X100.653 Y118.755 E.01822
G1 X99.993 Y118.319 E.02108
G1 X99.432 Y117.285 E.03135
G1 X99.157 Y117.101 E.00882
G1 X98.429 Y115.727 E.04144
G1 X98.011 Y115.88 E.01186
G1 X96.891 Y116.063 E.03025
G1 X95.757 Y116.035 E.03023
G1 X94.649 Y115.797 E.0302
G1 X93.604 Y115.356 E.03023
G1 X92.659 Y114.729 E.03022
G1 X91.848 Y113.937 E.03021
G1 X91.197 Y113.006 E.03028
G1 X90.756 Y112.025 E.02867
G1 X90.583 Y111.42 E.01677
G1 X90.475 Y110.865 E.01507
G1 X90.422 Y110.29 E.01539
G1 X90.421 Y109.727 E.015
G1 X90.475 Y109.151 E.01542
G1 X90.582 Y108.598 E.01501
G1 X90.755 Y107.99 E.01685
G1 X91.197 Y107.007 E.02872
G1 X91.849 Y106.076 E.03029
G1 X92.662 Y105.283 E.03027
G1 X93.607 Y104.656 E.03022
G1 X94.652 Y104.216 E.03022
G1 X95.761 Y103.978 E.03023
G1 X96.895 Y103.951 E.03023
G1 X98.015 Y104.135 E.03025
G1 X98.421 Y104.284 E.01153
G1 X99.138 Y102.93 E.04083
G1 X99.413 Y102.746 E.00882
G1 X99.942 Y101.739 E.03032
G1 X100.613 Y101.288 E.02155
G1 X100.918 Y100.696 E.01775
G1 X101.917 Y100.013 E.03225
G1 X102.013 Y99.816 E.00584
G1 X103.437 Y98.831 E.04615
G1 X103.69 Y98.815 E.00676
G1 X104.661 Y98.128 E.0317
G1 X105.321 Y98.074 E.01765
G1 X106.001 Y97.598 E.02212
G1 X107.109 Y97.5 E.02964
G1 X107.383 Y97.304 E.00898
G1 X108.944 Y97.139 E.04183
G1 X110.198 Y96.945 E.03382
G1 X110.975 Y97.154 E.02144
G1 X111.634 Y97.052 E.01777
G1 X112.387 Y97.254 E.02078
G1 X112.791 Y97.407 E.01151
G1 X113.039 Y97.369 E.00669
G1 X113.712 Y97.549 E.01857
G1 X113.812 Y97.284 E.00755
G1 X114.398 Y96.304 E.03043
G1 X115.15 Y95.445 E.03043
G1 X116.043 Y94.733 E.03044
G1 X117.048 Y94.193 E.03041
G1 X118.134 Y93.841 E.03043
G1 X119.265 Y93.688 E.03042
G1 X119.876 Y93.716 E.0163
G1 X109.994 Y100.538 F9000
G1 F1200
G1 X110.922 Y100.583 E.02476
G1 X111.84 Y100.719 E.02473
G1 X112.741 Y100.944 E.02475
G1 X113.616 Y101.256 E.02476
G1 X114.455 Y101.653 E.02474
G1 X115.252 Y102.13 E.02475
G1 X115.998 Y102.682 E.02473
G1 X116.686 Y103.306 E.02475
G1 X117.31 Y103.993 E.02473
G1 X117.864 Y104.739 E.02476
G1 X118.342 Y105.535 E.02475
G1 X118.739 Y106.374 E.02474
G1 X119.053 Y107.248 E.02475
G1 X119.279 Y108.149 E.02476
G1 X119.416 Y109.067 E.02474
G1 X119.462 Y109.994 E.02474
G1 X119.417 Y110.922 E.02476
G1 X119.281 Y111.84 E.02473
G1 X119.056 Y112.741 E.02475
G1 X118.744 Y113.616 E.02476
G1 X118.347 Y114.455 E.02474
G1 X117.87 Y115.252 E.02475
G1 X117.318 Y115.998 E.02473
G1 X116.694 Y116.686 E.02475
G1 X116.007 Y117.31 E.02473
G1 X115.261 Y117.864 E.02476
G1 X114.465 Y118.342 E.02475
G1 X113.626 Y118.739 E.02474
G1 X112.752 Y119.053 E.02475
G1 X111.851 Y119.279 E.02476
G1 X110.933 Y119.416 E.02474
G1 X110.006 Y119.462 E.02474
G1 X109.078 Y119.417 E.02476
G1 X108.16 Y119.281 E.02473
G1 X107.259 Y119.056 E.02475
G1 X106.384 Y118.744 E.02476
G1 X105.545 Y118.347 E.02474
G1 X104.748 Y117.87 E.02475
G1 X104.002 Y117.318 E.02473
G1 X103.314 Y116.694 E.02475
G1 X102.69 Y116.007 E.02473
G1 X102.136 Y115.261 E.02476
G1 X101.658 Y114.465 E.02475
G1 X101.261 Y113.626 E.02474
G1 X100.947 Y112.752 E.02475
G1 X100.721 Y111.851 E.02476
G1 X100.584 Y110.933 E.02474
G1 X100.538 Y110.006 E.02474
G1 X100.583 Y109.078 E.02476
G1 X100.719 Y108.16 E.02473
G1 X100.944 Y107.259 E.02475
G1 X101.256 Y106.384 E.02476
G1 X101.653 Y105.545 E.02474
G1 X102.13 Y104.748 E.02475
G1 X102.682 Y104.002 E.02473
G1 X103.306 Y103.314 E.02475
G1 X103.993 Y102.69 E.02473
G1 X104.739 Y102.136 E.02476
G1 X105.535 Y101.658 E.02475
G1 X106.374 Y101.261 E.02474
G1 X107.248 Y100.947 E.02475
G1 X108.149 Y100.721 E.02476
G1 X109.067 Y100.584 E.02474
G1 X109.938 Y100.54 E.02324
;WIPE_START
G1 F7200
G1 X109.067 Y100.584 E-.20713
G1 X108.149 Y100.721 E-.22044
G1 X107.248 Y100.947 E-.22062
G1 X106.646 Y101.163 E-.15181
;WIPE_END
G1 X122.046 Y125.668 F9000
G1 E.8 F1800
G1 F1200
G1 X125.345 Y120.957 E.15328
G1 X125.423 Y120.091 E.02317
G1 X125.378 Y119.593 E.01333
G1 X120.973 Y125.885 E.2047
G1 X120.207 Y126.06 E.02094
G1 X119.92 Y126.073 E.00766
G1 X125.196 Y118.54 E.24511
G1 X125.04 Y117.973 E.01567
G1 X124.89 Y117.662 E.0092
G1 X118.988 Y126.09 E.27422
G1 X118.147 Y125.977 E.02262
G1 X124.501 Y116.902 E.29525
G1 X124.032 Y116.256 E.02128
G1 X117.387 Y125.747 E.30878
G1 X117.03 Y125.632 E.01
G1 X116.679 Y125.443 E.01062
G1 X123.498 Y115.705 E.31683
G1 X123.157 Y115.378 E.01259
G1 X122.917 Y115.22 E.00766
G1 X116.018 Y125.072 E.32054
G1 X115.427 Y124.602 E.02012
G1 X122.288 Y114.804 E.31878
G1 X121.75 Y114.566 E.01568
G1 X121.869 Y114.087 E.01315
G1 X114.89 Y124.054 E.32428
G1 X114.522 Y123.634 E.01488
G1 X114.403 Y123.435 E.00618
G1 X122.429 Y111.973 E.37292
G1 X122.364 Y111.733 E.00663
G1 X122.651 Y110.623 E.03056
G1 X122.597 Y110.418 E.00565
G1 X113.978 Y122.726 E.40045
G1 X113.712 Y122.029 E.01988
G1 X113.487 Y122.113 E.0064
G1 X122.669 Y108.999 E.42666
G1 X122.426 Y108.032 E.02657
G1 X119.568 Y112.114 E.1328
G1 X119.696 Y111.428 E.0186
G1 X119.789 Y110.483 E.02531
G1 X122.27 Y106.94 E.11527
G1 X122.101 Y106.266 E.01852
G1 X121.943 Y106.093 E.00624
G1 X119.766 Y109.201 E.10113
G1 X119.696 Y108.572 E.01687
G1 X119.615 Y108.101 E.01274
G1 X125.539 Y99.642 E.27523
G1 X125.478 Y98.972 E.01793
G1 X125.367 Y98.572 E.01106
G1 X119.372 Y107.134 E.27856
G1 X119.061 Y106.264 E.02462
G1 X125.07 Y97.681 E.27923
G1 X124.688 Y96.912 E.02288
G1 X118.692 Y105.475 E.2786
G1 X118.276 Y104.755 E.02216
G1 X124.219 Y96.267 E.27615
G1 X124.087 Y96.084 E.00601
G1 X123.691 Y95.706 E.01459
G1 X117.819 Y104.093 E.27286
G1 X117.322 Y103.487 E.02089
G1 X123.116 Y95.213 E.2692
G1 X122.487 Y94.797 E.0201
G1 X116.789 Y102.934 E.26474
G1 X116.223 Y102.428 E.02023
G1 X121.788 Y94.479 E.25861
G1 X121.412 Y94.318 E.0109
G1 X121.04 Y94.233 E.01017
G1 X115.62 Y101.974 E.25185
G1 X114.987 Y101.564 E.0201
G1 X120.232 Y94.072 E.24374
G1 X119.34 Y94.032 E.0238
G1 X114.318 Y101.204 E.23334
G1 X113.615 Y100.893 E.02049
G1 X118.332 Y94.157 E.21916
G1 X118.21 Y94.173 E.00328
G1 X117.156 Y94.52 E.02957
G1 X112.877 Y100.631 E.19882
G1 X112.098 Y100.429 E.02145
G1 X115.798 Y95.145 E.17192
;WIPE_START
G1 F7200
G1 X113.866 Y97.904 E-.8
;WIPE_END
G1 X112.256 Y122.556 F9000
G1 E.8 F1800
G1 F1200
G1 X115.259 Y118.267 E.13954
G1 X114.611 Y118.648 E.02003
G1 X113.803 Y119.032 E.02384
G1 X111.4 Y122.464 E.11166
G1 X111.031 Y122.416 E.00992
G1 X110.445 Y122.647 E.01679
G1 X110.359 Y122.636 E.00231
G1 X112.59 Y119.45 E.10366
G1 X111.922 Y119.611 E.01831
G1 X111.505 Y119.683 E.01128
G1 X109.51 Y122.533 E.09272
G1 X109.138 Y122.488 E.00999
G1 X109.033 Y122.531 E.00302
G1 X108.622 Y122.487 E.01102
G1 X110.512 Y119.787 E.08784
G1 X109.589 Y119.791 E.0246
G1 X107.764 Y122.396 E.08477
G1 X107.522 Y122.371 E.00648
G1 X107.269 Y122.184 E.00838
G1 X107.009 Y122.161 E.00696
G1 X108.722 Y119.715 E.07959
G1 X107.902 Y119.571 E.02219
G1 X106.149 Y122.074 E.08144
G1 X105.532 Y121.641 E.02009
G1 X107.123 Y119.369 E.07392
G1 X106.385 Y119.107 E.02087
G1 X104.724 Y121.479 E.07717
G1 X104.102 Y121.053 E.02009
G1 X105.682 Y118.796 E.07343
G1 X105.013 Y118.436 E.02025
G1 X103.404 Y120.735 E.07479
G1 X102.784 Y120.306 E.02009
G1 X104.38 Y118.026 E.07417
G1 X103.777 Y117.572 E.02012
G1 X102.225 Y119.789 E.07212
G1 X101.599 Y119.368 E.02011
G1 X103.211 Y117.066 E.0749
G1 X102.678 Y116.513 E.02047
G1 X101.068 Y118.812 E.0748
G1 X100.912 Y118.519 E.00885
G1 X100.529 Y118.266 E.01223
G1 X102.181 Y115.907 E.07675
G1 X101.724 Y115.245 E.02144
G1 X100.027 Y117.669 E.07886
G1 X99.691 Y117.05 E.01877
G1 X99.588 Y116.981 E.0033
G1 X101.308 Y114.525 E.07991
G1 X100.939 Y113.736 E.02321
G1 X99.128 Y116.322 E.08414
G1 X98.732 Y115.574 E.02256
G1 X100.628 Y112.866 E.0881
G1 X100.495 Y112.391 E.01315
G1 X100.385 Y111.899 E.01344
G1 X97.815 Y115.568 E.11939
G1 X96.867 Y115.723 E.0256
G1 X96.787 Y115.721 E.00213
G1 X100.234 Y110.799 E.16015
G1 X100.199 Y110.01 E.02105
G1 X100.211 Y109.517 E.01314
G1 X95.882 Y115.699 E.20114
G1 X95.797 Y115.697 E.00227
G1 X95.072 Y115.541 E.01976
G1 X100.432 Y107.886 E.24905
G1 X100.624 Y107.146 E.02037
G1 X100.949 Y106.24 E.02565
G1 X101.361 Y105.371 E.02563
G1 X101.856 Y104.547 E.02562
G1 X102.43 Y103.775 E.02564
G1 X103.077 Y103.063 E.02564
G1 X103.79 Y102.417 E.02564
G1 X104.169 Y102.122 E.0128
G1 X104.741 Y101.733 E.01844
G1 X107.62 Y97.62 E.1338
G1 X108.615 Y97.515 E.02667
G1 X106.197 Y100.968 E.11235
G1 X106.707 Y100.769 E.01459
G1 X107.41 Y100.55 E.01962
G1 X109.633 Y97.376 E.10327
G1 X110.18 Y97.292 E.01475
G1 X110.544 Y97.389 E.01004
G1 X108.495 Y100.317 E.09524
G1 X109.03 Y100.247 E.01438
G1 X109.488 Y100.213 E.01224
G1 X111.44 Y97.425 E.0907
G1 X111.616 Y97.398 E.00475
G1 X112.259 Y97.571 E.01775
G1 X110.411 Y100.209 E.08584
G1 X111.278 Y100.285 E.0232
G1 X113.173 Y97.58 E.08802
G1 X122.296 Y105.589 F9000
G1 F1200
G1 X125.683 Y100.751 E.1574
;WIPE_START
G1 F7200
G1 X123.751 Y103.51 E-.8
;WIPE_END
G1 X94.226 Y115.434 F9000
G1 E.8 F1800
G1 F1200
G1 X106.508 Y97.894 E.57067
G1 X106.121 Y97.928 E.01035
G1 X105.44 Y98.405 E.02216
G1 X105.217 Y98.423 E.00596
G1 X93.632 Y114.968 E.53829
G1 X93.004 Y114.55 E.02011
G1 X103.788 Y99.149 E.50107
G1 X103.553 Y99.164 E.00628
G1 X102.279 Y100.045 E.04128
G1 X102.182 Y100.242 E.00585
G1 X102.028 Y100.348 E.00498
G1 X92.44 Y114.041 E.4455
G1 X92.108 Y113.716 E.01238
G1 X91.927 Y113.458 E.0084
G1 X98.164 Y104.551 E.28979
G1 X97.929 Y104.465 E.00667
G1 X97.369 Y104.373 E.01512
G1 X91.473 Y112.792 E.27393
G1 X91.113 Y111.992 E.02338
G1 X96.499 Y104.3 E.25026
G1 X95.801 Y104.317 E.01861
G1 X95.525 Y104.376 E.00752
G1 X90.856 Y111.044 E.21694
G1 X90.811 Y110.817 E.00617
G1 X90.761 Y110.274 E.01453
G1 X90.761 Y109.865 E.0109
G1 X94.377 Y104.7 E.16803
G1 X93.768 Y104.956 E.01761
G1 X92.834 Y105.589 E.03007
G1 X90.78 Y108.523 E.09545
;WIPE_START
G1 F7200
G1 X92.712 Y105.764 E-.8
;WIPE_END
G1 X114.408 Y116.597 F9000
G1 E.8 F1800
;TYPE:Perimeter
G1 F1200
G1 X113.74 Y116.997 E.02075
G1 X113.036 Y117.33 E.02076
G1 X112.303 Y117.593 E.02075
G1 X111.548 Y117.782 E.02074
G1 X110.778 Y117.896 E.02075
