; generated by PrusaSlicer 2.6.1+win64 on 2024-01-27 at 20:06:59 UTC

; 

; external perimeters extrusion width = 0.42mm
; perimeters extrusion width = 0.44mm
; infill extrusion width = 0.44mm
; solid infill extrusion width = 0.44mm
; top infill extrusion width = 0.40mm
; support material extrusion width = 0.36mm
; first layer extrusion width = 0.42mm

; external perimeters extrusion width = 0.42mm
; perimeters extrusion width = 0.44mm
; infill extrusion width = 0.44mm
; solid infill extrusion width = 0.44mm
; top infill extrusion width = 0.40mm
; support material extrusion width = 0.36mm
; first layer extrusion width = 0.42mm

M201 X500 Y500 Z100 E5000 ; sets maximum accelerations, mm/sec^2
M203 X500 Y500 Z10 E60 ; sets maximum feedrates, mm / sec
M204 S500 T1000 ; sets acceleration (S) and retract acceleration (R), mm/sec^2
M205 X8.00 Y8.00 Z0.40 E5.00 ; sets the jerk limits, mm/sec
M205 S0 T0 ; sets the minimum extruding and travel feed rate, mm/sec
;TYPE:Custom
G90 ; use absolute coordinates
M83 ; extruder relative mode
M104 S150 ; set temporary nozzle temp to prevent oozing during homing
M140 S60 ; set final bed temp
G4 S30 ; allow partial nozzle warmup
G28 ; home all axis and restore leveling
G1 Z50 F240
G1 X2.0 Y10 F3000
M104 S215 ; set final nozzle temp
M190 S60 ; wait for bed temp to stabilize
M109 S215 ; wait for nozzle temp to stabilize
G1 Z0.28 F240
G92 E0
G1 X2.0 Y140 E10 F1500 ; prime the nozzle
G1 X2.3 Y140 F5000
G92 E0
G1 X2.3 Y10 E10 F1200 ; prime the nozzle
G92 E0
G21 ; set units to millimeters
G90 ; use absolute coordinates
M83 ; use relative distances for extrusion
; Filament gcode
M107
;LAYER_CHANGE
;Z:0.2
;HEIGHT:0.2
;BEFORE_LAYER_CHANGE
G92 E0
;0.2


G1 E-.8 F1800
G1 Z.2 F9000
;AFTER_LAYER_CHANGE
;0.2
G1 X76.594 Y81.173
G1 E.8 F1800
M204 S500
;TYPE:Skirt/Brim
;WIDTH:0.42
G1 F1200
G1 X82.813 Y75.466 E.22496
G1 X84.011 Y74.565 E.03995
G1 X84.887 Y74.105 E.02637
G1 X86.415 Y73.595 E.04293
G1 X91.066 Y72.555 E.12702
G1 X92.473 Y72.419 E.03767
G1 X129.309 Y73.097 E.98189
G1 X130.723 Y73.23 E.03785
G1 X136.895 Y74.525 E.16807
G1 X137.818 Y74.908 E.02663
G1 X138.852 Y75.53 E.03216
G1 X139.577 Y76.115 E.02483
G1 X140.12 Y76.699 E.02125
G1 X146.221 Y83.928 E.2521
G1 X146.693 Y84.663 E.02328
G1 X147.21 Y85.759 E.0323
G1 X147.481 Y86.61 E.0238
G1 X148.744 Y93.736 E.19288
G1 X148.794 Y94.409 E.01799
G1 X147.852 Y130.065 E.95061
G1 X146.648 Y136.534 E.17537
G1 X146.399 Y137.305 E.02159
G1 X145.899 Y138.392 E.03189
G1 X145.373 Y139.203 E.02576
G1 X144.303 Y140.388 E.04255
G1 X138.212 Y145.85 E.21804
G1 X136.781 Y146.827 E.04618
G1 X135.905 Y147.23 E.0257
G1 X134.221 Y147.685 E.04649
G1 X129.265 Y148.329 E.13319
G1 X128.006 Y148.425 E.03365
G1 X92.206 Y148.358 E.95411
G1 X88.611 Y148.159 E.09596
G1 X85.383 Y147.574 E.08743
G1 X83.787 Y147.061 E.04468
G1 X82.764 Y146.584 E.03008
G1 X82.038 Y146.098 E.02328
G1 X74.152 Y139.137 E.28034
G1 X73.427 Y138.16 E.03242
G1 X73.009 Y137.312 E.0252
G1 X72.455 Y135.567 E.04879
G1 X72.326 Y134.664 E.02431
G1 X72.286 Y127.107 E.20141
G1 X73.035 Y91.86 E.93959
G1 X73.104 Y91.247 E.01644
G1 X74.387 Y85.05 E.16866
G1 X74.863 Y83.625 E.04004
G1 X75.249 Y82.865 E.02272
G1 X75.913 Y81.928 E.03061
G1 X76.554 Y81.218 E.02549
; printing object Apollo-sla-petal-3.0.stl id:2 copy 0
;WIPE_START
G1 F7200
G1 X79.034 Y78.939 E-.8
;WIPE_END
G1 X80.227 Y124.113 F9000
G1 E.8 F1800
;TYPE:Support material
G1 F1200
G1 X81.366 Y124.535 E.03237
G1 X82.376 Y125.39 E.03527
G1 X83.034 Y126.537 E.03524
G1 X83.26 Y127.828 E.03493
G1 X83.11 Y128.701 E.02361
G1 X83.495 Y129.372 E.02062
G1 X83.721 Y130.662 E.0349
G1 X83.577 Y131.502 E.02271
G1 X83.796 Y131.966 E.01367
G1 X84.723 Y131.903 E.02476
G1 X85.917 Y132.178 E.03265
G1 X86.976 Y132.789 E.03258
G1 X87.812 Y133.686 E.03268
G1 X88.341 Y134.779 E.03236
G1 X88.532 Y136.011 E.03323
G1 X88.475 Y136.391 E.01024
G1 X89.419 Y136.963 E.02942
G1 X89.707 Y137.282 E.01145
G1 X90.346 Y137.335 E.01709
G1 X91.111 Y137.618 E.02174
G1 X91.755 Y137.456 E.0177
G1 X92.364 Y137.4 E.0163
G1 X93.181 Y137.468 E.02185
G1 X94.318 Y137.889 E.03231
G1 X95.327 Y138.743 E.03523
G1 X95.986 Y139.889 E.03523
G1 X96.213 Y141.18 E.03493
G1 X96.098 Y141.868 E.01859
G1 X95.979 Y142.508 E.01735
G1 X95.328 Y143.641 E.03483
G1 X94.319 Y144.495 E.03523
G1 X93.181 Y144.917 E.03235
G1 X92.364 Y144.985 E.02185
G1 X91.756 Y144.929 E.01627
G1 X90.973 Y144.732 E.02152
G1 X90.785 Y144.622 E.00581
G1 X90.346 Y144.784 E.01247
G1 X89.529 Y144.852 E.02185
G1 X88.92 Y144.796 E.0163
G1 X88.139 Y144.599 E.02147
G1 X87.502 Y144.227 E.01966
G1 X87.216 Y144.302 E.00788
G1 X86 Y144.254 E.03243
G1 X84.892 Y143.87 E.03125
G1 X84.658 Y143.711 E.00754
G1 X84.264 Y143.558 E.01126
G1 X83.46 Y142.726 E.03084
G1 X83.101 Y142.211 E.01673
G1 X82.836 Y141.655 E.01642
G1 X82.639 Y140.968 E.01905
G1 X82.58 Y140.355 E.01641
G1 X82.616 Y139.683 E.01794
G1 X82.358 Y139.583 E.00737
G1 X81.389 Y138.825 E.03279
G1 X80.796 Y137.972 E.02769
G1 X80.603 Y138.022 E.00531
G1 X80.264 Y138.01 E.00904
G1 X79.825 Y138.131 E.01214
G1 X78.448 Y137.994 E.03688
G1 X77.266 Y137.424 E.03497
G1 X76.456 Y136.668 E.02953
G1 X76.039 Y135.82 E.02518
G1 X75.703 Y134.642 E.03265
G1 X76.01 Y133.072 E.04263
G1 X76.172 Y132.816 E.00807
G1 X76.298 Y132.409 E.01135
G1 X76.418 Y132.146 E.0077
G1 X76.124 Y131.336 E.02297
G1 X76.123 Y130.012 E.03529
G1 X76.188 Y129.833 E.00508
G1 X76.114 Y129.745 E.00306
G1 X75.663 Y128.502 E.03524
G1 X75.663 Y127.179 E.03526
G1 X76.112 Y125.935 E.03525
G1 X76.959 Y124.919 E.03525
G1 X78.018 Y124.3 E.03269
G1 X78.799 Y124.102 E.02147
G1 X79.407 Y124.046 E.01627
G1 X80.171 Y124.109 E.02043
G1 X83.782 Y137.501 F9000
G1 F1200
G1 X84.211 Y137.463 E.01148
G1 X85.4 Y138.652 E.04481
G1 X85.362 Y139.081 E.01148
G1 X85.055 Y139.3 E.01005
G1 X84.871 Y139.467 E.00662
G1 X84.524 Y139.913 E.01506
G1 X84.128 Y139.965 E.01064
G1 X83.942 Y139.811 E.00644
G1 X82.904 Y138.773 E.03912
G1 X82.939 Y138.347 E.01139
G1 X83.396 Y137.992 E.01542
G1 X83.563 Y137.808 E.00662
G1 X83.75 Y137.547 E.00856
;WIPE_START
G1 F7200
G1 X83.563 Y137.808 E-.07626
G1 X83.396 Y137.992 E-.05902
G1 X82.939 Y138.347 E-.13744
G1 X82.904 Y138.773 E-.10152
G1 X83.942 Y139.811 E-.34864
G1 X84.128 Y139.965 E-.05735
G1 X84.211 Y139.954 E-.01977
;WIPE_END
G1 X81.307 Y135.026 F9000
G1 E.8 F1800
G1 F1200
G1 X81.737 Y134.988 E.0115
G1 X82.925 Y136.177 E.0448
G1 X82.887 Y136.606 E.01148
G1 X82.581 Y136.825 E.01003
G1 X82.396 Y136.992 E.00664
G1 X82.042 Y137.449 E.01541
G1 X81.616 Y137.484 E.01139
G1 X80.429 Y136.298 E.04472
G1 X80.464 Y135.872 E.01139
G1 X80.921 Y135.518 E.01541
G1 X81.088 Y135.333 E.00664
G1 X81.275 Y135.072 E.00856
;WIPE_START
G1 F7200
G1 X81.088 Y135.333 E-.07626
G1 X80.921 Y135.518 E-.05919
G1 X80.464 Y135.872 E-.13729
G1 X80.429 Y136.298 E-.10152
G1 X81.616 Y137.484 E-.39852
G1 X81.73 Y137.475 E-.02722
;WIPE_END
G1 X93.567 Y144.593 F9000
G1 E.8 F1800
G1 F1200
G1 X95.841 Y141.346 E.10565
G1 X95.868 Y141.182 E.00443
G1 X95.701 Y140.23 E.02576
G1 X92.625 Y144.623 E.14293
G1 X92.365 Y144.644 E.00695
G1 X91.738 Y144.575 E.01681
G1 X95.335 Y139.438 E.16713
G1 X95.063 Y138.964 E.01456
G1 X94.864 Y138.796 E.00694
G1 X90.98 Y144.343 E.18047
G1 X90.817 Y144.248 E.00503
G1 X90.272 Y144.45 E.01549
G1 X89.967 Y144.475 E.00816
G1 X94.286 Y138.307 E.20068
G1 X94.145 Y138.187 E.00493
G1 X93.593 Y137.982 E.01569
G1 X89.052 Y144.468 E.21101
G1 X88.263 Y144.278 E.02163
G1 X92.815 Y137.778 E.21149
G1 X92.366 Y137.74 E.01201
G1 X91.89 Y137.784 E.01274
G1 X87.61 Y143.897 E.19888
G1 X87.552 Y143.864 E.00178
G1 X87.179 Y143.961 E.01027
G1 X86.659 Y143.94 E.01387
G1 X90.89 Y137.898 E.19658
G1 X90.272 Y137.669 E.01756
G1 X90.137 Y137.658 E.00361
G1 X85.815 Y143.83 E.20081
G1 X85.074 Y143.574 E.02089
G1 X89.379 Y137.425 E.20005
G1 X89.201 Y137.227 E.0071
G1 X88.777 Y136.971 E.0132
G1 X84.404 Y143.215 E.20316
G1 X83.871 Y142.663 E.02045
G1 X88.13 Y136.58 E.19791
G1 X88.106 Y136.565 E.00075
G1 X88.189 Y136.011 E.01493
G1 X88.087 Y135.327 E.01843
G1 X85.738 Y138.681 E.10913
G1 X85.752 Y138.524 E.0042
G1 X85.267 Y138.039 E.01828
G1 X87.795 Y134.429 E.11746
G1 X87.529 Y133.88 E.01626
G1 X87.375 Y133.714 E.00603
G1 X84.726 Y137.497 E.12308
G1 X84.339 Y137.111 E.01457
G1 X84.058 Y137.136 E.00752
G1 X86.849 Y133.15 E.12968
G1 X86.763 Y133.057 E.00338
G1 X86.215 Y132.741 E.01686
G1 X81.949 Y138.832 E.19819
G1 X82.548 Y139.293 E.02014
G1 X82.711 Y139.06 E.00758
G1 X83.252 Y139.601 E.02039
G1 X82.936 Y140.053 E.0147
G1 X82.921 Y140.347 E.00785
G1 X82.974 Y140.904 E.01491
G1 X83.057 Y141.195 E.00806
G1 X83.8 Y140.135 E.0345
G1 X84.027 Y140.321 E.00782
G1 X84.647 Y140.239 E.01667
G1 X83.287 Y142.181 E.06319
;WIPE_START
G1 F7200
G1 X84.647 Y140.239 E-.56308
G1 X84.027 Y140.321 E-.14853
G1 X83.8 Y140.135 E-.0697
G1 X83.755 Y140.199 E-.01869
;WIPE_END
G1 X81.316 Y138.422 F9000
G1 E.8 F1800
G1 F1200
G1 X81.742 Y137.814 E.01979
G1 X81.487 Y137.835 E.00682
G1 X81.087 Y137.435 E.01508
G1 X80.961 Y137.614 E.00583
G1 X80.94 Y137.584 E.00098
G1 X80.566 Y137.681 E.0103
G1 X80.224 Y137.669 E.00912
G1 X79.949 Y137.744 E.0076
G1 X80.545 Y136.894 E.02767
G1 X80.078 Y136.428 E.01758
G1 X80.095 Y136.222 E.00551
G1 X79.051 Y137.713 E.04851
G1 X78.542 Y137.662 E.01363
G1 X78.26 Y137.527 E.00833
G1 X83.314 Y130.309 E.23484
G1 X83.171 Y129.489 E.02218
G1 X83.08 Y129.329 E.00491
G1 X77.572 Y137.195 E.25592
G1 X77.46 Y137.14 E.00333
G1 X76.994 Y136.706 E.01697
G1 X82.824 Y128.38 E.27089
G1 X82.916 Y127.829 E.01489
G1 X82.79 Y127.113 E.01938
G1 X76.531 Y136.052 E.29083
G1 X76.357 Y135.697 E.01054
G1 X76.213 Y135.192 E.014
G1 X82.476 Y126.247 E.29102
G1 X82.111 Y125.61 E.01957
G1 X82.042 Y125.552 E.0024
G1 X76.193 Y133.905 E.27177
G1 X76.331 Y133.199 E.01917
G1 X76.483 Y132.959 E.00757
G1 X76.616 Y132.53 E.01197
G1 X76.785 Y132.161 E.01082
G1 X76.685 Y131.887 E.00777
G1 X81.464 Y125.063 E.22203
G1 X81.192 Y124.833 E.00949
G1 X80.805 Y124.689 E.011
G1 X76.463 Y130.89 E.20175
G1 X76.463 Y130.072 E.0218
G1 X76.574 Y129.765 E.0087
G1 X76.441 Y129.606 E.00552
G1 X80.059 Y124.44 E.16809
G1 X79.409 Y124.386 E.01738
G1 X79.159 Y124.41 E.00669
G1 X76.116 Y128.755 E.14137
G1 X76.003 Y128.442 E.00887
G1 X76.002 Y127.603 E.02236
G1 X78.23 Y124.422 E.1035
G1 X83.002 Y136.014 F9000
G1 F1200
G1 X85.51 Y132.432 E.11654
G1 X84.718 Y132.249 E.02166
G1 X82.56 Y135.331 E.10027
G1 X82.018 Y134.79 E.02041
G1 X83.755 Y132.309 E.08072
G1 X83.588 Y132.321 E.00446
G1 X83.281 Y131.671 E.01916
G1 X80.508 Y135.631 E.12884
;WIPE_START
G1 F7200
G1 X82.44 Y132.872 E-.8
;WIPE_END
G1 X83.866 Y138.474 F9000
G1 E.8 F1800
;TYPE:External perimeter
G1 F1200
G1 X84.051 Y138.253 E.00768
G1 X84.61 Y138.812 E.02107
G1 X84.389 Y138.997 E.00768
G1 X84.249 Y139.168 E.00589
G1 X83.695 Y138.614 E.02088
G1 X83.82 Y138.512 E.0043
G1 X84.147 Y138.409 F9000
G1 X83.978 Y138.63
;TYPE:Gap fill
;WIDTH:0.109247
G1 F1200
G1 X84.025 Y138.63 E.00022
;WIDTH:0.172731
G1 X84.068 Y138.628 E.00039
G1 X84.235 Y138.795 E.00217
G1 X84.234 Y138.817 E.0002
;WIDTH:0.109213
G1 X84.233 Y138.885 E.00032
;WIPE_START
G1 F7200
G1 X84.233 Y138.838 E-.01116
G1 X84.234 Y138.817 E-.00499
G1 X84.235 Y138.795 E-.00523
G1 X84.068 Y138.628 E-.05609
G1 X84.046 Y138.629 E-.00523
G1 X84.025 Y138.63 E-.00499
G1 X83.978 Y138.63 E-.01116
;WIPE_END
G1 E-.70115 F1800
G1 X81.391 Y135.999 F9000
G1 E.8 F1800
;TYPE:External perimeter
;WIDTH:0.42
G1 F1200
G1 X81.576 Y135.778 E.00768
G1 X82.135 Y136.337 E.02107
G1 X81.914 Y136.522 E.00768
G1 X81.775 Y136.693 E.00587
G1 X81.22 Y136.139 E.0209
G1 X81.345 Y136.037 E.0043
G1 X81.672 Y135.934 F9000
G1 X81.503 Y136.155
;TYPE:Gap fill
;WIDTH:0.109213
G1 F1200
G1 X81.55 Y136.155 E.00022
;WIDTH:0.172732
G1 X81.593 Y136.153 E.00039
G1 X81.76 Y136.32 E.00217
G1 X81.759 Y136.342 E.0002
;WIDTH:0.109255
G1 X81.758 Y136.41 E.00032
; stop printing object Apollo-sla-petal-3.0.stl id:2 copy 0
; printing object Apollo-sla-petal-3.0.stl id:1 copy 0
;WIPE_START
G1 F7200
G1 X81.758 Y136.363 E-.01116
G1 X81.759 Y136.342 E-.00499
G1 X81.76 Y136.32 E-.00523
G1 X81.593 Y136.153 E-.05609
G1 X81.571 Y136.154 E-.00523
G1 X81.55 Y136.155 E-.00499
G1 X81.503 Y136.155 E-.01116
;WIPE_END
G1 E-.70115 F1800
G1 X141.082 Y125.304 F9000
G1 E.8 F1800
;TYPE:Support material
;WIDTH:0.42
G1 F1200
G1 X141.851 Y125.495 E.02112
G1 X142.509 Y125.795 E.01927
G1 X143.23 Y126.322 E.0238
G1 X144.172 Y127.487 E.03993
G1 X144.353 Y128.653 E.03145
G1 X144.347 Y128.72 E.00179
G1 X144.477 Y129.975 E.03363
G1 X143.882 Y131.284 E.03832
G1 X143.261 Y132.054 E.02636
G1 X143.324 Y132.416 E.00979
G1 X143.184 Y133.197 E.02115
G1 X143.318 Y133.473 E.00818
G1 X143.501 Y134.658 E.03196
G1 X143.332 Y135.892 E.03319
G1 X142.832 Y136.979 E.03189
G1 X142.048 Y137.874 E.03171
G1 X141.083 Y138.489 E.0305
G1 X140.401 Y138.706 E.01907
G1 X139.882 Y138.832 E.01423
G1 X138.351 Y138.851 E.04081
G1 X137.81 Y139.425 E.02102
G1 X137.34 Y139.695 E.01445
G1 X137.405 Y140.133 E.0118
G1 X137.239 Y141.324 E.03205
G1 X136.743 Y142.422 E.03211
G1 X135.957 Y143.336 E.03213
G1 X134.944 Y143.993 E.03218
G1 X133.786 Y144.336 E.03219
G1 X132.577 Y144.339 E.03222
G1 X132.058 Y144.187 E.01441
G1 X131.63 Y144.346 E.01217
G1 X130.811 Y144.414 E.0219
G1 X130.204 Y144.358 E.01625
G1 X129.968 Y144.559 E.00826
G1 X128.83 Y144.98 E.03234
G1 X128.012 Y145.048 E.02188
G1 X127.404 Y144.992 E.01627
G1 X126.622 Y144.795 E.02149
G1 X125.563 Y144.177 E.03268
G1 X124.715 Y143.161 E.03527
G1 X124.265 Y141.917 E.03526
G1 X124.265 Y140.594 E.03526
G1 X124.715 Y139.35 E.03526
G1 X125.563 Y138.334 E.03527
G1 X126.622 Y137.716 E.03268
G1 X127.404 Y137.519 E.02149
G1 X128.012 Y137.463 E.01627
G1 X128.674 Y137.518 E.0177
G1 X129.422 Y137.082 E.02307
G1 X130.203 Y136.885 E.02147
G1 X130.552 Y136.853 E.00934
G1 X131.172 Y136.457 E.01961
G1 X131.176 Y135.567 E.02372
G1 X131.54 Y134.401 E.03255
G1 X132.244 Y133.379 E.03307
G1 X133.195 Y132.624 E.03236
G1 X134.335 Y132.178 E.03262
G1 X135.723 Y132.072 E.0371
G1 X135.723 Y131.755 E.00845
G1 X136.169 Y130.511 E.03522
G1 X136.746 Y129.816 E.02407
G1 X136.74 Y129.622 E.00517
G1 X136.522 Y128.674 E.02592
G1 X136.98 Y127.522 E.03304
G1 X137.349 Y126.88 E.01973
G1 X138.083 Y126.08 E.02894
G1 X139.073 Y125.538 E.03008
G1 X140.125 Y125.278 E.02888
G1 X141.026 Y125.302 E.02402
G1 X134.311 Y138.873 F9000
G1 F1200
G1 X135.499 Y137.684 E.0448
G1 X135.929 Y137.722 E.0115
G1 X136.148 Y138.029 E.01005
G1 X136.314 Y138.214 E.00662
G1 X136.771 Y138.568 E.01541
G1 X136.806 Y138.994 E.01139
G1 X135.621 Y140.181 E.0447
G1 X135.195 Y140.146 E.01139
G1 X134.84 Y139.688 E.01544
G1 X134.655 Y139.522 E.00662
G1 X134.348 Y139.302 E.01007
G1 X134.316 Y138.929 E.00998
G1 X137.511 Y135.672 F9000
G1 F1200
G1 X137.974 Y135.21 E.01743
G1 X138.404 Y135.247 E.0115
G1 X138.623 Y135.554 E.01005
G1 X138.789 Y135.739 E.00662
G1 X139.235 Y136.085 E.01504
G1 X139.287 Y136.481 E.01064
G1 X139.133 Y136.668 E.00646
G1 X138.096 Y137.706 E.0391
G1 X137.669 Y137.671 E.01142
G1 X137.315 Y137.213 E.01543
G1 X137.13 Y137.047 E.00662
G1 X136.823 Y136.828 E.01005
G1 X136.785 Y136.398 E.0115
G1 X137.471 Y135.712 E.02586
;WIPE_START
G1 F7200
G1 X136.785 Y136.398 E-.23041
G1 X136.823 Y136.828 E-.10252
G1 X137.13 Y137.047 E-.08956
G1 X137.315 Y137.213 E-.05903
G1 X137.669 Y137.671 E-.13748
G1 X138.096 Y137.706 E-.10175
G1 X138.332 Y137.47 E-.07925
;WIPE_END
G1 X141.592 Y137.963 F9000
G1 E.8 F1800
G1 F1200
G1 X142.797 Y136.242 E.05599
G1 X143.003 Y135.795 E.01312
G1 X143.159 Y134.663 E.03045
G1 X143.127 Y134.457 E.00556
G1 X140.401 Y138.35 E.12666
G1 X139.839 Y138.494 E.01546
G1 X139.375 Y138.499 E.01237
G1 X142.922 Y133.434 E.1648
G1 X142.831 Y133.246 E.00557
G1 X142.979 Y132.415 E.0225
G1 X142.927 Y132.113 E.00817
G1 X138.447 Y138.51 E.20814
G1 X138.202 Y138.513 E.00653
G1 X137.598 Y139.156 E.02351
G1 X136.971 Y139.516 E.01927
G1 X137.062 Y140.134 E.01665
G1 X137 Y140.576 E.0119
G1 X134.847 Y143.651 E.10004
G1 X134.801 Y143.681 E.00146
G1 X133.736 Y143.997 E.02961
G1 X133.684 Y143.997 E.00139
G1 X137.864 Y138.027 E.19423
G1 X137.485 Y137.997 E.01013
G1 X137.222 Y137.63 E.01203
G1 X136.829 Y138.191 E.01825
G1 X136.6 Y138.016 E.00768
G1 X136.414 Y137.818 E.00724
