; generated by PrusaSlicer 2.6.1+win64 on 2024-01-28 at 15:47:18 UTC

; 

; external perimeters extrusion width = 0.42mm
; perimeters extrusion width = 0.44mm
; infill extrusion width = 0.44mm
; solid infill extrusion width = 0.44mm
; top infill extrusion width = 0.40mm
; support material extrusion width = 0.36mm
; first layer extrusion width = 0.42mm

M201 X500 Y500 Z100 E5000 ; sets maximum accelerations, mm/sec^2
M203 X500 Y500 Z10 E60 ; sets maximum feedrates, mm / sec
M204 S500 T1000 ; sets acceleration (S) and retract acceleration (R), mm/sec^2
M205 X8.00 Y8.00 Z0.40 E5.00 ; sets the jerk limits, mm/sec
M205 S0 T0 ; sets the minimum extruding and travel feed rate, mm/sec
;TYPE:Custom
G90 ; use absolute coordinates
M83 ; extruder relative mode
M104 S150 ; set temporary nozzle temp to prevent oozing during homing
M140 S60 ; set final bed temp
G4 S30 ; allow partial nozzle warmup
G28 ; home all axis and restore leveling
G1 Z50 F240
G1 X2.0 Y10 F3000
M104 S215 ; set final nozzle temp
M190 S60 ; wait for bed temp to stabilize
M109 S215 ; wait for nozzle temp to stabilize
G1 Z0.28 F240
G92 E0
G1 X2.0 Y140 E10 F1500 ; prime the nozzle
G1 X2.3 Y140 F5000
G92 E0
G1 X2.3 Y10 E10 F1200 ; prime the nozzle
G92 E0
G21 ; set units to millimeters
G90 ; use absolute coordinates
M83 ; use relative distances for extrusion
; Filament gcode
M107
;LAYER_CHANGE
;Z:0.2
;HEIGHT:0.2
;BEFORE_LAYER_CHANGE
G92 E0
;0.2


G1 E-.8 F1800
G1 Z.2 F9000
;AFTER_LAYER_CHANGE
;0.2
G1 X100.956 Y105.401
G1 E.8 F1800
M204 S500
;TYPE:Skirt/Brim
;WIDTH:0.42
G1 F900
G1 X101.911 Y104.713 E.03137
G1 X103.376 Y104.096 E.04237
G1 X104.568 Y103.891 E.03223
G1 X115.405 Y103.889 E.28882
G1 X116.953 Y104.195 E.04205
G1 X118.038 Y104.683 E.03171
G1 X118.732 Y105.144 E.0222
G1 X119.854 Y106.265 E.04227
G1 X120.486 Y107.277 E.0318
G1 X120.909 Y108.391 E.03176
G1 X121.109 Y109.572 E.03192
G1 X121.111 Y110.405 E.0222
G1 X120.802 Y111.961 E.04228
G1 X120.316 Y113.041 E.03156
G1 X119.623 Y114.017 E.0319
G1 X119.035 Y114.608 E.02222
G1 X118.059 Y115.306 E.03198
G1 X116.965 Y115.801 E.032
G1 X115.409 Y116.111 E.04228
G1 X105 Y116.131 E.27741
G1 X104.217 Y116.074 E.02092
G1 X103.062 Y115.809 E.03158
G1 X102.298 Y115.496 E.022
G1 X101.278 Y114.863 E.03199
G1 X100.4 Y114.044 E.032
G1 X99.694 Y113.059 E.0323
G1 X99.211 Y111.997 E.03109
G1 X98.927 Y110.795 E.03292
G1 X98.889 Y109.595 E.032
G1 X99.085 Y108.411 E.03198
G1 X99.504 Y107.298 E.0317
G1 X100.123 Y106.297 E.03137
G1 X100.915 Y105.445 E.031
G1 X101.19 Y105.698 F9000
G1 F900
G1 X102.091 Y105.044 E.02967
G1 X103.488 Y104.456 E.0404
G1 X104.607 Y104.266 E.03025
G1 X115.368 Y104.264 E.28679
G1 X116.844 Y104.556 E.0401
G1 X117.862 Y105.016 E.02977
G1 X118.493 Y105.435 E.02019
G1 X119.562 Y106.504 E.04029
G1 X120.153 Y107.455 E.02984
G1 X120.548 Y108.502 E.02982
G1 X120.734 Y109.611 E.02997
G1 X120.736 Y110.368 E.02017
G1 X120.441 Y111.851 E.0403
G1 X119.983 Y112.864 E.02963
G1 X119.33 Y113.779 E.02996
G1 X118.796 Y114.316 E.02018
G1 X117.881 Y114.974 E.03004
G1 X116.855 Y115.44 E.03003
G1 X115.372 Y115.736 E.0403
G1 X105 Y115.754 E.27643
G1 X104.254 Y115.699 E.01994
G1 X103.169 Y115.448 E.02968
G1 X102.475 Y115.163 E.01999
G1 X101.516 Y114.571 E.03004
G1 X100.691 Y113.804 E.03002
G1 X100.026 Y112.881 E.03032
G1 X99.572 Y111.886 E.02915
G1 X99.302 Y110.758 E.03091
G1 X99.264 Y109.632 E.03003
G1 X99.446 Y108.52 E.03003
G1 X99.837 Y107.475 E.02974
G1 X100.416 Y106.534 E.02945
G1 X101.149 Y105.742 E.02876
G1 X101.42 Y106.031 F9000
G1 F900
G1 X101.732 Y105.738 E.01141
G1 X102.615 Y105.189 E.02771
G1 X103.599 Y104.816 E.02805
G1 X104.996 Y104.623 E.03759
G1 X115.331 Y104.639 E.27544
G1 X116.37 Y104.807 E.02805
G1 X117.329 Y105.162 E.02725
G1 X118.557 Y105.975 E.03925
G1 X119.025 Y106.443 E.01764
G1 X119.636 Y107.288 E.02779
G1 X120.076 Y108.244 E.02805
G1 X120.317 Y109.248 E.02752
G1 X120.322 Y110.721 E.03926
G1 X120.193 Y111.37 E.01763
G1 X119.83 Y112.348 E.0278
G1 X119.291 Y113.228 E.0275
G1 X118.557 Y114.025 E.02888
G1 X117.357 Y114.826 E.03845
G1 X116.37 Y115.193 E.02806
G1 X115.004 Y115.377 E.03673
G1 X105 Y115.377 E.26662
G1 X104.291 Y115.324 E.01895
G1 X103.277 Y115.086 E.02776
G1 X102.652 Y114.83 E.018
G1 X101.755 Y114.279 E.02806
G1 X100.982 Y113.564 E.02806
G1 X100.179 Y112.368 E.03839
G1 X99.812 Y111.389 E.02786
G1 X99.639 Y110.331 E.02857
G1 X99.678 Y109.279 E.02806
G1 X99.919 Y108.258 E.02796
G1 X100.35 Y107.313 E.02768
G1 X100.961 Y106.461 E.02794
G1 X101.376 Y106.072 E.01516
; printing object boosterconnectortest.stl id:0 copy 0
;WIPE_START
G1 F7200
G1 X101.732 Y105.738 E-.11594
G1 X102.615 Y105.189 E-.24694
G1 X103.599 Y104.816 E-.24993
G1 X104.38 Y104.708 E-.18719
;WIPE_END
G1 X115.356 Y109.14 F9000
G1 E.8 F1800
;TYPE:Perimeter
G1 F900
G1 X115.517 Y109.226 E.00486
G1 X115.658 Y109.342 E.00487
G1 X115.774 Y109.483 E.00487
G1 X115.86 Y109.644 E.00486
G1 X115.913 Y109.818 E.00485
G1 X115.931 Y110 E.00487
G1 X115.913 Y110.182 E.00487
G1 X115.86 Y110.356 E.00485
G1 X115.774 Y110.517 E.00486
G1 X115.658 Y110.658 E.00487
G1 X115.517 Y110.774 E.00487
G1 X115.356 Y110.86 E.00486
G1 X115.182 Y110.913 E.00485
G1 X115 Y110.931 E.00487
G1 X114.818 Y110.913 E.00487
G1 X114.644 Y110.86 E.00485
G1 X114.483 Y110.774 E.00486
G1 X114.342 Y110.658 E.00487
G1 X114.226 Y110.517 E.00487
G1 X114.14 Y110.356 E.00486
G1 X114.087 Y110.182 E.00485
G1 X114.069 Y110 E.00487
G1 X114.087 Y109.818 E.00487
G1 X114.14 Y109.644 E.00485
G1 X114.226 Y109.483 E.00486
G1 X114.342 Y109.342 E.00487
G1 X114.483 Y109.226 E.00487
G1 X114.644 Y109.14 E.00486
G1 X114.818 Y109.087 E.00485
G1 X115 Y109.069 E.00487
G1 X115.182 Y109.087 E.00487
G1 X115.299 Y109.123 E.00326
G1 X115.501 Y108.79 F9000
G1 F900
G1 X115.728 Y108.911 E.00686
G1 X115.926 Y109.074 E.00684
G1 X116.089 Y109.272 E.00684
G1 X116.21 Y109.499 E.00686
G1 X116.284 Y109.745 E.00685
G1 X116.31 Y110 E.00683
G1 X116.284 Y110.255 E.00683
G1 X116.21 Y110.501 E.00685
G1 X116.089 Y110.728 E.00686
G1 X115.926 Y110.926 E.00684
G1 X115.728 Y111.089 E.00684
G1 X115.501 Y111.21 E.00686
G1 X115.255 Y111.284 E.00685
G1 X115 Y111.31 E.00683
G1 X114.745 Y111.284 E.00683
G1 X114.499 Y111.21 E.00685
G1 X114.272 Y111.089 E.00686
G1 X114.074 Y110.926 E.00684
G1 X113.911 Y110.728 E.00684
G1 X113.79 Y110.501 E.00686
G1 X113.716 Y110.255 E.00685
G1 X113.69 Y110 E.00683
G1 X113.716 Y109.745 E.00683
G1 X113.79 Y109.499 E.00685
G1 X113.911 Y109.272 E.00686
G1 X114.074 Y109.074 E.00684
G1 X114.272 Y108.911 E.00684
G1 X114.499 Y108.79 E.00686
G1 X114.745 Y108.716 E.00685
G1 X115 Y108.69 E.00683
G1 X115.255 Y108.716 E.00683
G1 X115.444 Y108.773 E.00526
G1 X115.646 Y108.44 F9000
;TYPE:External perimeter
G1 F900
G1 X115.938 Y108.596 E.00882
G1 X116.194 Y108.806 E.00882
G1 X116.404 Y109.062 E.00882
G1 X116.56 Y109.354 E.00882
G1 X116.656 Y109.671 E.00883
G1 X116.689 Y110 E.00881
G1 X116.656 Y110.329 E.00881
G1 X116.56 Y110.646 E.00883
G1 X116.404 Y110.938 E.00882
G1 X116.194 Y111.194 E.00882
G1 X115.938 Y111.404 E.00882
G1 X115.646 Y111.56 E.00882
G1 X115.329 Y111.656 E.00883
G1 X115 Y111.689 E.00881
G1 X114.671 Y111.656 E.00881
G1 X114.354 Y111.56 E.00883
G1 X114.062 Y111.404 E.00882
G1 X113.806 Y111.194 E.00882
G1 X113.596 Y110.938 E.00882
G1 X113.44 Y110.646 E.00882
G1 X113.344 Y110.329 E.00883
G1 X113.311 Y110 E.00881
G1 X113.344 Y109.671 E.00881
G1 X113.44 Y109.354 E.00883
G1 X113.596 Y109.062 E.00882
G1 X113.806 Y108.806 E.00882
G1 X114.062 Y108.596 E.00882
G1 X114.354 Y108.44 E.00882
G1 X114.671 Y108.344 E.00883
G1 X115 Y108.311 E.00881
G1 X115.329 Y108.344 E.00881
G1 X115.589 Y108.423 E.00724
G1 X115.689 Y108.768 F9000
G1 X115.077 Y109.198
;TYPE:Solid infill
;WIDTH:0.457119
G1 F900
G1 X115.54 Y109.661 E.01917
G1 X115.59 Y109.755 E.00312
G1 X115.639 Y110 E.00731
G1 X115.627 Y110.125 E.00368
G1 X115.572 Y110.279 E.00479
G1 X114.721 Y109.428 E.03523
G1 X114.548 Y109.548 E.00616
G1 X114.428 Y109.721 E.00616
G1 X115.279 Y110.572 E.03523
G1 X115.125 Y110.627 E.00479
G1 X115 Y110.639 E.00368
G1 X114.755 Y110.59 E.00731
G1 X114.661 Y110.54 E.00312
G1 X114.198 Y110.077 E.01917
;WIPE_START
G1 F7200
G1 X114.661 Y110.54 E-.15551
G1 X114.755 Y110.59 E-.02529
G1 X115 Y110.639 E-.05934
G1 X115.125 Y110.627 E-.02982
G1 X115.279 Y110.572 E-.03884
G1 X114.428 Y109.721 E-.28583
G1 X114.548 Y109.548 E-.05
G1 X114.721 Y109.428 E-.05
G1 X115.035 Y109.742 E-.10537
;WIPE_END
G1 X105.913 Y110.182 F9000
G1 E.8 F1800
;TYPE:Perimeter
;WIDTH:0.42
G1 F900
G1 X105.86 Y110.356 E.00485
G1 X105.774 Y110.517 E.00486
G1 X105.658 Y110.658 E.00487
G1 X105.517 Y110.774 E.00487
G1 X105.356 Y110.86 E.00486
G1 X105.182 Y110.913 E.00485
G1 X105 Y110.931 E.00487
G1 X104.818 Y110.913 E.00487
G1 X104.644 Y110.86 E.00485
G1 X104.483 Y110.774 E.00486
G1 X104.342 Y110.658 E.00487
G1 X104.226 Y110.517 E.00487
G1 X104.14 Y110.356 E.00486
G1 X104.087 Y110.182 E.00485
G1 X104.069 Y110 E.00487
G1 X104.087 Y109.818 E.00487
G1 X104.14 Y109.644 E.00485
G1 X104.226 Y109.483 E.00486
G1 X104.342 Y109.342 E.00487
G1 X104.483 Y109.226 E.00487
G1 X104.644 Y109.14 E.00486
G1 X104.818 Y109.087 E.00485
G1 X105 Y109.069 E.00487
G1 X105.182 Y109.087 E.00487
G1 X105.356 Y109.14 E.00485
G1 X105.517 Y109.226 E.00486
G1 X105.658 Y109.342 E.00487
G1 X105.774 Y109.483 E.00487
G1 X105.86 Y109.644 E.00486
G1 X105.913 Y109.818 E.00485
G1 X105.931 Y110 E.00487
G1 X105.919 Y110.122 E.00327
G1 X106.284 Y110.255 F9000
G1 F900
G1 X106.21 Y110.501 E.00685
G1 X106.089 Y110.728 E.00686
G1 X105.926 Y110.926 E.00684
G1 X105.728 Y111.089 E.00684
G1 X105.501 Y111.21 E.00686
G1 X105.255 Y111.284 E.00685
G1 X105 Y111.31 E.00683
G1 X104.745 Y111.284 E.00683
G1 X104.499 Y111.21 E.00685
G1 X104.272 Y111.089 E.00686
G1 X104.074 Y110.926 E.00684
G1 X103.911 Y110.728 E.00684
G1 X103.79 Y110.501 E.00686
G1 X103.716 Y110.255 E.00685
G1 X103.69 Y110 E.00683
G1 X103.716 Y109.745 E.00683
G1 X103.79 Y109.499 E.00685
G1 X103.911 Y109.272 E.00686
G1 X104.074 Y109.074 E.00684
G1 X104.272 Y108.911 E.00684
G1 X104.499 Y108.79 E.00686
G1 X104.745 Y108.716 E.00685
G1 X105 Y108.69 E.00683
G1 X105.255 Y108.716 E.00683
G1 X105.501 Y108.79 E.00685
G1 X105.728 Y108.911 E.00686
G1 X105.926 Y109.074 E.00684
G1 X106.089 Y109.272 E.00684
G1 X106.21 Y109.499 E.00686
G1 X106.284 Y109.745 E.00685
G1 X106.31 Y110 E.00683
G1 X106.29 Y110.196 E.00525
G1 X106.656 Y110.329 F9000
;TYPE:External perimeter
G1 F900
G1 X106.56 Y110.646 E.00883
G1 X106.404 Y110.938 E.00882
G1 X106.194 Y111.194 E.00882
G1 X105.938 Y111.404 E.00882
G1 X105.646 Y111.56 E.00882
G1 X105.329 Y111.656 E.00883
G1 X105 Y111.689 E.00881
G1 X104.671 Y111.656 E.00881
G1 X104.354 Y111.56 E.00883
G1 X104.062 Y111.404 E.00882
G1 X103.806 Y111.194 E.00882
G1 X103.596 Y110.938 E.00882
G1 X103.44 Y110.646 E.00882
G1 X103.344 Y110.329 E.00883
G1 X103.312 Y110 E.00881
G1 X103.344 Y109.671 E.00881
G1 X103.44 Y109.354 E.00883
G1 X103.596 Y109.062 E.00882
G1 X103.806 Y108.806 E.00882
G1 X104.062 Y108.596 E.00882
G1 X104.354 Y108.44 E.00882
G1 X104.671 Y108.344 E.00883
G1 X105 Y108.311 E.00881
G1 X105.329 Y108.344 E.00881
G1 X105.646 Y108.44 E.00883
G1 X105.938 Y108.596 E.00882
G1 X106.194 Y108.806 E.00882
G1 X106.404 Y109.062 E.00882
G1 X106.56 Y109.354 E.00882
G1 X106.656 Y109.671 E.00883
G1 X106.689 Y110 E.00881
G1 X106.662 Y110.27 E.00723
G1 X106.343 Y110.436 F9000
;WIPE_START
G1 F7200
G1 X106.56 Y110.646 E-.09253
G1 X106.404 Y110.938 E-.07863
G1 X106.194 Y111.194 E-.07864
G1 X105.938 Y111.404 E-.07864
G1 X105.646 Y111.56 E-.07863
G1 X105.329 Y111.656 E-.07866
G1 X105 Y111.689 E-.07853
G1 X104.671 Y111.656 E-.07853
G1 X104.354 Y111.56 E-.07866
G1 X104.062 Y111.404 E-.07855
;WIPE_END
G1 X105.077 Y109.198 F9000
G1 E.8 F1800
;TYPE:Solid infill
;WIDTH:0.457118
G1 F900
G1 X105.54 Y109.661 E.01917
G1 X105.59 Y109.755 E.00312
G1 X105.639 Y110 E.00731
G1 X105.627 Y110.125 E.00368
G1 X105.572 Y110.279 E.00479
G1 X104.721 Y109.428 E.03523
G1 X104.548 Y109.548 E.00616
G1 X104.428 Y109.721 E.00616
G1 X105.279 Y110.572 E.03523
G1 X105.125 Y110.627 E.00479
G1 X105 Y110.639 E.00368
G1 X104.755 Y110.59 E.00731
G1 X104.661 Y110.54 E.00312
G1 X104.198 Y110.077 E.01917
; stop printing object boosterconnectortest.stl id:0 copy 0
M106 S255
;LAYER_CHANGE
;Z:0.4
;HEIGHT:0.2
;BEFORE_LAYER_CHANGE
G92 E0
;0.4


;WIPE_START
G1 F7200
G1 X104.661 Y110.54 E-.15551
G1 X104.755 Y110.59 E-.02529
G1 X105 Y110.639 E-.05934
G1 X105.125 Y110.627 E-.02982
G1 X105.279 Y110.572 E-.03884
G1 X104.428 Y109.721 E-.28583
G1 X104.548 Y109.548 E-.05
G1 X104.721 Y109.428 E-.05
G1 X105.035 Y109.742 E-.10537
;WIPE_END
G1 Z.4 F9000
;AFTER_LAYER_CHANGE
;0.4
G1 X104.048 Y103.981
G1 E.8 F1800
;TYPE:Skirt/Brim
;WIDTH:0.42
G1 F900
G1 X104.568 Y103.891 E.01406
G1 X115.405 Y103.889 E.28882
G1 X116.953 Y104.195 E.04205
G1 X118.038 Y104.683 E.03171
G1 X118.732 Y105.144 E.0222
G1 X119.854 Y106.265 E.04227
G1 X120.486 Y107.277 E.0318
G1 X120.909 Y108.391 E.03176
G1 X121.109 Y109.572 E.03192
G1 X121.111 Y110.405 E.0222
G1 X120.802 Y111.961 E.04228
G1 X120.316 Y113.041 E.03156
G1 X119.623 Y114.017 E.0319
G1 X119.035 Y114.608 E.02222
G1 X118.059 Y115.306 E.03198
G1 X116.965 Y115.801 E.032
G1 X115.409 Y116.111 E.04228
G1 X105 Y116.131 E.27741
G1 X104.217 Y116.074 E.02092
G1 X103.062 Y115.809 E.03158
G1 X102.298 Y115.496 E.022
G1 X101.278 Y114.863 E.03199
G1 X100.4 Y114.044 E.032
G1 X99.694 Y113.059 E.0323
G1 X99.211 Y111.997 E.03109
G1 X98.927 Y110.795 E.03292
G1 X98.889 Y109.595 E.032
G1 X99.085 Y108.411 E.03198
G1 X99.504 Y107.298 E.0317
G1 X100.123 Y106.297 E.03137
G1 X100.956 Y105.401 E.0326
G1 X101.911 Y104.713 E.03137
G1 X103.376 Y104.096 E.04237
G1 X103.988 Y103.991 E.01655
G1 X104.051 Y104.361 F9000
G1 F900
G1 X104.607 Y104.266 E.01503
G1 X115.368 Y104.264 E.28679
G1 X116.844 Y104.556 E.0401
G1 X117.862 Y105.016 E.02977
G1 X118.493 Y105.435 E.02019
G1 X119.562 Y106.504 E.04029
G1 X120.153 Y107.455 E.02984
G1 X120.548 Y108.502 E.02982
G1 X120.734 Y109.611 E.02997
G1 X120.736 Y110.368 E.02017
G1 X120.441 Y111.851 E.0403
G1 X119.983 Y112.864 E.02963
G1 X119.33 Y113.779 E.02996
G1 X118.796 Y114.316 E.02018
G1 X117.881 Y114.974 E.03004
G1 X116.855 Y115.44 E.03003
G1 X115.372 Y115.736 E.0403
G1 X105 Y115.754 E.27643
G1 X104.254 Y115.699 E.01994
G1 X103.169 Y115.448 E.02968
G1 X102.475 Y115.163 E.01999
G1 X101.516 Y114.571 E.03004
G1 X100.691 Y113.804 E.03002
G1 X100.026 Y112.881 E.03032
G1 X99.572 Y111.886 E.02915
G1 X99.302 Y110.758 E.03091
G1 X99.264 Y109.632 E.03003
G1 X99.446 Y108.52 E.03003
G1 X99.837 Y107.475 E.02974
G1 X100.416 Y106.534 E.02945
G1 X101.196 Y105.692 E.03059
G1 X102.091 Y105.044 E.02945
G1 X103.488 Y104.456 E.0404
G1 X103.992 Y104.371 E.01362
G1 X104.045 Y104.755 F9000
G1 F900
G1 X104.996 Y104.623 E.02559
G1 X115.331 Y104.639 E.27544
G1 X116.37 Y104.807 E.02805
G1 X117.329 Y105.162 E.02725
G1 X118.557 Y105.975 E.03925
G1 X119.025 Y106.443 E.01764
G1 X119.636 Y107.288 E.02779
G1 X120.076 Y108.244 E.02805
G1 X120.317 Y109.248 E.02752
G1 X120.322 Y110.721 E.03926
G1 X120.193 Y111.37 E.01763
G1 X119.83 Y112.348 E.0278
G1 X119.291 Y113.228 E.0275
G1 X118.557 Y114.025 E.02888
G1 X117.357 Y114.826 E.03845
G1 X116.37 Y115.193 E.02806
G1 X115.004 Y115.377 E.03673
G1 X105 Y115.377 E.26662
G1 X104.291 Y115.324 E.01895
G1 X103.277 Y115.086 E.02776
G1 X102.652 Y114.83 E.018
G1 X101.755 Y114.279 E.02806
G1 X100.982 Y113.564 E.02806
G1 X100.179 Y112.368 E.03839
G1 X99.812 Y111.389 E.02786
G1 X99.639 Y110.331 E.02857
G1 X99.678 Y109.279 E.02806
G1 X99.919 Y108.258 E.02796
G1 X100.35 Y107.313 E.02768
G1 X100.961 Y106.461 E.02794
G1 X101.732 Y105.738 E.02817
G1 X102.615 Y105.189 E.02771
G1 X103.599 Y104.816 E.02805
G1 X103.985 Y104.763 E.01038
; printing object boosterconnectortest.stl id:0 copy 0
;WIPE_START
G1 F7200
G1 X104.996 Y104.623 E-.2424
G1 X107.344 Y104.627 E-.5576
;WIPE_END
G1 X115.386 Y109.077 F9000
G1 E.8 F1800
;TYPE:Perimeter
;WIDTH:0.44
G1 F900
G1 X115.556 Y109.168 E.00541
G1 X115.708 Y109.292 E.00551
G1 X115.832 Y109.444 E.00551
G1 X115.925 Y109.617 E.00551
G1 X115.982 Y109.805 E.00551
G1 X116.001 Y110 E.0055
G1 X115.982 Y110.195 E.0055
G1 X115.925 Y110.383 E.00551
G1 X115.832 Y110.556 E.00551
