; generated by PrusaSlicer 2.6.1+win64 on 2024-01-28 at 15:58:15 UTC

; 

; external perimeters extrusion width = 0.42mm
; perimeters extrusion width = 0.44mm
; infill extrusion width = 0.44mm
; solid infill extrusion width = 0.44mm
; top infill extrusion width = 0.40mm
; support material extrusion width = 0.36mm
; first layer extrusion width = 0.42mm

M201 X500 Y500 Z100 E5000 ; sets maximum accelerations, mm/sec^2
M203 X500 Y500 Z10 E60 ; sets maximum feedrates, mm / sec
M204 S500 T1000 ; sets acceleration (S) and retract acceleration (R), mm/sec^2
M205 X8.00 Y8.00 Z0.40 E5.00 ; sets the jerk limits, mm/sec
M205 S0 T0 ; sets the minimum extruding and travel feed rate, mm/sec
;TYPE:Custom
G90 ; use absolute coordinates
M83 ; extruder relative mode
M104 S150 ; set temporary nozzle temp to prevent oozing during homing
M140 S60 ; set final bed temp
G4 S30 ; allow partial nozzle warmup
G28 ; home all axis and restore leveling
G1 Z50 F240
G1 X2.0 Y10 F3000
M104 S215 ; set final nozzle temp
M190 S60 ; wait for bed temp to stabilize
M109 S215 ; wait for nozzle temp to stabilize
G1 Z0.28 F240
G92 E0
G1 X2.0 Y140 E10 F1500 ; prime the nozzle
G1 X2.3 Y140 F5000
G92 E0
G1 X2.3 Y10 E10 F1200 ; prime the nozzle
G92 E0
G21 ; set units to millimeters
G90 ; use absolute coordinates
M83 ; use relative distances for extrusion
; Filament gcode
M107
;LAYER_CHANGE
;Z:0.2
;HEIGHT:0.2
;BEFORE_LAYER_CHANGE
G92 E0
;0.2


G1 E-.8 F1800
G1 Z.2 F9000
;AFTER_LAYER_CHANGE
;0.2
G1 X101.179 Y99.976
G1 E.8 F1800
M204 S500
;TYPE:Skirt/Brim
;WIDTH:0.42
G1 F1200
G1 X102.598 Y99.001 E.04588
G1 X103.958 Y98.746 E.03688
G1 X116.042 Y98.746 E.32205
G1 X117.717 Y99.141 E.04587
G1 X119.041 Y100.242 E.04589
G1 X119.631 Y101.399 E.03461
G1 X122.461 Y110.631 E.25734
G1 X122.876 Y112.25 E.04454
G1 X122.977 Y113.485 E.03302
G1 X122.645 Y116.75 E.08746
G1 X122.355 Y117.855 E.03045
G1 X121.808 Y119.228 E.03939
G1 X121 Y120.411 E.03818
G1 X119.902 Y121.432 E.03996
G1 X118.517 Y122.429 E.04548
G1 X116.927 Y123.088 E.04587
G1 X116.025 Y123.125 E.02406
G1 X112.993 Y122.881 E.08107
G1 X103.626 Y121.803 E.25129
G1 X102.685 Y121.569 E.02584
G1 X101.539 Y121.12 E.0328
G1 X100.571 Y120.563 E.02976
G1 X99.613 Y119.801 E.03262
G1 X98.862 Y118.998 E.0293
G1 X98.15 Y117.963 E.03348
G1 X97.668 Y116.968 E.02947
G1 X97.3 Y115.798 E.03269
G1 X97.128 Y114.7 E.02962
G1 X97.119 Y113.469 E.03281
G1 X97.26 Y112.424 E.0281
G1 X100.345 Y101.481 E.30301
G1 X101.15 Y100.028 E.04427
G1 X101.486 Y100.22 F9000
G1 F1200
G1 X101.517 Y100.167 E.00164
G1 X102.895 Y99.294 E.04347
G1 X103.958 Y99.123 E.02869
G1 X116.042 Y99.123 E.32205
G1 X117.625 Y99.517 E.04348
G1 X118.839 Y100.607 E.04348
G1 X119.271 Y101.51 E.02668
G1 X122.101 Y110.741 E.25732
G1 X122.51 Y112.342 E.04404
G1 X122.601 Y113.453 E.02971
G1 X122.281 Y116.654 E.08574
G1 X121.99 Y117.759 E.03045
G1 X121.462 Y119.078 E.03786
G1 X120.735 Y120.143 E.03437
G1 X119.682 Y121.126 E.03839
G1 X118.297 Y122.123 E.04548
G1 X116.055 Y122.749 E.06204
G1 X113.036 Y122.506 E.08072
G1 X103.669 Y121.429 E.25129
G1 X102.823 Y121.218 E.02324
G1 X101.676 Y120.769 E.03283
G1 X100.806 Y120.268 E.02676
G1 X99.848 Y119.506 E.03262
G1 X99.172 Y118.784 E.02636
G1 X98.462 Y117.75 E.03343
G1 X98.027 Y116.855 E.02652
G1 X97.66 Y115.685 E.03268
G1 X97.505 Y114.697 E.02665
G1 X97.496 Y113.467 E.03278
G1 X97.623 Y112.526 E.02531
G1 X100.708 Y101.584 E.30299
G1 X101.457 Y100.272 E.04026
; printing object boosterconnectortest.stl id:0 copy 0
;WIPE_START
G1 F7200
G1 X101.517 Y100.167 E-.02872
G1 X102.895 Y99.294 E-.38742
G1 X103.958 Y99.123 E-.25571
G1 X104.498 Y99.123 E-.12815
;WIPE_END
G1 X107.572 Y110.797 F9000
G1 E.8 F1800
;TYPE:Support material
G1 F1200
G1 X108.412 Y111.713 E.03312
G1 X108.94 Y112.831 E.03295
G1 X109.116 Y114.056 E.03298
G1 X108.926 Y115.271 E.03277
G1 X108.388 Y116.376 E.03275
G1 X107.551 Y117.275 E.03274
G1 X106.923 Y117.638 E.01933
G1 X106.481 Y117.892 E.01359
G1 X105.284 Y118.165 E.03272
G1 X104.055 Y118.074 E.03284
G1 X102.908 Y117.625 E.03283
G1 X101.95 Y116.862 E.03264
G1 X101.648 Y116.426 E.01414
G1 X101.249 Y115.843 E.01883
G1 X100.882 Y114.673 E.03268
G1 X100.873 Y113.442 E.03281
G1 X101.226 Y112.262 E.03283
G1 X101.917 Y111.229 E.03312
G1 X102.881 Y110.449 E.03305
G1 X103.945 Y110.025 E.03053
G1 X103.945 Y112.691 E.07105
G1 X104.215 Y112.962 E.0102
G1 X105.785 Y112.962 E.04184
G1 X106.055 Y112.691 E.0102
G1 X106.055 Y109.915 E.07398
G1 X107.523 Y110.769 E.04526
G1 X106.433 Y117.724 F9000
G1 F1200
G1 X108.706 Y114.477 E.10563
G1 X108.773 Y114.054 E.01141
G1 X108.656 Y113.235 E.02205
G1 X105.478 Y117.773 E.14765
G1 X105.258 Y117.823 E.00601
G1 X104.559 Y117.771 E.01868
G1 X108.344 Y112.365 E.17588
G1 X108.127 Y111.904 E.01358
G1 X107.911 Y111.669 E.00851
G1 X103.762 Y117.595 E.1928
G1 X103.046 Y117.301 E.02063
G1 X107.389 Y111.1 E.20177
G1 X107.356 Y111.065 E.00128
G1 X106.743 Y110.707 E.01892
G1 X106.225 Y111.447 E.02407
;WIPE_START
G1 F7200
G1 X106.743 Y110.707 E-.21453
G1 X107.356 Y111.065 E-.1686
G1 X107.389 Y111.1 E-.01142
G1 X106.41 Y112.498 E-.40545
;WIPE_END
G1 X102.358 Y116.97 F9000
G1 E.8 F1800
G1 F1200
G1 X104.926 Y113.301 E.11935
G1 X104.075 Y113.301 E.02268
G1 X104.034 Y113.261 E.00153
G1 X101.94 Y116.252 E.09731
G1 X101.558 Y115.694 E.01802
G1 X101.512 Y115.548 E.00408
G1 X103.605 Y112.558 E.09727
G1 X103.605 Y111.243 E.03505
G1 X101.227 Y114.64 E.11051
G1 X101.213 Y113.491 E.03062
G1 X101.289 Y113.237 E.00707
G1 X103.203 Y110.504 E.08892
;WIPE_START
G1 F7200
G1 X101.289 Y113.237 E-.79243
G1 X101.28 Y113.268 E-.00757
;WIPE_END
G1 X113.945 Y109.916 F9000
G1 E.8 F1800
G1 F1200
G1 X113.945 Y112.691 E.07396
G1 X114.215 Y112.962 E.0102
G1 X115.785 Y112.962 E.04184
G1 X116.055 Y112.691 E.0102
G1 X116.055 Y109.923 E.07377
G1 X116.641 Y109.952 E.01564
G1 X117.934 Y110.573 E.03823
G1 X118.872 Y111.731 E.03972
G1 X119.236 Y113.17 E.03956
G1 X119.004 Y114.414 E.03373
G1 X119.015 Y114.455 E.00113
G1 X118.838 Y115.125 E.01847
G1 X119.015 Y115.795 E.01847
G1 X118.724 Y116.9 E.03045
G1 X118.361 Y117.74 E.02439
G1 X117.708 Y118.386 E.02448
G1 X116.324 Y119.383 E.04546
G1 X115.4 Y119.161 E.02533
G1 X114.796 Y119.226 E.01619
G1 X114.585 Y119.132 E.00616
G1 X113.422 Y119.151 E.031
G1 X112.027 Y118.505 E.04097
G1 X111.05 Y117.306 E.04122
G1 X110.699 Y115.795 E.04134
G1 X110.854 Y115.125 E.01833
G1 X110.699 Y114.455 E.01833
G1 X110.865 Y113.739 E.01959
G1 X110.755 Y113.17 E.01545
G1 X111.131 Y111.709 E.04021
G1 X112.084 Y110.555 E.03989
G1 X113.449 Y109.911 E.04022
G1 X113.888 Y109.916 E.0117
;WIPE_START
G1 F7200
G1 X113.449 Y109.911 E-.10427
G1 X112.084 Y110.555 E-.35846
G1 X111.18 Y111.65 E-.33727
;WIPE_END
G1 X116.61 Y118.967 F9000
G1 E.8 F1800
G1 F1200
G1 X118.563 Y116.179 E.09072
G1 X118.664 Y115.795 E.01058
G1 X118.488 Y115.125 E.01846
G1 X118.552 Y114.879 E.00677
G1 X115.741 Y118.894 E.13062
G1 X115.422 Y118.817 E.00875
G1 X114.836 Y118.872 E.01569
G1 X118.871 Y113.109 E.18749
G1 X118.626 Y112.143 E.02656
G1 X113.964 Y118.803 E.21666
G1 X113.494 Y118.81 E.01253
G1 X113.149 Y118.651 E.01012
G1 X118.199 Y111.439 E.23464
G1 X117.718 Y110.846 E.02035
G1 X117.7 Y110.837 E.00054
G1 X112.454 Y118.329 E.24375
G1 X112.24 Y118.23 E.00628
G1 X111.897 Y117.809 E.01447
G1 X115.054 Y113.301 E.14668
G1 X114.133 Y113.301 E.02455
G1 X111.402 Y117.201 E.12689
G1 X111.363 Y117.153 E.00165
G1 X111.152 Y116.244 E.02487
G1 X113.605 Y112.74 E.11399
G1 X113.605 Y111.425 E.03505
G1 X111.156 Y114.923 E.1138
G1 X111.047 Y114.455 E.01281
G1 X111.212 Y113.745 E.01943
G1 X111.179 Y113.575 E.00462
G1 X113.498 Y110.263 E.10775
G1 X112.298 Y110.83 E.03537
G1 X111.533 Y111.755 E.03199
G1 X111.155 Y112.294 E.01755
;WIPE_START
G1 F7200
G1 X111.533 Y111.755 E-.15635
G1 X112.298 Y110.83 E-.28508
G1 X113.498 Y110.263 E-.31521
G1 X113.393 Y110.413 E-.04336
;WIPE_END
G1 X116.225 Y111.629 F9000
G1 E.8 F1800
G1 F1200
G1 X117.109 Y110.365 E.04111
;WIPE_START
G1 F7200
G1 X116.225 Y111.629 E-.36633
;WIPE_END
G1 E-.43367 F1800
G1 X114.717 Y112.19 F9000
G1 E.8 F1800
;TYPE:External perimeter
G1 F1200
G1 X114.717 Y102.81 E.24999
G1 X115.283 Y102.81 E.01508
G1 X115.283 Y112.19 E.24999
G1 X114.777 Y112.19 E.01349
G1 X114.725 Y111.79 F9000
G1 X115 Y112.001
;TYPE:Gap fill
;WIDTH:0.232146
G1 F1200
G1 X115 Y102.999 E.12039
;WIPE_START
G1 F7200
G1 X115 Y106.367 E-.8
;WIPE_END
G1 X105.283 Y102.81 F9000
G1 E.8 F1800
;TYPE:External perimeter
;WIDTH:0.42
G1 F1200
G1 X105.283 Y112.19 E.24999
G1 X104.717 Y112.19 E.01508
G1 X104.717 Y102.81 E.24999
G1 X105.223 Y102.81 E.01349
G1 X105.275 Y103.21 F9000
G1 X105 Y102.999
;TYPE:Gap fill
;WIDTH:0.232146
G1 F1200
G1 X105 Y112.001 E.12039
; stop printing object boosterconnectortest.stl id:0 copy 0
M106 S255
;LAYER_CHANGE
;Z:0.4
;HEIGHT:0.2
;BEFORE_LAYER_CHANGE
G92 E0
;0.4


;WIPE_START
G1 F7200
G1 X105 Y108.633 E-.8
;WIPE_END
G1 Z.4 F9000
;AFTER_LAYER_CHANGE
;0.4
G1 X98.82 Y106.89
G1 E.8 F1800
;TYPE:Skirt/Brim
;WIDTH:0.42
G1 F937
G1 X100.345 Y101.481 E.14978
G1 X101.179 Y99.976 E.04586
G1 X102.598 Y99.001 E.04588
G1 X103.958 Y98.746 E.03688
G1 X116.042 Y98.746 E.32205
G1 X117.717 Y99.141 E.04587
G1 X119.041 Y100.242 E.04589
G1 X119.631 Y101.399 E.03461
G1 X122.461 Y110.631 E.25734
G1 X122.876 Y112.25 E.04454
G1 X122.977 Y113.485 E.03302
G1 X122.645 Y116.75 E.08746
G1 X122.355 Y117.855 E.03045
G1 X121.808 Y119.228 E.03939
G1 X121 Y120.411 E.03818
G1 X119.902 Y121.432 E.03996
G1 X118.517 Y122.429 E.04548
G1 X116.927 Y123.088 E.04587
G1 X116.025 Y123.125 E.02406
G1 X112.993 Y122.881 E.08107
G1 X103.626 Y121.803 E.25129
G1 X102.685 Y121.569 E.02584
G1 X101.539 Y121.12 E.0328
G1 X100.571 Y120.563 E.02976
G1 X99.613 Y119.801 E.03262
G1 X98.862 Y118.998 E.0293
G1 X98.15 Y117.963 E.03348
G1 X97.668 Y116.968 E.02947
G1 X97.3 Y115.798 E.03269
G1 X97.128 Y114.7 E.02962
G1 X97.119 Y113.469 E.03281
G1 X97.26 Y112.424 E.0281
G1 X98.804 Y106.948 E.15163
G1 X99.167 Y107.05 F9000
G1 F937
G1 X100.708 Y101.584 E.15135
G1 X101.517 Y100.167 E.04349
G1 X102.895 Y99.294 E.04347
G1 X103.958 Y99.123 E.02869
G1 X116.042 Y99.123 E.32205
G1 X117.625 Y99.517 E.04348
G1 X118.839 Y100.607 E.04348
G1 X119.271 Y101.51 E.02668
G1 X122.101 Y110.741 E.25732
G1 X122.51 Y112.342 E.04404
G1 X122.601 Y113.453 E.02971
G1 X122.281 Y116.654 E.08574
G1 X121.99 Y117.759 E.03045
G1 X121.462 Y119.078 E.03786
G1 X120.735 Y120.143 E.03437
G1 X119.682 Y121.126 E.03839
G1 X118.297 Y122.123 E.04548
G1 X116.055 Y122.749 E.06204
G1 X113.036 Y122.506 E.08072
G1 X103.669 Y121.429 E.25129
G1 X102.823 Y121.218 E.02324
G1 X101.676 Y120.769 E.03283
G1 X100.806 Y120.268 E.02676
G1 X99.848 Y119.506 E.03262
G1 X99.172 Y118.784 E.02636
G1 X98.462 Y117.75 E.03343
G1 X98.027 Y116.855 E.02652
G1 X97.66 Y115.685 E.03268
G1 X97.505 Y114.697 E.02665
G1 X97.496 Y113.467 E.03278
G1 X97.623 Y112.526 E.02531
G1 X99.15 Y107.108 E.15002
; printing object boosterconnectortest.stl id:0 copy 0
;WIPE_START
G1 F7200
G1 X100.064 Y103.866 E-.8
;WIPE_END
G1 X104.336 Y114.453 F9000
G1 E.8 F1800
;TYPE:Support material
;WIDTH:0.36
G1 F937
G1 X104.27 Y114.357 E.00261
G1 X104.199 Y114.133 E.00527
G1 X104.197 Y113.897 E.00529
G1 X104.258 Y113.692 E.00479
G1 X104.312 Y113.62 E.00202
G1 X104.721 Y113.477 E.00971
G1 X104.95 Y113.448 E.00517
G1 X104.97 Y113.089 E.00806
G1 X105.11 Y113.097 E.00314
G1 X105.36 Y113.15 E.00573
G1 X105.534 Y113.217 E.00418
G1 X105.65 Y113.294 E.00312
G1 X105.782 Y113.327 E.00305
G1 X105.946 Y113.436 E.00441
G1 X106.077 Y113.68 E.00621
G1 X106.125 Y114.016 E.00761
G1 X106.071 Y114.355 E.00769
G1 X105.921 Y114.663 E.00768
G1 X105.687 Y114.913 E.00767
G1 X105.392 Y115.083 E.00763
G1 X105.06 Y115.159 E.00763
G1 X104.721 Y115.134 E.00762
G1 X104.404 Y115.01 E.00763
G1 X104.137 Y114.798 E.00764
G1 X103.943 Y114.517 E.00765
G1 X103.84 Y114.19 E.00768
G1 X103.837 Y113.847 E.00769
G1 X103.931 Y113.528 E.00745
G1 X104.099 Y113.313 E.00611
G1 X104.637 Y113.125 E.01277
G1 X104.923 Y113.086 E.00647
;WIPE_START
G1 F7200
G1 X104.637 Y113.125 E-.06855
G1 X104.099 Y113.313 E-.13535
G1 X103.931 Y113.528 E-.0648
G1 X103.837 Y113.847 E-.07898
G1 X103.84 Y114.19 E-.08147
G1 X103.943 Y114.517 E-.08142
G1 X104.137 Y114.798 E-.0811
G1 X104.404 Y115.01 E-.08097
G1 X104.721 Y115.134 E-.08084
G1 X104.916 Y115.148 E-.04652
;WIPE_END
G1 X114.159 Y112.894 F9000
G1 E.8 F1800
G1 F937
G1 X114.282 Y112.9 E.00276
G1 X114.387 Y112.946 E.00257
G1 X114.498 Y113.064 E.00363
G1 X114.539 Y113.212 E.00344
G1 X114.511 Y113.373 E.00366
G1 X114.416 Y113.506 E.00366
G1 X114.272 Y113.582 E.00365
G1 X114.111 Y113.585 E.00361
G1 X113.966 Y113.514 E.00362
G1 X113.867 Y113.383 E.00368
G1 X113.836 Y113.221 E.0037
G1 X113.876 Y113.065 E.00361
G1 X113.97 Y112.952 E.00329
G1 X114.112 Y112.892 E.00345
;WIPE_START
G1 F7200
G1 X113.97 Y112.952 E-.03661
G1 X113.876 Y113.065 E-.03491
G1 X113.836 Y113.221 E-.03825
G1 X113.867 Y113.383 E-.03917
G1 X113.966 Y113.514 E-.039
G1 X114.111 Y113.585 E-.03834
G1 X114.272 Y113.582 E-.03824
G1 X114.416 Y113.506 E-.03867
G1 X114.511 Y113.373 E-.03882
G1 X114.539 Y113.212 E-.03881
G1 X114.498 Y113.064 E-.03647
G1 X114.387 Y112.946 E-.03848
G1 X114.282 Y112.9 E-.02723
G1 X114.159 Y112.894 E-.02925
;WIPE_END
G1 E-.28775 F1800
G1 X114.123 Y114.112 F9000
G1 E.8 F1800
G1 F937
G1 X114.233 Y114.114 E.00247
G1 X114.37 Y114.184 E.00345
G1 X114.464 Y114.306 E.00345
G1 X114.497 Y114.455 E.00342
G1 X114.464 Y114.604 E.00342
G1 X114.37 Y114.726 E.00345
G1 X114.232 Y114.796 E.00347
G1 X114.076 Y114.799 E.0035
G1 X113.932 Y114.733 E.00355
G1 X113.831 Y114.61 E.00357
G1 X113.795 Y114.455 E.00357
G1 X113.831 Y114.3 E.00357
G1 X113.932 Y114.177 E.00357
G1 X114.076 Y114.111 E.00355
;WIPE_START
G1 F7200
G1 X113.932 Y114.177 E-.03762
G1 X113.831 Y114.3 E-.0378
G1 X113.795 Y114.455 E-.03779
G1 X113.831 Y114.61 E-.03779
G1 X113.932 Y114.733 E-.0378
G1 X114.076 Y114.799 E-.03762
G1 X114.232 Y114.796 E-.03706
G1 X114.37 Y114.726 E-.03675
G1 X114.464 Y114.604 E-.03658
G1 X114.497 Y114.455 E-.03625
G1 X114.464 Y114.306 E-.03625
G1 X114.37 Y114.184 E-.03658
G1 X114.233 Y114.114 E-.03654
G1 X114.123 Y114.112 E-.02613
;WIPE_END
G1 E-.29144 F1800
G1 X114.123 Y115.452 F9000
G1 E.8 F1800
G1 F937
G1 X114.233 Y115.454 E.00247
G1 X114.37 Y115.524 E.00345
G1 X114.464 Y115.646 E.00345
G1 X114.497 Y115.795 E.00342
G1 X114.464 Y115.944 E.00342
G1 X114.37 Y116.066 E.00345
G1 X114.232 Y116.136 E.00347
G1 X114.076 Y116.139 E.0035
G1 X113.932 Y116.073 E.00355
G1 X113.831 Y115.95 E.00357
G1 X113.795 Y115.795 E.00357
G1 X113.831 Y115.64 E.00357
G1 X113.932 Y115.517 E.00357
G1 X114.076 Y115.451 E.00355
;WIPE_START
G1 F7200
G1 X113.932 Y115.517 E-.03762
G1 X113.831 Y115.64 E-.0378
G1 X113.795 Y115.795 E-.03779
G1 X113.831 Y115.95 E-.03779
G1 X113.932 Y116.073 E-.0378
G1 X114.076 Y116.139 E-.03762
G1 X114.232 Y116.136 E-.03706
G1 X114.37 Y116.066 E-.03675
G1 X114.464 Y115.944 E-.03658
G1 X114.497 Y115.795 E-.03625
G1 X114.464 Y115.646 E-.03625
G1 X114.37 Y115.524 E-.03658
G1 X114.233 Y115.454 E-.03654
G1 X114.123 Y115.452 E-.02613
;WIPE_END
G1 E-.29144 F1800
G1 X115.477 Y115.44 F9000
G1 E.8 F1800
G1 F937
G1 X115.72 Y115.459 E.00546
G1 X115.825 Y115.505 E.00257
G1 X115.931 Y115.654 E.0041
G1 X115.962 Y115.795 E.00324
G1 X115.931 Y115.932 E.00315
G1 X115.821 Y116.085 E.00422
G1 X115.719 Y116.131 E.00251
G1 X115.43 Y116.155 E.0065
G1 X115.173 Y116.099 E.00589
G1 X115.104 Y115.993 E.00283
G1 X115.056 Y115.839 E.00361
G1 X115.056 Y115.751 E.00197
G1 X115.104 Y115.596 E.00364
G1 X115.168 Y115.495 E.00268
G1 X115.429 Y115.436 E.006
;WIPE_START
G1 F7200
G1 X115.168 Y115.495 E-.06355
G1 X115.104 Y115.596 E-.0284
G1 X115.056 Y115.751 E-.03854
G1 X115.056 Y115.839 E-.0209
G1 X115.104 Y115.993 E-.03831
G1 X115.173 Y116.099 E-.03004
G1 X115.43 Y116.155 E-.06247
G1 X115.719 Y116.131 E-.06887
G1 X115.821 Y116.085 E-.02657
G1 X115.931 Y115.932 E-.04475
G1 X115.962 Y115.795 E-.03336
G1 X115.931 Y115.654 E-.03429
G1 X115.825 Y115.505 E-.04343
G1 X115.72 Y115.459 E-.02723
G1 X115.477 Y115.44 E-.05789
;WIPE_END
G1 E-.1814 F1800
G1 X115.477 Y114.1 F9000
G1 E.8 F1800
G1 F937
G1 X115.72 Y114.119 E.00546
G1 X115.825 Y114.165 E.00257
G1 X115.931 Y114.314 E.0041
G1 X115.962 Y114.455 E.00324
