; generated by PrusaSlicer 2.6.1+win64 on 2024-01-28 at 11:01:54 UTC

; 

; external perimeters extrusion width = 0.42mm
; perimeters extrusion width = 0.44mm
; infill extrusion width = 0.44mm
; solid infill extrusion width = 0.44mm
; top infill extrusion width = 0.40mm
; support material extrusion width = 0.36mm
; first layer extrusion width = 0.42mm

M201 X500 Y500 Z100 E5000 ; sets maximum accelerations, mm/sec^2
M203 X500 Y500 Z10 E60 ; sets maximum feedrates, mm / sec
M204 S500 T1000 ; sets acceleration (S) and retract acceleration (R), mm/sec^2
M205 X8.00 Y8.00 Z0.40 E5.00 ; sets the jerk limits, mm/sec
M205 S0 T0 ; sets the minimum extruding and travel feed rate, mm/sec
;TYPE:Custom
G90 ; use absolute coordinates
M83 ; extruder relative mode
M104 S150 ; set temporary nozzle temp to prevent oozing during homing
M140 S60 ; set final bed temp
G4 S30 ; allow partial nozzle warmup
G28 ; home all axis and restore leveling
G1 Z50 F240
G1 X2.0 Y10 F3000
M104 S215 ; set final nozzle temp
M190 S60 ; wait for bed temp to stabilize
M109 S215 ; wait for nozzle temp to stabilize
G1 Z0.28 F240
G92 E0
G1 X2.0 Y140 E10 F1500 ; prime the nozzle
G1 X2.3 Y140 F5000
G92 E0
G1 X2.3 Y10 E10 F1200 ; prime the nozzle
G92 E0
G21 ; set units to millimeters
G90 ; use absolute coordinates
M83 ; use relative distances for extrusion
; Filament gcode
M107
;LAYER_CHANGE
;Z:0.2
;HEIGHT:0.2
;BEFORE_LAYER_CHANGE
G92 E0
;0.2


G1 E-.8 F1800
G1 Z.2 F9000
;AFTER_LAYER_CHANGE
;0.2
G1 X101.808 Y90.43
G1 E.8 F1800
M204 S500
;TYPE:Skirt/Brim
;WIDTH:0.42
G1 F1200
G1 X103.249 Y88.847 E.05705
G1 X104.708 Y87.76 E.04849
G1 X105.716 Y87.217 E.03051
G1 X107.426 Y86.599 E.04846
G1 X108.084 Y86.449 E.01799
G1 X109.22 Y86.296 E.03055
G1 X111.037 Y86.32 E.04843
G1 X112.821 Y86.669 E.04845
G1 X114.514 Y87.331 E.04845
G1 X116.059 Y88.285 E.04839
G1 X116.585 Y88.707 E.01797
G1 X117.833 Y89.984 E.04759
G1 X124.92 Y99.693 E.32036
G1 X126.967 Y103.693 E.11975
G1 X131.285 Y113.803 E.29299
G1 X131.709 Y115.566 E.04833
G1 X131.812 Y117.376 E.04832
G1 X131.709 Y118.513 E.03043
G1 X131.285 Y120.276 E.04833
G1 X130.553 Y121.935 E.04833
G1 X129.537 Y123.436 E.04831
G1 X128.269 Y124.732 E.04832
G1 X126.79 Y125.781 E.04832
G1 X125.148 Y126.548 E.0483
G1 X124.508 Y126.756 E.01793
G1 X122.839 Y127.094 E.04538
G1 X109.02 Y128.105 E.36928
G1 X107.925 Y128.019 E.02927
G1 X104.022 Y127.121 E.10674
G1 X93.33 Y123.576 E.30021
G1 X91.733 Y122.781 E.04754
G1 X90.277 Y121.698 E.04836
G1 X89.038 Y120.372 E.04837
G1 X88.055 Y118.846 E.04838
G1 X87.361 Y117.169 E.04837
G1 X86.979 Y115.395 E.04836
G1 X86.919 Y113.581 E.04837
G1 X87.185 Y111.786 E.04836
G1 X87.364 Y111.137 E.01794
G1 X88.059 Y109.461 E.04836
G1 X88.835 Y108.195 E.03957
G1 X101.772 Y90.478 E.58466
G1 X102.077 Y90.7 F9000
G1 F1200
G1 X103.485 Y89.141 E.05599
G1 X104.886 Y88.092 E.04664
G1 X105.895 Y87.549 E.03054
G1 X107.542 Y86.958 E.04663
G1 X108.135 Y86.823 E.01621
G1 X109.27 Y86.67 E.03052
G1 X111.019 Y86.697 E.04662
G1 X112.737 Y87.036 E.04667
G1 X114.364 Y87.678 E.04662
G1 X115.851 Y88.599 E.04662
G1 X116.324 Y88.979 E.01617
G1 X117.529 Y90.207 E.04585
G1 X124.59 Y99.877 E.31911
G1 X126.62 Y103.843 E.11874
G1 X130.768 Y113.466 E.27928
G1 X131.334 Y115.6 E.05884
G1 X131.436 Y117.342 E.04651
G1 X131.226 Y119.075 E.04652
G1 X130.709 Y120.743 E.04654
G1 X129.903 Y122.291 E.04651
G1 X129.232 Y123.215 E.03043
G1 X128.009 Y124.46 E.04651
G1 X126.582 Y125.466 E.04653
G1 X124.999 Y126.202 E.04653
G1 X122.811 Y126.718 E.05991
G1 X108.994 Y127.729 E.36922
G1 X108.009 Y127.652 E.02633
G1 X104.109 Y126.754 E.10666
G1 X93.45 Y123.219 E.29929
G1 X91.911 Y122.448 E.04588
G1 X90.512 Y121.403 E.04654
G1 X89.321 Y120.124 E.04658
G1 X88.379 Y118.652 E.04658
G1 X87.714 Y117.036 E.04657
G1 X87.35 Y115.327 E.04657
G1 X87.296 Y113.581 E.04656
G1 X87.556 Y111.853 E.04657
G1 X87.717 Y111.27 E.01612
G1 X88.383 Y109.655 E.04656
G1 X89.14 Y108.418 E.03865
G1 X102.041 Y90.749 E.58306
; printing object F-1-engine.stl id:0 copy 0
;WIPE_START
G1 F7200
G1 X103.485 Y89.141 E-.51329
G1 X104.451 Y88.417 E-.28671
;WIPE_END
G1 X110.32 Y90.045 F9000
G1 E.8 F1800
;TYPE:Support material
G1 F1200
G1 X110.862 Y90.07 E.01446
G1 X111.979 Y90.327 E.03055
G1 X113.03 Y90.78 E.0305
G1 X113.982 Y91.412 E.03045
G1 X114.806 Y92.205 E.03048
G1 X115.475 Y93.132 E.03047
G1 X115.967 Y94.162 E.03042
G1 X116.266 Y95.264 E.03043
G1 X116.365 Y96.4 E.03039
G1 X116.274 Y97.373 E.02604
G1 X116.581 Y97.681 E.01159
G1 X116.656 Y97.805 E.00386
G1 X116.763 Y97.795 E.00286
G1 X117.911 Y98.109 E.03172
G1 X118.639 Y98.513 E.02219
G1 X119.27 Y99.039 E.02189
G1 X119.89 Y99.965 E.0297
G1 X120.007 Y100.314 E.00981
G1 X120.261 Y100.39 E.00707
G1 X121.087 Y100.96 E.02675
G1 X121.641 Y101.521 E.02101
G1 X122.119 Y102.379 E.02618
G1 X122.349 Y103.117 E.0206
G1 X122.389 Y103.74 E.01664
G1 X122.542 Y103.839 E.00486
G1 X123.158 Y104.546 E.02499
G1 X123.519 Y105.179 E.01942
G1 X123.851 Y106.152 E.0274
G1 X123.81 Y107.468 E.03509
G1 X124.196 Y108.327 E.0251
G1 X124.372 Y109.139 E.02214
G1 X124.282 Y110.34 E.0321
G1 X124.18 Y110.591 E.00722
G1 X124.224 Y110.717 E.00356
G1 X124.245 Y111.228 E.01363
G1 X124.722 Y111.432 E.01383
G1 X125.675 Y112.061 E.03043
G1 X126.5 Y112.85 E.03042
G1 X127.171 Y113.774 E.03043
G1 X127.666 Y114.802 E.03041
G1 X127.97 Y115.903 E.03044
G1 X128.072 Y117.04 E.03042
G1 X127.97 Y118.177 E.03042
G1 X127.666 Y119.277 E.03042
G1 X127.171 Y120.306 E.03043
G1 X126.5 Y121.23 E.03043
G1 X125.675 Y122.019 E.03042
G1 X124.722 Y122.648 E.03043
G1 X123.672 Y123.096 E.03042
G1 X122.559 Y123.35 E.03043
G1 X121.419 Y123.401 E.03041
G1 X120.287 Y123.248 E.03044
G1 X119.202 Y122.895 E.03041
G1 X118.196 Y122.354 E.03044
G1 X117.773 Y122.017 E.01441
G1 X117.226 Y122.457 E.01871
G1 X116.501 Y122.746 E.0208
G1 X115.491 Y122.98 E.02763
G1 X115.16 Y122.939 E.00889
G1 X114.877 Y123.226 E.01074
G1 X114.06 Y123.741 E.02574
G1 X113.328 Y124.005 E.02074
G1 X112.561 Y124.098 E.02059
G1 X111.378 Y123.987 E.03167
G1 X111.084 Y123.844 E.00871
G1 X110.992 Y123.912 E.00305
G1 X110.457 Y124.11 E.0152
G1 X109.865 Y124.282 E.01643
G1 X108.762 Y124.359 E.02947
G1 X107.577 Y123.982 E.03314
G1 X106.928 Y123.588 E.02023
G1 X106.608 Y123.677 E.00885
G1 X105.576 Y123.631 E.02753
G1 X104.888 Y123.468 E.01884
G1 X104.247 Y123.15 E.01907
G1 X103.495 Y122.601 E.02481
G1 X103.034 Y122.008 E.02002
G1 X102.536 Y121.987 E.01328
G1 X101.415 Y121.499 E.03258
G1 X100.562 Y120.844 E.02866
G1 X99.902 Y119.821 E.03245
G1 X98.99 Y120.211 E.02643
G1 X97.877 Y120.467 E.03044
G1 X96.736 Y120.519 E.03044
G1 X95.603 Y120.367 E.03047
G1 X94.517 Y120.014 E.03043
G1 X93.51 Y119.474 E.03045
G1 X92.616 Y118.761 E.03048
G1 X91.864 Y117.901 E.03045
G1 X91.278 Y116.92 E.03045
G1 X90.876 Y115.85 E.03046
G1 X90.673 Y114.725 E.03047
G1 X90.673 Y113.583 E.03044
G1 X90.878 Y112.459 E.03045
G1 X91.28 Y111.389 E.03046
G1 X91.867 Y110.409 E.03045
G1 X92.619 Y109.55 E.03043
G1 X93.513 Y108.839 E.03044
G1 X94.519 Y108.299 E.03043
G1 X95.605 Y107.947 E.03043
G1 X95.779 Y107.924 E.00468
G1 X95.805 Y107.61 E.0084
G1 X96.178 Y106.575 E.02932
G1 X96.714 Y105.81 E.02489
G1 X96.794 Y105.743 E.00278
G1 X96.742 Y105.383 E.00969
G1 X96.794 Y104.68 E.01879
G1 X97.098 Y103.548 E.03124
G1 X97.815 Y102.631 E.03102
G1 X98.191 Y102.31 E.01318
G1 X98.325 Y101.745 E.01548
G1 X98.973 Y100.78 E.03098
G1 X99.837 Y100.013 E.03079
G1 X99.987 Y99.956 E.00428
G1 X100.571 Y99.135 E.02685
G1 X101.406 Y98.541 E.02731
G1 X102.201 Y98.207 E.02298
G1 X102.288 Y98.089 E.00391
G1 X103.164 Y97.309 E.03126
G1 X103.656 Y97.133 E.01393
G1 X103.653 Y95.825 E.03486
G1 X103.854 Y94.699 E.03048
G1 X104.254 Y93.627 E.03049
G1 X104.84 Y92.644 E.0305
G1 X105.592 Y91.78 E.03053
G1 X106.487 Y91.066 E.03051
G1 X107.495 Y90.523 E.03051
G1 X108.585 Y90.17 E.03054
G1 X109.72 Y90.017 E.03052
G1 X110.264 Y90.043 E.01451
G1 X109.977 Y99.961 F9000
G1 F1200
G1 X111.936 Y100.149 E.05245
G1 X113.821 Y100.716 E.05246
G1 X115.559 Y101.64 E.05246
G1 X117.083 Y102.885 E.05245
G1 X118.335 Y104.404 E.05246
G1 X119.266 Y106.137 E.05243
G1 X119.842 Y108.019 E.05245
G1 X120.039 Y109.977 E.05245
G1 X119.851 Y111.936 E.05245
G1 X119.284 Y113.821 E.05246
G1 X118.36 Y115.559 E.05246
G1 X117.115 Y117.083 E.05245
G1 X115.596 Y118.335 E.05246
G1 X113.863 Y119.266 E.05243
G1 X111.981 Y119.842 E.05245
G1 X110.023 Y120.039 E.05245
G1 X108.064 Y119.851 E.05245
G1 X106.179 Y119.284 E.05246
G1 X104.441 Y118.36 E.05246
G1 X102.917 Y117.115 E.05245
G1 X101.665 Y115.596 E.05246
G1 X100.734 Y113.863 E.05243
G1 X100.158 Y111.981 E.05245
G1 X99.961 Y110.023 E.05245
G1 X100.149 Y108.064 E.05245
G1 X100.716 Y106.179 E.05246
G1 X101.64 Y104.441 E.05246
G1 X102.885 Y102.917 E.05245
G1 X104.404 Y101.665 E.05246
G1 X106.137 Y100.734 E.05243
G1 X108.019 Y100.158 E.05245
G1 X109.921 Y99.966 E.05095
;WIPE_START
G1 F7200
G1 X108.019 Y100.158 E-.45402
G1 X106.626 Y100.584 E-.34598
;WIPE_END
G1 X125.709 Y121.752 F9000
G1 E.8 F1800
G1 F1200
G1 X126.957 Y119.969 E.058
G1 X127.347 Y119.158 E.02398
G1 X127.635 Y118.116 E.02881
G1 X127.679 Y117.622 E.01322
G1 X124.29 Y122.463 E.15749
G1 X123.567 Y122.772 E.02095
G1 X123.074 Y122.885 E.01348
G1 X127.667 Y116.324 E.21345
G1 X127.635 Y115.964 E.00963
G1 X127.455 Y115.313 E.018
G1 X122.049 Y123.033 E.25118
G1 X121.434 Y123.061 E.01641
G1 X121.137 Y123.021 E.00799
G1 X127.128 Y114.466 E.27835
G1 X126.879 Y113.948 E.01532
G1 X126.721 Y113.732 E.00713
G1 X120.303 Y122.897 E.29819
G1 X119.553 Y122.653 E.02102
G1 X126.252 Y113.086 E.31126
G1 X125.702 Y112.557 E.02034
G1 X118.861 Y122.327 E.31787
G1 X118.384 Y122.07 E.01444
G1 X118.215 Y121.935 E.00576
G1 X125.107 Y112.093 E.32022
G1 X124.561 Y111.732 E.01744
G1 X124.466 Y111.692 E.00275
G1 X117.244 Y122.007 E.33559
G1 X117.053 Y122.161 E.00654
G1 X116.399 Y122.421 E.01876
G1 X115.962 Y122.522 E.01195
G1 X123.903 Y111.181 E.36898
G1 X123.887 Y110.782 E.01064
G1 X123.817 Y110.582 E.00565
G1 X123.948 Y110.261 E.00924
G1 X123.986 Y109.749 E.01368
G1 X114.913 Y122.706 E.42156
G1 X114.663 Y122.96 E.0095
G1 X113.911 Y123.434 E.02369
G1 X113.338 Y123.64 E.01623
G1 X123.899 Y108.558 E.4907
G1 X123.872 Y108.433 E.00341
G1 X123.557 Y107.732 E.02048
G1 X119.902 Y112.951 E.16981
G1 X120.171 Y112.063 E.02473
G1 X120.273 Y111.106 E.02565
G1 X123.501 Y106.497 E.14997
G1 X123.51 Y106.203 E.00784
G1 X123.273 Y105.508 E.01957
G1 X120.351 Y109.681 E.13577
G1 X120.237 Y108.528 E.03088
G1 X122.883 Y104.749 E.12295
G1 X122.374 Y104.162 E.02071
G1 X120.038 Y107.498 E.10854
G1 X119.76 Y106.58 E.02556
G1 X122.023 Y103.348 E.10515
G1 X122.013 Y103.179 E.00451
G1 X121.806 Y102.514 E.01856
G1 X121.753 Y102.419 E.0029
G1 X119.434 Y105.731 E.10775
G1 X119.035 Y104.985 E.02255
G1 X121.338 Y101.697 E.10699
G1 X120.868 Y101.221 E.01783
G1 X120.789 Y101.166 E.00257
G1 X118.635 Y104.242 E.10008
G1 X118.141 Y103.633 E.0209
G1 X120.168 Y100.738 E.09419
G1 X120.112 Y100.7 E.0018
G1 X119.741 Y100.588 E.01033
G1 X119.615 Y100.213 E.01054
G1 X117.644 Y103.028 E.09158
G1 X117.366 Y102.689 E.01168
G1 X117.113 Y102.471 E.0089
G1 X119.182 Y99.517 E.09612
G1 X119.015 Y99.269 E.00797
G1 X118.649 Y98.963 E.01271
G1 X116.528 Y101.991 E.09853
G1 X115.944 Y101.512 E.02013
G1 X118.014 Y98.554 E.09622
G1 X117.782 Y98.425 E.00707
G1 X117.28 Y98.288 E.01387
G1 X115.299 Y101.117 E.09204
G1 X114.629 Y100.759 E.02025
G1 X116.462 Y98.142 E.08515
G1 X116.312 Y97.891 E.00779
G1 X115.962 Y97.541 E.01319
G1 X113.956 Y100.405 E.09319
G1 X113.198 Y100.173 E.02113
G1 X116.004 Y96.166 E.13037
G1 X115.931 Y95.323 E.02255
G1 X115.859 Y95.059 E.00729
G1 X112.439 Y99.943 E.1589
G1 X112.063 Y99.829 E.01047
G1 X111.633 Y99.779 E.01154
G1 X115.58 Y94.141 E.18342
G1 X115.207 Y93.359 E.02309
G1 X110.772 Y99.694 E.2061
G1 X110.039 Y99.622 E.01963
G1 X109.897 Y99.628 E.00379
G1 X114.747 Y92.703 E.22532
G1 X114.549 Y92.428 E.00903
G1 X114.232 Y92.123 E.01172
G1 X108.909 Y99.725 E.24733
G1 X107.91 Y99.837 E.02679
G1 X113.669 Y91.612 E.2676
G1 X113.041 Y91.194 E.02011
G1 X106.741 Y100.191 E.29272
G1 X106.065 Y100.397 E.01883
G1 X105.454 Y100.714 E.01835
G1 X112.355 Y90.859 E.32064
G1 X111.872 Y90.651 E.01402
G1 X111.62 Y90.593 E.00689
G1 X103.865 Y101.668 E.36033
G1 X102.634 Y102.689 E.04262
G1 X101.393 Y104.201 E.05213
G1 X100.427 Y105.992 E.05423
G1 X100.098 Y107.049 E.0295
G1 X92.417 Y118.018 E.35688
G1 X92.852 Y118.515 E.0176
G1 X92.94 Y118.586 E.00301
G1 X99.727 Y108.894 E.31534
G1 X99.622 Y109.961 E.02857
G1 X99.649 Y110.319 E.00957
G1 X93.531 Y119.057 E.28428
G1 X93.698 Y119.189 E.00567
G1 X94.178 Y119.447 E.01452
G1 X99.763 Y111.472 E.25948
G1 X99.813 Y111.986 E.01376
G1 X99.962 Y112.502 E.01431
G1 X94.871 Y119.773 E.23656
G1 X95.622 Y120.016 E.02104
G1 X100.24 Y113.42 E.21459
G1 X100.397 Y113.935 E.01435
G1 X100.566 Y114.269 E.00998
G1 X96.456 Y120.139 E.19098
G1 X96.751 Y120.179 E.00793
G1 X97.369 Y120.15 E.01649
G1 X100.965 Y115.015 E.16707
G1 X101.365 Y115.758 E.02249
G1 X98.395 Y120 E.13801
G1 X98.884 Y119.887 E.01338
G1 X99.613 Y119.575 E.02113
G1 X101.859 Y116.367 E.10437
G1 X102.356 Y116.972 E.02087
G1 X100.332 Y119.862 E.09403
G1 X100.774 Y120.547 E.02173
G1 X102.887 Y117.529 E.09819
G1 X103.472 Y118.009 E.02017
G1 X101.358 Y121.027 E.0982
G1 X101.588 Y121.205 E.00775
G1 X102.022 Y121.393 E.01261
G1 X104.056 Y118.488 E.09451
G1 X104.267 Y118.651 E.00711
G1 X104.701 Y118.883 E.01312
G1 X102.758 Y121.657 E.09026
G1 X103.206 Y121.676 E.01195
G1 X103.448 Y121.987 E.0105
G1 X105.371 Y119.241 E.08934
G1 X106.044 Y119.595 E.02027
G1 X103.983 Y122.537 E.09573
G1 X104.424 Y122.859 E.01455
G1 X104.613 Y122.953 E.00563
G1 X106.802 Y119.827 E.10171
G1 X107.561 Y120.057 E.02114
G1 X105.342 Y123.227 E.10313
G1 X105.623 Y123.294 E.0077
G1 X106.198 Y123.319 E.01534
G1 X108.367 Y120.221 E.10079
G1 X109.228 Y120.306 E.02306
G1 X107.125 Y123.31 E.09773
G1 X107.719 Y123.671 E.01853
G1 X107.779 Y123.69 E.00168
G1 X110.103 Y120.372 E.10796
G1 X111.091 Y120.275 E.02646
G1 X108.532 Y123.93 E.11891
G1 X108.803 Y124.016 E.00758
G1 X109.423 Y123.973 E.01656
G1 X112.09 Y120.163 E.12395
G1 X113.259 Y119.809 E.03255
G1 X110.516 Y123.726 E.12744
G1 X110.83 Y123.61 E.00892
G1 X111.049 Y123.45 E.00723
G1 X111.486 Y123.656 E.01288
G1 X114.546 Y119.286 E.14218
G1 X115.733 Y118.651 E.03588
G1 X116.135 Y118.332 E.01368
G1 X112.238 Y123.897 E.18106
G1 X91.839 Y117.529 F9000
G1 F1200
G1 X110.828 Y90.41 E.88232
G1 X109.937 Y90.367 E.02377
G1 X91.537 Y116.645 E.85496
G1 X91.216 Y115.789 E.02436
G1 X108.949 Y90.463 E.82398
G1 X108.66 Y90.502 E.00777
G1 X107.808 Y90.779 E.02388
G1 X103.993 Y96.226 E.17723
G1 X103.992 Y95.855 E.00989
G1 X104.183 Y94.789 E.02886
G1 X104.301 Y94.471 E.00904
G1 X106.59 Y91.203 E.10634
;WIPE_START
G1 F7200
G1 X104.658 Y93.962 E-.8
;WIPE_END
G1 X90.885 Y114.947 F9000
G1 E.8 F1800
G1 F1200
G1 X95.516 Y108.333 E.21518
G1 X94.652 Y108.612 E.0242
G1 X94.248 Y108.83 E.01223
G1 X90.843 Y113.692 E.15819
G1 X95.969 Y107.686 F9000
G1 F1200
G1 X102.41 Y98.487 E.29929
G1 X101.572 Y98.839 E.02422
G1 X100.916 Y99.306 E.02146
G1 X96.942 Y104.982 E.18466
;WIPE_START
G1 F7200
G1 X98.874 Y102.223 E-.8
;WIPE_END
G1 X101.531 Y108.223 F9000
G1 E.8 F1800
;TYPE:External perimeter
G1 F1200
G1 X101.997 Y106.685 E.04283
G1 X102.798 Y105.188 E.04525
G1 X103.875 Y103.875 E.04526
G1 X105.188 Y102.798 E.04526
G1 X106.685 Y101.997 E.04525
G1 X108.31 Y101.504 E.04526
G1 X110 Y101.338 E.04526
G1 X111.69 Y101.504 E.04526
G1 X113.315 Y101.997 E.04526
G1 X114.812 Y102.798 E.04525
G1 X116.125 Y103.875 E.04526
G1 X117.202 Y105.188 E.04526
G1 X118.003 Y106.685 E.04525
G1 X118.496 Y108.31 E.04526
G1 X118.662 Y110 E.04526
G1 X118.496 Y111.69 E.04526
G1 X118.003 Y113.315 E.04526
G1 X117.202 Y114.812 E.04525
G1 X116.125 Y116.125 E.04526
G1 X114.812 Y117.202 E.04526
G1 X113.315 Y118.003 E.04525
G1 X111.69 Y118.496 E.04526
G1 X110 Y118.662 E.04526
G1 X108.31 Y118.496 E.04526
G1 X106.685 Y118.003 E.04526
G1 X105.188 Y117.202 E.04525
G1 X103.875 Y116.125 E.04526
G1 X102.798 Y114.812 E.04526
G1 X101.997 Y113.315 E.04525
G1 X101.504 Y111.69 E.04526
G1 X101.338 Y110 E.04526
G1 X101.513 Y108.28 E.04608
G1 X101.231 Y107.959 F9000
;WIPE_START
G1 F7200
