; generated by PrusaSlicer 2.6.1+win64 on 2024-01-27 at 13:20:37 UTC

; 

; external perimeters extrusion width = 0.42mm
; perimeters extrusion width = 0.44mm
; infill extrusion width = 0.44mm
; solid infill extrusion width = 0.44mm
; top infill extrusion width = 0.40mm
; support material extrusion width = 0.36mm
; first layer extrusion width = 0.42mm

M201 X500 Y500 Z100 E5000 ; sets maximum accelerations, mm/sec^2
M203 X500 Y500 Z10 E60 ; sets maximum feedrates, mm / sec
M204 S500 T1000 ; sets acceleration (S) and retract acceleration (R), mm/sec^2
M205 X8.00 Y8.00 Z0.40 E5.00 ; sets the jerk limits, mm/sec
M205 S0 T0 ; sets the minimum extruding and travel feed rate, mm/sec
;TYPE:Custom
G90 ; use absolute coordinates
M83 ; extruder relative mode
M104 S150 ; set temporary nozzle temp to prevent oozing during homing
M140 S60 ; set final bed temp
G4 S30 ; allow partial nozzle warmup
G28 ; home all axis and restore leveling
G1 Z50 F240
G1 X2.0 Y10 F3000
M104 S215 ; set final nozzle temp
M190 S60 ; wait for bed temp to stabilize
M109 S215 ; wait for nozzle temp to stabilize
G1 Z0.28 F240
G92 E0
G1 X2.0 Y140 E10 F1500 ; prime the nozzle
G1 X2.3 Y140 F5000
G92 E0
G1 X2.3 Y10 E10 F1200 ; prime the nozzle
G92 E0
G21 ; set units to millimeters
G90 ; use absolute coordinates
M83 ; use relative distances for extrusion
; Filament gcode
M107
;LAYER_CHANGE
;Z:0.2
;HEIGHT:0.2
;BEFORE_LAYER_CHANGE
G92 E0
;0.2


G1 E-.8 F1800
G1 Z.2 F9000
;AFTER_LAYER_CHANGE
;0.2
G1 X92.583 Y98.504
G1 E.8 F1800
M204 S500
;TYPE:Skirt/Brim
;WIDTH:0.42
G1 F1200
G1 X93.475 Y97.792 E.03042
G1 X95.041 Y96.88 E.0483
G1 X96.882 Y96.221 E.05211
G1 X114.412 Y91.249 E.48562
G1 X116.064 Y90.987 E.04458
G1 X117.878 Y91.008 E.04835
G1 X118.545 Y91.099 E.01794
G1 X120.299 Y91.562 E.04835
G1 X121.349 Y92.011 E.03043
G1 X122.895 Y92.96 E.04835
G1 X123.421 Y93.38 E.01794
G1 X124.689 Y94.676 E.04832
G1 X125.704 Y96.178 E.04831
G1 X126.435 Y97.837 E.04832
G1 X126.858 Y99.6 E.04832
G1 X126.963 Y101.375 E.04739
G1 X125.917 Y114.303 E.34567
G1 X125.531 Y115.682 E.03816
G1 X121.359 Y124.006 E.24815
G1 X120.374 Y125.451 E.04661
G1 X119.931 Y125.96 E.01798
G1 X118.579 Y127.172 E.04839
G1 X117.625 Y127.804 E.0305
G1 X115.98 Y128.574 E.04841
G1 X115.339 Y128.783 E.01797
G1 X113.555 Y129.129 E.04843
G1 X112.412 Y129.181 E.03049
G1 X110.604 Y128.996 E.04844
G1 X109.947 Y128.846 E.01796
G1 X108.239 Y128.226 E.04843
G1 X107.232 Y127.683 E.03049
G1 X105.776 Y126.596 E.04843
G1 X92.287 Y113.315 E.5045
G1 X91.345 Y112.252 E.03785
G1 X90.365 Y110.728 E.04829
G1 X89.672 Y109.053 E.04831
G1 X89.493 Y108.404 E.01794
G1 X89.229 Y106.611 E.0483
G1 X89.289 Y104.8 E.04829
G1 X89.493 Y103.677 E.03042
G1 X89.672 Y103.028 E.01794
G1 X90.365 Y101.353 E.04831
G1 X91.345 Y99.829 E.04829
G1 X92.542 Y98.548 E.04673
G1 X92.815 Y98.802 F9000
G1 F1200
G1 X93.71 Y98.087 E.03053
G1 X95.22 Y97.212 E.04651
G1 X96.985 Y96.584 E.04993
G1 X114.514 Y91.611 E.4856
G1 X116.115 Y91.361 E.04319
G1 X117.861 Y91.385 E.04654
G1 X118.461 Y91.466 E.01614
G1 X120.151 Y91.908 E.04656
G1 X121.201 Y92.357 E.03043
G1 X122.687 Y93.274 E.04654
G1 X123.16 Y93.652 E.01614
G1 X124.383 Y94.898 E.04653
G1 X125.364 Y96.342 E.04653
G1 X126.072 Y97.938 E.04653
G1 X126.483 Y99.634 E.04651
G1 X126.587 Y101.344 E.04566
G1 X125.541 Y114.272 E.34567
G1 X125.194 Y115.513 E.03434
G1 X121.022 Y123.837 E.24815
G1 X120.068 Y125.23 E.045
G1 X119.67 Y125.687 E.01615
G1 X118.371 Y126.858 E.04661
G1 X117.417 Y127.489 E.03048
G1 X115.832 Y128.228 E.04661
G1 X115.255 Y128.416 E.01617
G1 X113.538 Y128.752 E.04663
G1 X112.395 Y128.804 E.03049
G1 X110.655 Y128.623 E.04662
G1 X110.063 Y128.487 E.01619
G1 X108.418 Y127.894 E.0466
G1 X107.411 Y127.351 E.03049
G1 X106.012 Y126.302 E.0466
G1 X92.552 Y113.046 E.50348
G1 X91.629 Y112.004 E.0371
G1 X90.689 Y110.535 E.04648
G1 X90.025 Y108.921 E.04651
G1 X89.864 Y108.337 E.01614
G1 X89.606 Y106.611 E.04651
G1 X89.606 Y105.47 E.03041
G1 X89.864 Y103.744 E.04651
G1 X90.426 Y102.092 E.04651
G1 X91.274 Y100.567 E.0465
G1 X91.63 Y100.077 E.01614
G1 X92.774 Y98.846 E.04479
; printing object headsetcablehook-1.0.stl id:0 copy 0
;WIPE_START
G1 F7200
G1 X93.71 Y98.087 E-.2862
G1 X95.22 Y97.212 E-.41449
G1 X95.614 Y97.072 E-.09931
;WIPE_END
G1 X99.521 Y99.701 F9000
G1 E.8 F1800
;TYPE:Support material
G1 F1200
G1 X100.178 Y99.73 E.01753
G1 X101.292 Y99.984 E.03045
G1 X102.342 Y100.432 E.03042
G1 X103.295 Y101.061 E.03043
G1 X104.12 Y101.85 E.03042
G1 X104.792 Y102.774 E.03045
G1 X105.287 Y103.803 E.03043
G1 X105.591 Y104.903 E.03042
G1 X105.64 Y105.438 E.01432
G1 X105.458 Y105.481 E.00498
G1 X105.166 Y105.688 E.00954
G1 X105.063 Y105.888 E.006
G1 X105.063 Y108.745 E.07614
G1 X104.792 Y109.308 E.01665
G1 X104.12 Y110.231 E.03043
G1 X103.295 Y111.02 E.03042
G1 X102.342 Y111.649 E.03043
G1 X101.292 Y112.098 E.03043
G1 X100.179 Y112.351 E.03042
G1 X99.038 Y112.402 E.03044
G1 X97.907 Y112.249 E.03042
G1 X96.821 Y111.896 E.03043
G1 X95.816 Y111.354 E.03043
G1 X94.924 Y110.643 E.0304
G1 X94.173 Y109.783 E.03043
G1 X93.588 Y108.803 E.03042
G1 X93.187 Y107.734 E.03043
G1 X92.983 Y106.611 E.03042
G1 X92.983 Y105.47 E.03041
G1 X93.187 Y104.347 E.03042
G1 X93.588 Y103.278 E.03043
G1 X94.173 Y102.299 E.03039
G1 X94.924 Y101.439 E.03043
G1 X95.816 Y100.727 E.03042
G1 X96.821 Y100.186 E.03042
G1 X97.907 Y99.833 E.03043
G1 X99.038 Y99.679 E.03042
G1 X99.465 Y99.698 E.01139
G1 X102.716 Y111.199 F9000
G1 F1200
G1 X104.724 Y108.332 E.09329
G1 X104.724 Y107.017 E.03505
G1 X101.481 Y111.648 E.15067
G1 X101.187 Y111.774 E.00852
G1 X100.337 Y111.967 E.02323
G1 X105.252 Y104.948 E.22837
G1 X104.991 Y104.005 E.02608
G1 X99.359 Y112.048 E.26168
G1 X99.053 Y112.062 E.00816
G1 X98.483 Y111.984 E.01533
G1 X104.626 Y103.212 E.28541
G1 X104.499 Y102.948 E.00781
G1 X104.189 Y102.521 E.01406
G1 X97.679 Y111.818 E.30248
G1 X96.932 Y111.57 E.02098
G1 X103.695 Y101.912 E.31423
G1 X103.143 Y101.385 E.02034
G1 X96.264 Y111.21 E.31965
G1 X96.004 Y111.07 E.00787
G1 X95.643 Y110.782 E.01231
G1 X102.522 Y100.958 E.31963
G1 X102.18 Y100.732 E.01093
G1 X101.856 Y100.594 E.00939
G1 X95.066 Y110.29 E.31547
G1 X94.556 Y109.705 E.02068
G1 X101.142 Y100.298 E.30604
G1 X100.348 Y100.117 E.0217
G1 X94.114 Y109.021 E.28968
G1 X93.895 Y108.655 E.01137
G1 X93.739 Y108.241 E.01179
G1 X99.482 Y100.039 E.26685
G1 X99.054 Y100.02 E.01142
G1 X98.525 Y100.091 E.01422
G1 X93.458 Y107.328 E.23545
G1 X93.323 Y106.581 E.02023
G1 X93.323 Y106.206 E.00999
G1 X97.426 Y100.346 E.19065
G1 X96.955 Y100.499 E.0132
G1 X96.061 Y100.981 E.02707
G1 X93.239 Y105.011 E.13112
;WIPE_START
G1 F7200
G1 X95.171 Y102.252 E-.8
;WIPE_END
G1 X117.317 Y114.87 F9000
G1 E.8 F1800
G1 F1200
G1 X117.989 Y115.791 E.03038
G1 X118.486 Y116.818 E.03041
G1 X118.792 Y117.917 E.0304
G1 X118.898 Y119.054 E.03043
G1 X118.798 Y120.191 E.03042
G1 X118.496 Y121.293 E.03045
G1 X118.003 Y122.324 E.03046
G1 X117.332 Y123.25 E.03048
G1 X116.507 Y124.042 E.03048
G1 X115.553 Y124.673 E.03048
G1 X114.502 Y125.124 E.03048
G1 X113.386 Y125.379 E.03051
G1 X112.243 Y125.43 E.03049
G1 X111.109 Y125.276 E.0305
G1 X110.021 Y124.922 E.03049
G1 X109.015 Y124.379 E.03047
G1 X108.121 Y123.664 E.03051
G1 X107.37 Y122.802 E.03047
G1 X106.786 Y121.82 E.03045
G1 X106.387 Y120.749 E.03046
G1 X106.186 Y119.625 E.03043
G1 X106.188 Y118.483 E.03044
G1 X106.395 Y117.36 E.03043
G1 X106.798 Y116.293 E.0304
G1 X107.385 Y115.316 E.03038
G1 X108.046 Y114.562 E.02672
G1 X116.994 Y114.562 E.23847
G1 X117.276 Y114.831 E.01039
G1 X115.49 Y124.511 F9000
G1 F1200
G1 X118.402 Y120.353 E.13529
G1 X118.462 Y120.131 E.00613
G1 X118.557 Y119.054 E.02881
G1 X118.537 Y118.845 E.0056
G1 X114.362 Y124.807 E.19398
G1 X113.276 Y125.044 E.02962
G1 X118.391 Y117.739 E.23767
G1 X118.168 Y116.938 E.02216
G1 X118.112 Y116.823 E.00341
G1 X112.325 Y125.087 E.26888
G1 X111.477 Y124.984 E.02277
G1 X117.735 Y116.046 E.29079
G1 X117.697 Y115.967 E.00234
G1 X117.275 Y115.388 E.01909
G1 X110.696 Y124.785 E.30572
G1 X110.156 Y124.609 E.01514
G1 X109.969 Y124.508 E.00566
G1 X116.695 Y114.901 E.31255
G1 X115.775 Y114.901 E.02452
G1 X109.3 Y124.147 E.30083
G1 X109.203 Y124.095 E.00293
G1 X108.699 Y123.692 E.0172
G1 X114.854 Y114.901 E.28601
G1 X113.933 Y114.901 E.02455
G1 X108.142 Y123.172 E.26909
G1 X107.635 Y122.582 E.02073
G1 X113.013 Y114.901 E.2499
G1 X112.092 Y114.901 E.02455
G1 X107.212 Y121.871 E.22676
G1 X107.093 Y121.672 E.00618
G1 X106.863 Y121.054 E.01757
G1 X111.171 Y114.901 E.20018
G1 X110.251 Y114.901 E.02452
G1 X106.615 Y120.094 E.16895
G1 X106.525 Y119.595 E.01351
G1 X106.527 Y118.905 E.01839
G1 X109.33 Y114.901 E.13026
G1 X108.409 Y114.901 E.02455
G1 X106.525 Y117.593 E.08757
;WIPE_START
G1 F7200
G1 X108.409 Y114.901 E-.78037
G1 X108.492 Y114.901 E-.01963
;WIPE_END
G1 X117.216 Y94.736 F9000
G1 E.8 F1800
G1 F1200
G1 X117.709 Y94.759 E.01315
G1 X118.822 Y95.013 E.03043
G1 X119.872 Y95.462 E.03043
G1 X120.825 Y96.092 E.03045
G1 X121.65 Y96.881 E.03042
G1 X122.321 Y97.805 E.03043
G1 X122.816 Y98.834 E.03043
G1 X123.119 Y99.935 E.03043
G1 X123.221 Y101.072 E.03042
G1 X123.118 Y102.209 E.03043
G1 X122.814 Y103.309 E.03042
G1 X122.318 Y104.337 E.03042
G1 X121.647 Y105.26 E.03041
G1 X121.461 Y105.438 E.00686
G1 X112.248 Y105.438 E.24554
G1 X111.703 Y104.814 E.02208
G1 X111.117 Y103.835 E.03041
G1 X110.715 Y102.766 E.03044
G1 X110.51 Y101.643 E.03042
G1 X110.51 Y100.501 E.03044
G1 X110.713 Y99.377 E.03044
G1 X111.114 Y98.308 E.03043
G1 X111.7 Y97.327 E.03045
G1 X112.451 Y96.467 E.03043
G1 X113.344 Y95.755 E.03044
G1 X114.35 Y95.213 E.03045
G1 X115.436 Y94.86 E.03043
G1 X116.568 Y94.707 E.03044
G1 X117.159 Y94.734 E.01577
G1 X120.678 Y105.268 F9000
G1 F1200
G1 X122.73 Y102.339 E.09531
G1 X122.783 Y102.148 E.00528
G1 X122.88 Y101.072 E.02879
G1 X122.859 Y100.839 E.00623
G1 X119.877 Y105.099 E.13859
G1 X118.956 Y105.099 E.02455
G1 X122.712 Y99.735 E.17452
G1 X122.497 Y98.954 E.02159
G1 X122.432 Y98.819 E.00399
G1 X118.035 Y105.099 E.20432
G1 X117.115 Y105.099 E.02452
G1 X122.057 Y98.04 E.22965
G1 X121.596 Y97.384 E.02137
G1 X116.194 Y105.099 E.25101
G1 X115.273 Y105.099 E.02455
G1 X121.08 Y96.806 E.26982
G1 X120.613 Y96.358 E.01725
G1 X120.517 Y96.295 E.00306
G1 X114.353 Y105.099 E.28643
G1 X113.432 Y105.099 E.02455
G1 X119.888 Y95.879 E.29997
G1 X119.711 Y95.762 E.00565
G1 X119.201 Y95.544 E.01478
G1 X112.511 Y105.099 E.31087
G1 X112.402 Y105.099 E.0029
G1 X111.956 Y104.577 E.0183
G1 X118.466 Y95.28 E.30248
G1 X117.672 Y95.098 E.02171
G1 X111.532 Y103.868 E.28532
G1 X111.424 Y103.687 E.00562
G1 X111.184 Y103.05 E.01814
G1 X116.781 Y95.056 E.26008
G1 X116.583 Y95.048 E.00528
G1 X115.791 Y95.155 E.0213
G1 X110.937 Y102.088 E.22556
G1 X110.85 Y101.612 E.0129
G1 X110.85 Y100.898 E.01903
G1 X114.648 Y95.473 E.17649
G1 X114.484 Y95.527 E.0046
G1 X113.532 Y96.039 E.02881
G1 X113.077 Y96.402 E.01551
G1 X110.848 Y99.585 E.10356
;WIPE_START
G1 F7200
G1 X112.78 Y96.826 E-.8
;WIPE_END
G1 X106.589 Y106.964 F9000
G1 E.8 F1800
;TYPE:Perimeter
G1 F1200
G1 X120.911 Y106.964 E.3817
G1 X120.911 Y113.036 E.16183
G1 X106.589 Y113.036 E.3817
G1 X106.589 Y107.024 E.16023
G1 X106.212 Y106.587 F9000
G1 F1200
G1 X121.288 Y106.587 E.40179
G1 X121.288 Y113.413 E.18192
G1 X106.212 Y113.413 E.40179
G1 X106.212 Y106.647 E.18032
G1 X105.835 Y106.21 F9000
;TYPE:External perimeter
G1 F1200
G1 X121.665 Y106.21 E.42189
G1 X121.665 Y113.79 E.20202
G1 X105.835 Y113.79 E.42189
G1 X105.835 Y106.27 E.20042
G1 X106.231 Y106.269 F9000
;WIPE_START
G1 F7200
G1 X109.203 Y106.257 E-.8
;WIPE_END
G1 X120.018 Y107.085 F9000
G1 E.8 F1800
;TYPE:Solid infill
;WIDTH:0.424874
G1 F1200
G1 X120.62 Y107.688 E.023
G1 X120.62 Y108.228 E.01458
G1 X119.647 Y107.255 E.03715
G1 X119.107 Y107.255 E.01458
G1 X120.62 Y108.768 E.05776
G1 X120.62 Y109.308 E.01458
G1 X118.567 Y107.255 E.07838
G1 X118.027 Y107.255 E.01458
G1 X120.62 Y109.848 E.09899
G1 X120.62 Y110.389 E.0146
G1 X117.486 Y107.255 E.11965
G1 X116.946 Y107.255 E.01458
G1 X120.62 Y110.929 E.14026
G1 X120.62 Y111.469 E.01458
G1 X116.406 Y107.255 E.16088
G1 X115.866 Y107.255 E.01458
G1 X120.62 Y112.009 E.1815
G1 X120.62 Y112.549 E.01458
G1 X115.326 Y107.255 E.20211
G1 X114.786 Y107.255 E.01458
G1 X120.277 Y112.746 E.20963
G1 X119.736 Y112.746 E.0146
G1 X114.245 Y107.255 E.20963
G1 X113.705 Y107.255 E.01458
G1 X119.196 Y112.746 E.20963
G1 X118.656 Y112.746 E.01458
G1 X113.165 Y107.255 E.20963
G1 X112.625 Y107.255 E.01458
G1 X118.116 Y112.746 E.20963
G1 X117.576 Y112.746 E.01458
G1 X112.085 Y107.255 E.20963
G1 X111.545 Y107.255 E.01458
G1 X117.036 Y112.746 E.20963
G1 X116.495 Y112.746 E.0146
G1 X111.004 Y107.255 E.20963
G1 X110.464 Y107.255 E.01458
G1 X115.955 Y112.746 E.20963
G1 X115.415 Y112.746 E.01458
G1 X109.924 Y107.255 E.20963
G1 X109.384 Y107.255 E.01458
G1 X114.875 Y112.746 E.20963
G1 X114.335 Y112.746 E.01458
G1 X108.844 Y107.255 E.20963
G1 X108.304 Y107.255 E.01458
G1 X113.795 Y112.746 E.20963
G1 X113.254 Y112.746 E.0146
G1 X107.763 Y107.255 E.20963
G1 X107.223 Y107.255 E.01458
G1 X112.714 Y112.746 E.20963
G1 X112.174 Y112.746 E.01458
G1 X106.88 Y107.451 E.20213
G1 X106.88 Y107.991 E.01458
G1 X111.634 Y112.746 E.18152
G1 X111.094 Y112.746 E.01458
G1 X106.88 Y108.531 E.1609
G1 X106.88 Y109.071 E.01458
G1 X110.554 Y112.746 E.14028
G1 X110.013 Y112.746 E.0146
G1 X106.88 Y109.612 E.11963
G1 X106.88 Y110.152 E.01458
G1 X109.473 Y112.746 E.09901
G1 X108.933 Y112.746 E.01458
G1 X106.88 Y110.692 E.0784
G1 X106.88 Y111.232 E.01458
G1 X108.393 Y112.746 E.05778
G1 X107.853 Y112.746 E.01458
G1 X106.88 Y111.772 E.03717
G1 X106.88 Y112.312 E.01458
G1 X107.482 Y112.915 E.023
; stop printing object headsetcablehook-1.0.stl id:0 copy 0
M106 S255
;LAYER_CHANGE
;Z:0.4
;HEIGHT:0.2
;BEFORE_LAYER_CHANGE
G92 E0
;0.4


;WIPE_START
G1 F7200
G1 X106.88 Y112.312 E-.20237
G1 X106.88 Y111.772 E-.12825
G1 X107.853 Y112.746 E-.32698
G1 X108.393 Y112.746 E-.12825
G1 X108.351 Y112.704 E-.01415
;WIPE_END
G1 Z.4 F9000
;AFTER_LAYER_CHANGE
;0.4
G1 X100.138 Y121.045
G1 E.8 F1800
;TYPE:Skirt/Brim
;WIDTH:0.42
G1 F2400
G1 X92.287 Y113.315 E.29364
G1 X91.345 Y112.252 E.03785
G1 X90.365 Y110.728 E.04829
G1 X89.672 Y109.053 E.04831
G1 X89.493 Y108.404 E.01794
G1 X89.229 Y106.611 E.0483
G1 X89.289 Y104.8 E.04829
G1 X89.493 Y103.677 E.03042
G1 X89.672 Y103.028 E.01794
G1 X90.365 Y101.353 E.04831
G1 X91.345 Y99.829 E.04829
G1 X92.583 Y98.504 E.04833
G1 X93.475 Y97.792 E.03042
G1 X95.041 Y96.88 E.0483
G1 X96.882 Y96.221 E.05211
G1 X114.412 Y91.249 E.48562
G1 X116.064 Y90.987 E.04458
G1 X117.878 Y91.008 E.04835
G1 X118.545 Y91.099 E.01794
G1 X120.299 Y91.562 E.04835
G1 X121.349 Y92.011 E.03043
G1 X122.895 Y92.96 E.04835
G1 X123.421 Y93.38 E.01794
G1 X124.689 Y94.676 E.04832
G1 X125.704 Y96.178 E.04831
G1 X126.435 Y97.837 E.04832
G1 X126.858 Y99.6 E.04832
G1 X126.963 Y101.375 E.04739
G1 X125.917 Y114.303 E.34567
G1 X125.531 Y115.682 E.03816
G1 X121.359 Y124.006 E.24815
G1 X120.374 Y125.451 E.04661
G1 X119.931 Y125.96 E.01798
G1 X118.579 Y127.172 E.04839
G1 X117.625 Y127.804 E.0305
G1 X115.98 Y128.574 E.04841
G1 X115.339 Y128.783 E.01797
G1 X113.555 Y129.129 E.04843
G1 X112.412 Y129.181 E.03049
G1 X110.604 Y128.996 E.04844
G1 X109.947 Y128.846 E.01796
G1 X108.239 Y128.226 E.04843
G1 X107.232 Y127.683 E.03049
G1 X105.776 Y126.596 E.04843
G1 X100.181 Y121.087 E.20926
G1 X100.445 Y120.819 F9000
G1 F2400
G1 X92.552 Y113.046 E.29524
G1 X91.629 Y112.004 E.0371
G1 X90.689 Y110.535 E.04648
G1 X90.025 Y108.921 E.04651
G1 X89.864 Y108.337 E.01614
G1 X89.606 Y106.611 E.04651
G1 X89.606 Y105.47 E.03041
G1 X89.864 Y103.744 E.04651
G1 X90.426 Y102.092 E.04651
G1 X91.274 Y100.567 E.0465
G1 X91.63 Y100.077 E.01614
G1 X92.818 Y98.799 E.0465
G1 X93.71 Y98.087 E.03042
G1 X95.22 Y97.212 E.04651
G1 X96.985 Y96.584 E.04993
G1 X114.514 Y91.611 E.4856
G1 X116.115 Y91.361 E.04319
G1 X117.861 Y91.385 E.04654
G1 X118.461 Y91.466 E.01614
G1 X120.151 Y91.908 E.04656
G1 X121.201 Y92.357 E.03043
G1 X122.687 Y93.274 E.04654
G1 X123.16 Y93.652 E.01614
G1 X124.383 Y94.898 E.04653
G1 X125.364 Y96.342 E.04653
G1 X126.072 Y97.938 E.04653
G1 X126.483 Y99.634 E.04651
G1 X126.587 Y101.344 E.04566
G1 X125.541 Y114.272 E.34567
