; generated by PrusaSlicer 2.6.1+win64 on 2024-01-27 at 17:19:28 UTC

; 

; external perimeters extrusion width = 0.42mm
; perimeters extrusion width = 0.44mm
; infill extrusion width = 0.44mm
; solid infill extrusion width = 0.44mm
; top infill extrusion width = 0.40mm
; support material extrusion width = 0.36mm
; first layer extrusion width = 0.42mm

; external perimeters extrusion width = 0.42mm
; perimeters extrusion width = 0.44mm
; infill extrusion width = 0.44mm
; solid infill extrusion width = 0.44mm
; top infill extrusion width = 0.40mm
; support material extrusion width = 0.36mm
; first layer extrusion width = 0.42mm

M201 X500 Y500 Z100 E5000 ; sets maximum accelerations, mm/sec^2
M203 X500 Y500 Z10 E60 ; sets maximum feedrates, mm / sec
M204 S500 T1000 ; sets acceleration (S) and retract acceleration (R), mm/sec^2
M205 X8.00 Y8.00 Z0.40 E5.00 ; sets the jerk limits, mm/sec
M205 S0 T0 ; sets the minimum extruding and travel feed rate, mm/sec
;TYPE:Custom
G90 ; use absolute coordinates
M83 ; extruder relative mode
M104 S150 ; set temporary nozzle temp to prevent oozing during homing
M140 S60 ; set final bed temp
G4 S30 ; allow partial nozzle warmup
G28 ; home all axis and restore leveling
G1 Z50 F240
G1 X2.0 Y10 F3000
M104 S215 ; set final nozzle temp
M190 S60 ; wait for bed temp to stabilize
M109 S215 ; wait for nozzle temp to stabilize
G1 Z0.28 F240
G92 E0
G1 X2.0 Y140 E10 F1500 ; prime the nozzle
G1 X2.3 Y140 F5000
G92 E0
G1 X2.3 Y10 E10 F1200 ; prime the nozzle
G92 E0
G21 ; set units to millimeters
G90 ; use absolute coordinates
M83 ; use relative distances for extrusion
; Filament gcode
M107
;LAYER_CHANGE
;Z:0.2
;HEIGHT:0.2
;BEFORE_LAYER_CHANGE
G92 E0
;0.2


G1 E-.8 F1800
G1 Z.2 F9000
;AFTER_LAYER_CHANGE
;0.2
G1 X91.601 Y90.768
G1 E.8 F1800
M204 S500
;TYPE:Skirt/Brim
;WIDTH:0.42
G1 F1200
G1 X93.211 Y89.698 E.05152
G1 X95 Y88.986 E.05132
G1 X96.86 Y88.661 E.05032
G1 X97.923 Y88.655 E.02833
G1 X99.329 Y88.799 E.03767
G1 X117.208 Y92.733 E.48789
G1 X119.111 Y93.301 E.05293
G1 X120.941 Y94.048 E.05268
G1 X122.313 Y95.088 E.04588
G1 X122.787 Y95.82 E.02324
G1 X129.021 Y108.448 E.37533
G1 X129.315 Y109.275 E.02339
G1 X129.654 Y110.763 E.04067
G1 X129.654 Y112.433 E.04451
G1 X129.315 Y113.922 E.0407
G1 X128.59 Y115.427 E.04452
G1 X127.37 Y116.922 E.05143
G1 X113.775 Y130.644 E.5148
G1 X112.737 Y131.384 E.03397
G1 X111.362 Y132.046 E.04067
G1 X109.733 Y132.418 E.04453
G1 X108.207 Y132.418 E.04067
G1 X106.578 Y132.046 E.04453
G1 X105.203 Y131.384 E.04067
G1 X104.23 Y130.708 E.03158
G1 X94.549 Y121.4 E.35792
G1 X93.648 Y120.045 E.04337
G1 X93.043 Y118.356 E.04781
G1 X88.562 Y100.409 E.49299
G1 X88.267 Y98.763 E.04457
G1 X88.235 Y97.607 E.03082
G1 X88.297 Y96.81 E.02131
G1 X88.514 Y95.648 E.0315
G1 X88.742 Y94.888 E.02115
G1 X89.195 Y93.806 E.03126
G1 X90.241 Y92.157 E.05204
G1 X91.559 Y90.811 E.05021
G1 X91.827 Y91.075 F9000
G1 F1200
G1 X93.407 Y90.02 E.05063
G1 X95.124 Y89.342 E.0492
G1 X96.91 Y89.035 E.0483
G1 X97.902 Y89.031 E.02644
G1 X99.248 Y89.167 E.03606
G1 X117.125 Y93.101 E.48784
G1 X118.993 Y93.659 E.05196
G1 X120.788 Y94.393 E.05168
G1 X122.449 Y95.987 E.06135
G1 X128.683 Y108.615 E.37533
G1 X128.947 Y109.359 E.02104
G1 X129.287 Y110.847 E.04068
G1 X129.287 Y112.35 E.04006
G1 X128.947 Y113.838 E.04068
G1 X128.295 Y115.192 E.04005
G1 X127.102 Y116.656 E.05033
G1 X113.507 Y130.378 E.5148
G1 X112.574 Y131.044 E.03055
G1 X111.198 Y131.706 E.0407
G1 X109.733 Y132.041 E.04005
G1 X108.207 Y132.041 E.04067
G1 X106.741 Y131.706 E.04008
G1 X105.366 Y131.044 E.04067
G1 X104.491 Y130.436 E.0284
G1 X94.81 Y121.128 E.35792
G1 X94 Y119.909 E.03901
G1 X93.401 Y118.237 E.04733
G1 X88.93 Y100.328 E.49194
G1 X88.644 Y98.753 E.04266
G1 X88.668 Y96.88 E.04992
G1 X88.885 Y95.718 E.0315
G1 X89.543 Y93.952 E.05023
G1 X90.55 Y92.372 E.04993
G1 X91.785 Y91.118 E.04691
; printing object hingetest1.stl id:0 copy 0
;WIPE_START
G1 F7200
G1 X93.407 Y90.02 E-.46519
G1 X94.718 Y89.502 E-.33481
;WIPE_END
G1 X97.718 Y92.403 F9000
G1 E.8 F1800
;TYPE:Support material
G1 F1200
G1 X98.523 Y92.465 E.02152
G1 X99.62 Y92.78 E.03042
G1 X100.638 Y93.315 E.03065
G1 X101.53 Y94.055 E.03089
G1 X102.253 Y94.975 E.03118
G1 X102.911 Y96.339 E.04036
G1 X102.877 Y96.983 E.01719
G1 X102.988 Y97.384 E.01109
G1 X103.051 Y98.241 E.0229
G1 X102.29 Y98.771 E.02472
G1 X101.634 Y99.283 E.02218
G1 X101.004 Y99.826 E.02217
G1 X100.393 Y100.407 E.02247
G1 X99.82 Y101.01 E.02217
G1 X99.277 Y101.64 E.02217
G1 X98.765 Y102.296 E.02218
G1 X98.293 Y102.966 E.02184
G1 X97.985 Y103.452 E.01533
G1 X97.253 Y103.434 E.01951
G1 X96.827 Y103.337 E.01164
G1 X96.396 Y103.453 E.0119
G1 X94.907 Y102.854 E.04277
G1 X94.006 Y102.253 E.02886
G1 X93.243 Y101.49 E.02876
G1 X92.639 Y100.588 E.02893
G1 X92.228 Y99.602 E.02847
G1 X92.02 Y98.657 E.02579
G1 X91.987 Y97.5 E.03085
G1 X92.205 Y96.338 E.03151
G1 X92.658 Y95.257 E.03124
G1 X93.323 Y94.3 E.03106
G1 X94.169 Y93.507 E.0309
G1 X95.156 Y92.909 E.03076
G1 X96.241 Y92.529 E.03064
G1 X97.35 Y92.383 E.02981
G1 X97.661 Y92.4 E.0083
G1 X101.182 Y99.448 F9000
G1 F1200
G1 X102.633 Y97.376 E.06742
G1 X102.535 Y97.02 E.00984
G1 X102.568 Y96.408 E.01633
G1 X102.495 Y96.257 E.00447
G1 X97.701 Y103.105 E.22278
G1 X97.295 Y103.095 E.01082
G1 X96.857 Y102.995 E.01197
G1 X102.12 Y95.479 E.24454
G1 X101.964 Y95.156 E.00956
G1 X101.679 Y94.794 E.01228
G1 X95.987 Y102.922 E.26446
G1 X95.269 Y102.633 E.02063
G1 X101.174 Y94.2 E.27437
G1 X100.591 Y93.717 E.02018
G1 X94.616 Y102.251 E.27765
G1 X94.222 Y101.989 E.01261
G1 X94.02 Y101.787 E.00761
G1 X99.941 Y93.332 E.2751
G1 X99.493 Y93.096 E.0135
G1 X99.236 Y93.023 E.00712
G1 X93.483 Y101.239 E.26731
G1 X93.033 Y100.567 E.02155
G1 X98.47 Y92.803 E.25261
G1 X97.596 Y92.736 E.02336
G1 X92.668 Y99.774 E.22898
G1 X92.553 Y99.5 E.00792
G1 X92.406 Y98.833 E.0182
G1 X96.615 Y92.822 E.19557
G1 X96.32 Y92.861 E.00793
G1 X95.455 Y93.164 E.02443
G1 X92.33 Y97.626 E.14518
G1 X92.327 Y97.527 E.00264
G1 X92.531 Y96.436 E.02958
G1 X92.957 Y95.421 E.02934
G1 X94.06 Y93.842 E.05133
;WIPE_START
G1 F7200
G1 X92.957 Y95.421 E-.45745
G1 X92.531 Y96.436 E-.26143
G1 X92.468 Y96.772 E-.08112
;WIPE_END
G1 X97.527 Y118.227 F9000
G1 E.8 F1800
;TYPE:External perimeter
G1 F1200
G1 X97.26 Y118.336 E.00769
G1 X97.195 Y118.225 E.00343
G1 X97.057 Y117.868 E.0102
G1 X96.807 Y117.11 E.02127
G1 X96.594 Y116.34 E.02129
G1 X96.419 Y115.561 E.02128
G1 X96.282 Y114.774 E.02129
G1 X96.184 Y113.981 E.0213
G1 X96.126 Y113.184 E.0213
G1 X96.106 Y112.386 E.02127
G1 X96.126 Y111.587 E.0213
G1 X96.184 Y110.791 E.02127
G1 X96.282 Y109.998 E.0213
G1 X96.417 Y109.218 E.0211
G1 X96.594 Y108.431 E.0215
G1 X96.807 Y107.662 E.02127
G1 X97.057 Y106.903 E.0213
G1 X97.345 Y106.158 E.02129
G1 X97.669 Y105.428 E.02129
G1 X98.028 Y104.714 E.0213
G1 X98.421 Y104.019 E.02128
G1 X98.849 Y103.344 E.0213
G1 X99.309 Y102.691 E.02129
G1 X99.8 Y102.062 E.02127
G1 X100.317 Y101.462 E.02111
G1 X100.873 Y100.878 E.02149
G1 X101.451 Y100.328 E.02126
G1 X102.056 Y99.806 E.0213
G1 X102.686 Y99.314 E.0213
G1 X103.333 Y98.859 E.02108
G1 X104.014 Y98.427 E.02149
G1 X104.709 Y98.033 E.02129
G1 X105.422 Y97.674 E.02128
G1 X106.152 Y97.351 E.02127
G1 X106.891 Y97.066 E.02111
G1 X107.656 Y96.812 E.02148
G1 X108.426 Y96.599 E.02129
G1 X109.205 Y96.424 E.02128
G1 X109.985 Y96.289 E.0211
G1 X110.785 Y96.19 E.02148
G1 X111.582 Y96.131 E.0213
G1 X112.38 Y96.112 E.02127
G1 X113.179 Y96.131 E.0213
G1 X113.975 Y96.19 E.02127
G1 X114.768 Y96.288 E.0213
G1 X115.555 Y96.424 E.02129
G1 X116.334 Y96.599 E.02128
G1 X117.104 Y96.812 E.02129
G1 X117.863 Y97.063 E.02131
G1 X118.608 Y97.351 E.02129
G1 X118.958 Y97.506 E.0102
G1 X119.065 Y97.576 E.00341
G1 X118.943 Y97.837 E.00768
G1 X118.823 Y97.807 E.0033
G1 X117.751 Y97.374 E.03081
G1 X117.008 Y97.128 E.02086
G1 X116.254 Y96.92 E.02085
G1 X115.491 Y96.748 E.02085
G1 X114.719 Y96.614 E.02088
G1 X113.943 Y96.519 E.02084
G1 X113.162 Y96.461 E.02087
G1 X112.38 Y96.442 E.02085
G1 X111.598 Y96.461 E.02085
G1 X110.817 Y96.519 E.02087
G1 X110.041 Y96.614 E.02084
G1 X109.27 Y96.748 E.02086
G1 X108.506 Y96.92 E.02087
G1 X107.752 Y97.128 E.02085
G1 X107.009 Y97.374 E.02086
G1 X106.279 Y97.655 E.02085
G1 X105.563 Y97.973 E.02088
G1 X104.864 Y98.324 E.02085
G1 X104.183 Y98.71 E.02086
G1 X103.522 Y99.129 E.02086
G1 X102.882 Y99.579 E.02085
G1 X102.265 Y100.061 E.02087
G1 X101.673 Y100.572 E.02084
G1 X101.106 Y101.112 E.02087
G1 X100.566 Y101.678 E.02085
G1 X100.055 Y102.271 E.02086
G1 X99.574 Y102.888 E.02085
G1 X99.123 Y103.528 E.02087
G1 X98.705 Y104.189 E.02084
G1 X98.319 Y104.87 E.02086
G1 X97.967 Y105.569 E.02086
G1 X97.65 Y106.284 E.02084
G1 X97.368 Y107.014 E.02086
G1 X97.123 Y107.757 E.02085
G1 X96.914 Y108.512 E.02088
G1 X96.742 Y109.275 E.02085
G1 X96.609 Y110.046 E.02085
G1 X96.513 Y110.823 E.02087
G1 X96.455 Y111.603 E.02085
G1 X96.436 Y112.386 E.02087
G1 X96.455 Y113.168 E.02085
G1 X96.513 Y113.949 E.02087
G1 X96.609 Y114.725 E.02084
G1 X96.742 Y115.496 E.02085
G1 X96.914 Y116.26 E.02087
G1 X97.123 Y117.014 E.02085
G1 X97.515 Y118.168 E.03248
G1 X97.242 Y118.18 F9000
; stop printing object hingetest1.stl id:0 copy 0
; printing object hingetest1-secondpart.stl id:1 copy 0
;WIPE_START
G1 F7200
G1 X97.26 Y118.336 E-.07252
G1 X97.195 Y118.225 E-.03055
G1 X97.057 Y117.868 E-.0909
G1 X96.807 Y117.11 E-.18956
G1 X96.594 Y116.34 E-.18974
G1 X96.419 Y115.561 E-.18962
G1 X96.392 Y115.407 E-.03711
;WIPE_END
G1 X123.969 Y108.563 F9000
G1 E.8 F1800
;TYPE:Support material
G1 F1200
G1 X124.703 Y108.917 E.02172
G1 X125.655 Y110.11 E.04068
G1 X125.994 Y111.598 E.04067
G1 X125.655 Y113.086 E.04067
G1 X124.703 Y114.28 E.0407
G1 X123.328 Y114.942 E.04067
G1 X122.403 Y114.942 E.02465
G1 X122.114 Y115.081 E.00855
G1 X121.327 Y115.081 E.02097
G1 X120.706 Y115.381 E.01838
G1 X120.25 Y115.381 E.01215
G1 X119.338 Y115.82 E.02698
G1 X119.206 Y115.82 E.00352
G1 X118.475 Y116.731 E.03113
G1 X118.402 Y116.766 E.00216
G1 X118.245 Y116.962 E.00669
G1 X117.198 Y117.455 E.03084
G1 X117.108 Y117.61 E.00478
G1 X116.103 Y118.418 E.03437
G1 X115.43 Y118.66 E.01906
G1 X115.182 Y119.78 E.03057
G1 X114.518 Y120.612 E.02837
G1 X113.745 Y121.38 E.02904
G1 X113.737 Y121.417 E.00101
G1 X113.215 Y122.072 E.02232
G1 X113.108 Y122.394 E.00904
G1 X113.168 Y122.658 E.00722
G1 X112.898 Y123.842 E.03237
G1 X112.935 Y124.003 E.0044
G1 X112.595 Y125.491 E.04068
G1 X112.267 Y125.903 E.01404
G1 X112.06 Y126.808 E.02474
G1 X111.108 Y128.001 E.04068
G1 X109.733 Y128.664 E.04068
G1 X108.207 Y128.664 E.04067
G1 X106.831 Y128.001 E.04071
G1 X105.88 Y126.808 E.04066
G1 X105.54 Y125.32 E.04068
G1 X105.88 Y123.832 E.04068
G1 X106.208 Y123.42 E.01404
G1 X106.345 Y122.819 E.01643
G1 X106.309 Y122.658 E.0044
G1 X106.467 Y121.966 E.01892
G1 X106.394 Y121.465 E.01349
G1 X106.521 Y120.632 E.02246
G1 X107.039 Y119.147 E.04192
G1 X107.444 Y118.935 E.01218
G1 X107.52 Y118.6 E.00916
G1 X107.745 Y118.243 E.01125
G1 X107.83 Y117.869 E.01022
G1 X108.782 Y116.675 E.0407
G1 X108.965 Y116.587 E.00541
G1 X109.401 Y116.081 E.0178
G1 X109.303 Y115.428 E.0176
G1 X109.311 Y114.125 E.03473
G1 X109.809 Y113.292 E.02587
G1 X110.145 Y112.464 E.02381
G1 X111.213 Y111.643 E.0359
G1 X111.84 Y111.326 E.01872
G1 X112.552 Y111.115 E.01979
G1 X113.113 Y111.039 E.01509
G1 X113.919 Y111.044 E.02148
G1 X114.359 Y111.165 E.01216
G1 X114.425 Y111.082 E.00283
G1 X114.639 Y110.971 E.00642
G1 X115.117 Y110.371 E.02044
G1 X116.493 Y109.709 E.0407
G1 X116.615 Y109.709 E.00325
G1 X117.812 Y109.132 E.03541
G1 X118.267 Y109.132 E.01213
G1 X119.179 Y108.693 E.02698
G1 X119.966 Y108.693 E.02097
G1 X120.588 Y108.394 E.01839
G1 X121.512 Y108.394 E.02463
G1 X121.801 Y108.254 E.00856
G1 X123.328 Y108.254 E.0407
G1 X123.918 Y108.539 E.01746
;WIPE_START
G1 F7200
G1 X123.328 Y108.254 E-.15562
G1 X121.801 Y108.254 E-.36266
G1 X121.512 Y108.394 E-.07627
G1 X120.647 Y108.394 E-.20545
;WIPE_END
G1 X110.618 Y116.597 F9000
G1 E.8 F1800
G1 F1200
G1 X111.271 Y115.944 E.02461
G1 X111.72 Y116.001 E.01206
G1 X111.877 Y116.261 E.00809
G1 X111.993 Y116.403 E.00489
G1 X112.135 Y116.519 E.00489
G1 X112.395 Y116.675 E.00808
G1 X112.452 Y117.124 E.01206
G1 X111.424 Y118.152 E.03875
G1 X110.975 Y118.095 E.01206
G1 X110.819 Y117.835 E.00808
G1 X110.703 Y117.693 E.00489
G1 X110.561 Y117.577 E.00489
G1 X110.301 Y117.42 E.00809
G1 X110.244 Y116.971 E.01206
G1 X110.578 Y116.637 E.01259
G1 X114.153 Y113.062 F9000
G1 F1200
G1 X114.807 Y112.408 E.02465
G1 X115.256 Y112.465 E.01206
G1 X115.412 Y112.725 E.00808
G1 X115.528 Y112.867 E.00489
G1 X115.67 Y112.983 E.00489
G1 X115.93 Y113.14 E.00809
G1 X115.987 Y113.589 E.01206
G1 X114.96 Y114.616 E.03871
G1 X114.511 Y114.559 E.01206
G1 X114.354 Y114.299 E.00809
G1 X114.238 Y114.157 E.00489
G1 X114.096 Y114.041 E.00489
G1 X113.836 Y113.885 E.00808
G1 X113.779 Y113.436 E.01206
G1 X114.113 Y113.102 E.01259
;WIPE_START
G1 F7200
G1 X113.779 Y113.436 E-.11218
G1 X113.836 Y113.885 E-.10749
G1 X114.096 Y114.041 E-.07201
G1 X114.238 Y114.157 E-.04355
G1 X114.354 Y114.299 E-.04355
G1 X114.511 Y114.559 E-.07213
G1 X114.96 Y114.616 E-.10749
G1 X115.679 Y113.897 E-.2416
;WIPE_END
G1 X123.291 Y114.771 F9000
G1 E.8 F1800
G1 F1200
G1 X125.613 Y111.454 E.10791
G1 X125.387 Y110.463 E.02709
G1 X122.488 Y114.602 E.13468
G1 X122.326 Y114.602 E.00432
G1 X122.037 Y114.742 E.00856
G1 X121.47 Y114.742 E.01511
G1 X124.95 Y109.771 E.16172
G1 X124.486 Y109.189 E.01984
G1 X124.45 Y109.171 E.00107
G1 X120.34 Y115.041 E.19098
G1 X120.173 Y115.041 E.00445
G1 X119.261 Y115.48 E.02698
G1 X119.112 Y115.48 E.00397
G1 X123.761 Y108.84 E.21603
G1 X123.25 Y108.594 E.01511
G1 X123.013 Y108.594 E.00632
G1 X116.523 Y117.862 E.30154
;WIPE_START
G1 F7200
G1 X118.455 Y115.103 E-.8
;WIPE_END
G1 X110.155 Y128.272 F9000
G1 E.8 F1800
G1 F1200
G1 X112.317 Y125.184 E.10046
G1 X112.587 Y124.003 E.03229
G1 X112.55 Y123.842 E.0044
G1 X112.653 Y123.39 E.01236
G1 X109.198 Y128.324 E.16053
G1 X108.279 Y128.322 E.02449
G1 X122.092 Y108.594 E.64184
G1 X121.879 Y108.594 E.00568
G1 X121.59 Y108.733 E.00855
G1 X121.074 Y108.733 E.01375
G1 X107.59 Y127.99 E.62653
G1 X107.049 Y127.729 E.01601
G1 X106.944 Y127.598 E.00447
G1 X119.944 Y109.032 E.60404
G1 X119.257 Y109.032 E.01831
G1 X118.904 Y109.202 E.01044
G1 X116.253 Y112.989 E.1232
G1 X116.246 Y112.932 E.00153
G1 X115.831 Y112.681 E.01293
G1 X115.673 Y112.503 E.00634
G1 X117.747 Y109.54 E.09639
G1 X116.692 Y110.048 E.03121
G1 X116.57 Y110.048 E.00325
G1 X116.42 Y110.12 E.00443
G1 X115.037 Y112.096 E.06428
G1 X114.684 Y112.051 E.00948
G1 X113.422 Y113.313 E.04757
G1 X113.521 Y114.093 E.02095
G1 X113.604 Y114.142 E.00257
G1 X112.216 Y116.145 E.06495
G1 X112.325 Y116.238 E.00382
G1 X112.711 Y116.467 E.01196
G1 X112.739 Y116.692 E.00604
G1 X114.17 Y114.649 E.06648
G1 X114.303 Y114.875 E.00699
G1 X114.881 Y114.948 E.01553
G1 X106.454 Y126.983 E.39156
G1 X106.193 Y126.657 E.01113
G1 X106.087 Y126.192 E.01271
G1 X111.473 Y118.5 E.25026
G1 X110.767 Y118.411 E.01896
G1 X110.698 Y118.293 E.00364
G1 X105.942 Y125.085 E.22098
G1 X106.193 Y123.983 E.03012
G1 X106.522 Y123.571 E.01405
G1 X106.694 Y122.819 E.02056
G1 X106.672 Y122.727 E.00252
G1 X110.167 Y117.736 E.16239
G1 X109.985 Y117.628 E.00564
G1 X109.886 Y116.849 E.02093
G1 X111.149 Y115.586 E.0476
G1 X111.63 Y115.647 E.01292
G1 X114.588 Y111.422 E.13745
G1 X114.486 Y111.551 E.00438
G1 X113.872 Y111.383 E.01697
G1 X113.695 Y111.382 E.00472
G1 X106.765 Y121.279 E.322
G1 X106.852 Y120.715 E.01521
G1 X107.316 Y119.386 E.03752
G1 X107.74 Y119.162 E.01278
G1 X107.838 Y118.731 E.01178
G1 X108.063 Y118.375 E.01122
G1 X108.144 Y118.02 E.0097
G1 X108.999 Y116.947 E.03657
G1 X109.176 Y116.862 E.00523
G1 X109.76 Y116.185 E.02383
G1 X109.698 Y115.776 E.01102
G1 X112.74 Y111.432 E.14134
G1 X112.623 Y111.448 E.00315
G1 X111.966 Y111.642 E.01826
G1 X111.51 Y111.873 E.01362
G1 X109.476 Y114.778 E.09451
;WIPE_START
G1 F7200
G1 X111.408 Y112.019 E-.8
;WIPE_END
G1 X111.279 Y117.347 F9000
G1 E.8 F1800
;TYPE:External perimeter
G1 F1200
G1 X111.179 Y117.216 E.00439
G1 X111.049 Y117.117 E.00435
G1 X111.416 Y116.75 E.01383
G1 X111.517 Y116.88 E.00439
G1 X111.647 Y116.979 E.00435
G1 X111.321 Y117.304 E.01227
