; generated by PrusaSlicer 2.6.1+win64 on 2024-01-27 at 18:26:20 UTC

; 

; external perimeters extrusion width = 0.42mm
; perimeters extrusion width = 0.44mm
; infill extrusion width = 0.44mm
; solid infill extrusion width = 0.44mm
; top infill extrusion width = 0.40mm
; support material extrusion width = 0.36mm
; first layer extrusion width = 0.42mm

; external perimeters extrusion width = 0.42mm
; perimeters extrusion width = 0.44mm
; infill extrusion width = 0.44mm
; solid infill extrusion width = 0.44mm
; top infill extrusion width = 0.40mm
; support material extrusion width = 0.36mm
; first layer extrusion width = 0.42mm

M201 X500 Y500 Z100 E5000 ; sets maximum accelerations, mm/sec^2
M203 X500 Y500 Z10 E60 ; sets maximum feedrates, mm / sec
M204 S500 T1000 ; sets acceleration (S) and retract acceleration (R), mm/sec^2
M205 X8.00 Y8.00 Z0.40 E5.00 ; sets the jerk limits, mm/sec
M205 S0 T0 ; sets the minimum extruding and travel feed rate, mm/sec
;TYPE:Custom
G90 ; use absolute coordinates
M83 ; extruder relative mode
M104 S150 ; set temporary nozzle temp to prevent oozing during homing
M140 S60 ; set final bed temp
G4 S30 ; allow partial nozzle warmup
G28 ; home all axis and restore leveling
G1 Z50 F240
G1 X2.0 Y10 F3000
M104 S215 ; set final nozzle temp
M190 S60 ; wait for bed temp to stabilize
M109 S215 ; wait for nozzle temp to stabilize
G1 Z0.28 F240
G92 E0
G1 X2.0 Y140 E10 F1500 ; prime the nozzle
G1 X2.3 Y140 F5000
G92 E0
G1 X2.3 Y10 E10 F1200 ; prime the nozzle
G92 E0
G21 ; set units to millimeters
G90 ; use absolute coordinates
M83 ; use relative distances for extrusion
; Filament gcode
M107
;LAYER_CHANGE
;Z:0.2
;HEIGHT:0.2
;BEFORE_LAYER_CHANGE
G92 E0
;0.2


G1 E-.8 F1800
G1 Z.2 F9000
;AFTER_LAYER_CHANGE
;0.2
G1 X92.814 Y92.855
G1 E.8 F1800
M204 S500
;TYPE:Skirt/Brim
;WIDTH:0.42
G1 F1200
G1 X94.21 Y91.636 E.04939
G1 X95.202 Y91.013 E.03122
G1 X95.967 Y90.646 E.02261
G1 X97.101 Y90.253 E.03199
G1 X97.921 Y90.069 E.0224
G1 X99.12 Y89.937 E.03215
G1 X100.887 Y90.013 E.04714
G1 X101.607 Y90.142 E.01949
G1 X115.069 Y93.95 E.37286
G1 X116.494 Y94.716 E.04312
G1 X125.939 Y102.836 E.33196
G1 X126.659 Y103.667 E.0293
G1 X127.395 Y104.824 E.03655
G1 X127.915 Y106.134 E.03756
G1 X128.172 Y107.48 E.03652
G1 X128.172 Y108.89 E.03758
G1 X127.915 Y110.236 E.03652
G1 X127.395 Y111.546 E.03756
G1 X126.297 Y113.182 E.05251
G1 X113.803 Y127.225 E.50095
G1 X113.198 Y127.772 E.02174
G1 X112.088 Y128.575 E.03651
G1 X110.811 Y129.172 E.03757
G1 X109.483 Y129.509 E.03651
G1 X108.075 Y129.593 E.03759
G1 X106.717 Y129.416 E.0365
G1 X105.378 Y128.975 E.03757
G1 X104.18 Y128.309 E.03653
G1 X103.099 Y127.405 E.03756
G1 X94.579 Y116.325 E.3725
G1 X93.919 Y114.952 E.0406
G1 X90.415 Y100.728 E.39042
G1 X90.296 Y98.86 E.04989
G1 X90.36 Y98.063 E.02131
G1 X90.58 Y96.894 E.0317
G1 X90.819 Y96.111 E.02182
G1 X91.283 Y95.028 E.0314
G1 X91.677 Y94.328 E.02141
G1 X92.778 Y92.902 E.04801
G1 X93.073 Y93.129 F9000
G1 F1200
G1 X94.41 Y91.955 E.04742
G1 X95.402 Y91.333 E.03121
G1 X96.091 Y91.003 E.02036
G1 X97.225 Y90.61 E.03199
G1 X97.962 Y90.444 E.02013
G1 X99.161 Y90.312 E.03215
G1 X100.857 Y90.388 E.04525
G1 X101.504 Y90.505 E.01752
G1 X114.966 Y94.313 E.37286
G1 X116.248 Y95.002 E.03879
G1 X125.693 Y103.122 E.33196
G1 X126.341 Y103.87 E.02638
G1 X127.077 Y105.026 E.03652
G1 X127.545 Y106.205 E.03381
G1 X127.802 Y107.551 E.03652
G1 X127.802 Y108.819 E.03379
G1 X127.545 Y110.165 E.03652
G1 X127.077 Y111.344 E.03381
G1 X126.015 Y112.932 E.05091
G1 X113.521 Y126.975 E.50095
G1 X112.977 Y127.466 E.01953
G1 X111.867 Y128.269 E.03651
G1 X110.718 Y128.806 E.0338
G1 X109.39 Y129.143 E.03651
G1 X108.124 Y129.219 E.0338
G1 X106.766 Y129.042 E.0365
G1 X105.561 Y128.645 E.03381
G1 X104.364 Y127.98 E.03649
G1 X103.39 Y127.166 E.03383
G1 X94.879 Y116.096 E.37215
G1 X94.285 Y114.861 E.03652
G1 X90.783 Y100.647 E.39015
G1 X90.673 Y98.85 E.04798
G1 X90.951 Y96.964 E.05081
G1 X91.63 Y95.177 E.05095
G1 X91.984 Y94.547 E.01926
G1 X93.036 Y93.177 E.04603
; printing object hingetest2.stl id:0 copy 0
;WIPE_START
G1 F7200
G1 X94.41 Y91.955 E-.43671
G1 X95.402 Y91.333 E-.27808
G1 X95.726 Y91.178 E-.08521
;WIPE_END
G1 X121.646 Y104.685 F9000
G1 E.8 F1800
;TYPE:Support material
G1 F1200
G1 X122.415 Y104.904 E.02131
G1 X123.492 Y105.683 E.03542
G1 X124.228 Y106.839 E.03652
G1 X124.485 Y108.185 E.03652
G1 X124.228 Y109.531 E.03652
G1 X123.492 Y110.687 E.03652
G1 X122.382 Y111.49 E.03651
G1 X121.054 Y111.827 E.03651
G1 X120.073 Y111.7 E.02636
G1 X119.51 Y112.107 E.01851
G1 X118.234 Y112.43 E.03508
G1 X117.892 Y112.807 E.01357
G1 X117.569 Y113.016 E.01025
G1 X117.643 Y113.603 E.01577
G1 X117.455 Y114.788 E.03198
G1 X116.923 Y115.882 E.03242
G1 X116.078 Y116.786 E.03298
G1 X115.027 Y117.393 E.03235
G1 X113.83 Y117.666 E.03272
G1 X112.747 Y117.584 E.02895
G1 X112.664 Y117.759 E.00516
G1 X112.239 Y118.231 E.01693
G1 X112.028 Y119.338 E.03003
G1 X112.169 Y120.076 E.02002
G1 X111.912 Y121.422 E.03652
G1 X111.854 Y121.512 E.00285
G1 X111.991 Y122.228 E.01943
G1 X111.734 Y123.574 E.03652
G1 X110.998 Y124.73 E.03652
G1 X109.888 Y125.533 E.03651
G1 X108.56 Y125.87 E.03651
G1 X107.201 Y125.693 E.03652
G1 X106.004 Y125.028 E.03649
G1 X105.137 Y123.968 E.0365
G1 X104.752 Y122.759 E.03382
G1 X104.752 Y121.855 E.02409
G1 X104.874 Y121.242 E.01666
G1 X105.016 Y120.876 E.01046
G1 X104.93 Y120.607 E.00753
G1 X104.93 Y119.703 E.02409
G1 X105.052 Y119.09 E.01666
G1 X105.166 Y118.796 E.0084
G1 X105.059 Y118.458 E.00945
G1 X105.059 Y117.554 E.02409
G1 X105.18 Y116.941 E.01665
G1 X105.272 Y116.705 E.00675
G1 X105.164 Y116.356 E.00974
G1 X105.079 Y115.764 E.01594
G1 X105.079 Y115.154 E.01626
G1 X105.164 Y114.562 E.01594
G1 X105.344 Y113.98 E.01624
G1 X105.623 Y113.367 E.01795
G1 X106.258 Y112.535 E.02789
G1 X106.805 Y112.099 E.01864
G1 X107.355 Y111.745 E.01743
G1 X108.427 Y111.374 E.03023
G1 X109.639 Y111.324 E.03233
G1 X110.038 Y111.427 E.01098
G1 X110.539 Y110.708 E.02336
G1 X111.12 Y110.251 E.0197
G1 X111.065 Y109.951 E.00813
G1 X111.07 Y109.383 E.01514
G1 X111.161 Y108.732 E.01752
G1 X111.336 Y108.179 E.01546
G1 X111.61 Y107.573 E.01772
G1 X112.262 Y106.706 E.02891
G1 X113.208 Y105.997 E.03151
G1 X114.332 Y105.578 E.03197
G1 X115.531 Y105.5 E.03202
G1 X116.228 Y105.657 E.01904
G1 X116.803 Y105.37 E.01713
G1 X117.417 Y105.248 E.01668
G1 X118.16 Y105.179 E.01989
G1 X118.706 Y105.287 E.01483
G1 X119.007 Y105.086 E.00965
G1 X119.674 Y104.754 E.01986
G1 X120.288 Y104.632 E.01668
G1 X121.031 Y104.563 E.01989
G1 X121.59 Y104.674 E.01519
;WIPE_START
G1 F7200
G1 X121.031 Y104.563 E-.13535
G1 X120.288 Y104.632 E-.17722
G1 X119.674 Y104.754 E-.14868
G1 X119.007 Y105.086 E-.17695
G1 X118.706 Y105.287 E-.08596
G1 X118.393 Y105.225 E-.07584
;WIPE_END
G1 X109.716 Y113.08 F9000
G1 E.8 F1800
G1 F1200
G1 X110.754 Y112.043 E.0391
G1 X111.18 Y112.078 E.01139
G1 X111.534 Y112.535 E.01541
G1 X111.719 Y112.701 E.00662
G1 X112.026 Y112.921 E.01007
G1 X112.064 Y113.35 E.01148
G1 X110.875 Y114.539 E.04481
G1 X110.446 Y114.501 E.01148
G1 X110.227 Y114.194 E.01005
G1 X110.06 Y114.009 E.00664
G1 X109.614 Y113.663 E.01504
G1 X109.562 Y113.267 E.01064
G1 X109.68 Y113.123 E.00496
G1 X112.043 Y110.754 F9000
G1 F1200
G1 X113.229 Y109.568 E.0447
G1 X113.655 Y109.603 E.01139
G1 X114.009 Y110.06 E.01541
G1 X114.194 Y110.227 E.00664
G1 X114.501 Y110.446 E.01005
G1 X114.539 Y110.875 E.01148
G1 X113.35 Y112.064 E.04481
G1 X112.921 Y112.026 E.01148
G1 X112.701 Y111.719 E.01007
G1 X112.535 Y111.534 E.00662
G1 X112.078 Y111.18 E.01541
G1 X112.048 Y110.811 E.00987
;WIPE_START
G1 F7200
G1 X112.078 Y111.18 E-.08793
G1 X112.535 Y111.534 E-.13729
G1 X112.701 Y111.719 E-.05903
G1 X112.921 Y112.026 E-.0897
G1 X113.35 Y112.064 E-.10229
G1 X114.314 Y111.1 E-.32376
;WIPE_END
G1 X122.48 Y111.209 F9000
G1 E.8 F1800
G1 F1200
G1 X123.967 Y109.086 E.06908
G1 X124.139 Y108.185 E.02445
G1 X124.04 Y107.667 E.01406
G1 X121.441 Y111.379 E.12077
G1 X121.033 Y111.482 E.01121
G1 X120.497 Y111.412 E.01441
G1 X123.765 Y106.745 E.15184
G1 X123.327 Y106.056 E.02176
G1 X119.298 Y111.81 E.18721
G1 X118.179 Y112.094 E.03077
G1 X122.75 Y105.565 E.21241
G1 X122.265 Y105.214 E.01596
G1 X122.106 Y105.169 E.0044
G1 X113.606 Y117.309 E.39497
G1 X112.732 Y117.243 E.02336
G1 X121.327 Y104.968 E.39937
G1 X121.014 Y104.905 E.00851
G1 X120.411 Y104.961 E.01614
G1 X106.456 Y124.891 E.64842
G1 X107.119 Y125.259 E.02021
G1 X111.839 Y118.518 E.21932
G1 X111.682 Y119.338 E.02225
G1 X111.79 Y119.902 E.0153
G1 X107.911 Y125.443 E.18026
G1 X108.539 Y125.525 E.01688
G1 X108.825 Y125.452 E.00787
G1 X111.525 Y121.596 E.12546
G1 X111.646 Y122.228 E.01715
G1 X111.511 Y122.931 E.01908
G1 X109.795 Y125.381 E.07972
;WIPE_START
G1 F7200
G1 X111.511 Y122.931 E-.71041
G1 X111.582 Y122.561 E-.08959
;WIPE_END
G1 X115.864 Y116.714 F9000
G1 E.8 F1800
G1 F1200
G1 X116.77 Y115.42 E.0421
G1 X117.128 Y114.685 E.02179
G1 X117.3 Y113.598 E.02933
G1 X117.273 Y113.386 E.0057
G1 X114.507 Y117.338 E.12856
;WIPE_START
G1 F7200
G1 X116.438 Y114.578 E-.8
;WIPE_END
G1 X105.801 Y124.512 F9000
G1 E.8 F1800
G1 F1200
G1 X119.207 Y105.366 E.62291
G1 X118.778 Y105.647 E.01367
G1 X118.173 Y105.527 E.01644
G1 X114.829 Y110.303 E.15538
G1 X114.825 Y110.258 E.0012
G1 X114.405 Y109.961 E.01371
G1 X114.248 Y109.818 E.00566
G1 X117.172 Y105.643 E.13584
G1 X116.914 Y105.694 E.00701
G1 X116.271 Y106.014 E.01914
G1 X116.029 Y105.96 E.00661
G1 X113.6 Y109.428 E.11284
;WIPE_START
G1 F7200
G1 X115.532 Y106.669 E-.8
;WIPE_END
G1 X105.305 Y123.905 F9000
G1 E.8 F1800
G1 F1200
G1 X113.357 Y112.405 E.37415
G1 X112.733 Y112.35 E.01669
G1 X112.604 Y112.166 E.00599
G1 X112.254 Y112.666 E.01627
G1 X111.93 Y112.436 E.01059
G1 X111.674 Y112.179 E.00967
G1 X112.177 Y111.461 E.02336
;WIPE_START
G1 F7200
G1 X111.674 Y112.179 E-.20821
G1 X111.93 Y112.436 E-.08615
G1 X112.254 Y112.666 E-.09437
G1 X112.604 Y112.166 E-.14495
G1 X112.733 Y112.35 E-.05337
G1 X113.357 Y112.405 E-.14877
G1 X113.202 Y112.626 E-.06418
;WIPE_END
G1 X105.01 Y123.011 F9000
G1 E.8 F1800
G1 F1200
G1 X110.714 Y114.865 E.26503
G1 X110.258 Y114.825 E.0122
G1 X110.04 Y114.513 E.01014
G1 X105.177 Y121.458 E.22596
G1 X105.201 Y121.337 E.00329
G1 X105.375 Y120.887 E.01286
G1 X105.269 Y120.554 E.00931
G1 X105.269 Y120.011 E.01447
G1 X109.486 Y113.989 E.19593
G1 X109.297 Y113.853 E.00621
G1 X109.206 Y113.165 E.0185
G1 X109.47 Y112.846 E.01104
G1 X110.626 Y111.692 E.04353
G1 X111.069 Y111.728 E.01185
G1 X115.176 Y105.863 E.19082
G1 X114.403 Y105.914 E.02065
G1 X114.155 Y106.006 E.00705
G1 X111.407 Y109.931 E.1277
G1 X111.41 Y109.408 E.01394
G1 X111.493 Y108.807 E.01617
G1 X111.653 Y108.301 E.01414
G1 X111.699 Y108.198 E.00301
G1 X112.965 Y106.391 E.0588
;WIPE_START
G1 F7200
G1 X111.699 Y108.198 E-.52401
G1 X111.653 Y108.301 E-.02679
G1 X111.493 Y108.807 E-.12604
G1 X111.422 Y109.321 E-.12316
;WIPE_END
G1 X105.299 Y118.654 F9000
G1 E.8 F1800
G1 F1200
G1 X110.102 Y111.794 E.22318
G1 X109.603 Y111.666 E.01373
G1 X109.262 Y111.679 E.00909
G1 X105.506 Y117.043 E.17452
G1 X105.631 Y116.718 E.00928
G1 X105.496 Y116.281 E.01219
G1 X105.432 Y115.834 E.01203
G1 X108.264 Y111.789 E.1316
G1 X107.505 Y112.053 E.02142
G1 X107.003 Y112.375 E.01589
G1 X106.846 Y112.5 E.00535
G1 X105.318 Y114.682 E.07099
;WIPE_START
G1 F7200
G1 X106.846 Y112.5 E-.63266
G1 X107.003 Y112.375 E-.04766
G1 X107.427 Y112.103 E-.11968
;WIPE_END
G1 X110.715 Y113.749 F9000
G1 E.8 F1800
;TYPE:External perimeter
G1 F1200
G1 X110.53 Y113.528 E.00768
G1 X110.359 Y113.388 E.00589
G1 X110.914 Y112.834 E.0209
G1 X111.053 Y113.005 E.00587
G1 X111.274 Y113.19 E.00768
G1 X110.757 Y113.706 E.01947
G1 X110.624 Y113.475 F9000
G1 X110.642 Y113.372
;TYPE:Gap fill
;WIDTH:0.108593
G1 F1200
G1 X110.688 Y113.372 E.00021
;WIDTH:0.172293
G1 X110.732 Y113.374 E.0004
G1 X110.899 Y113.206 E.00217
G1 X110.898 Y113.185 E.00019
;WIDTH:0.108288
G1 X110.897 Y113.117 E.00031
;WIPE_START
G1 F7200
G1 X110.897 Y113.163 E-.01092
G1 X110.898 Y113.185 E-.00523
G1 X110.899 Y113.206 E-.00499
G1 X110.732 Y113.374 E-.05626
G1 X110.71 Y113.373 E-.00523
G1 X110.688 Y113.372 E-.00523
G1 X110.642 Y113.372 E-.01093
;WIPE_END
G1 E-.70121 F1800
G1 X113.528 Y110.53 F9000
G1 E.8 F1800
;TYPE:External perimeter
;WIDTH:0.42
G1 F1200
G1 X113.749 Y110.715 E.00768
G1 X113.19 Y111.274 E.02107
G1 X113.005 Y111.053 E.00768
G1 X112.834 Y110.913 E.00589
G1 X113.388 Y110.359 E.02088
G1 X113.49 Y110.484 E.0043
G1 X113.593 Y110.811 F9000
G1 X113.372 Y110.642
;TYPE:Gap fill
;WIDTH:0.108312
G1 F1200
G1 X113.373 Y110.71 E.00031
;WIDTH:0.172293
G1 X113.374 Y110.732 E.0002
G1 X113.206 Y110.899 E.00217
G1 X113.163 Y110.897 E.00039
;WIDTH:0.108632
G1 X113.117 Y110.897 E.00021
; stop printing object hingetest2.stl id:0 copy 0
; printing object hingetest2-secondpart.stl id:1 copy 0
;WIPE_START
G1 F7200
G1 X113.163 Y110.897 E-.01092
G1 X113.185 Y110.898 E-.00523
G1 X113.206 Y110.899 E-.00499
G1 X113.374 Y110.732 E-.05626
G1 X113.373 Y110.71 E-.00523
G1 X113.372 Y110.688 E-.00523
G1 X113.372 Y110.642 E-.01093
;WIPE_END
G1 E-.70121 F1800
G1 X100.585 Y93.755 F9000
G1 E.8 F1800
;TYPE:Support material
;WIDTH:0.42
G1 F1200
G1 X101.68 Y94.073 E.03039
G1 X102.695 Y94.613 E.03064
G1 X103.583 Y95.356 E.03086
G1 X104.302 Y96.281 E.03122
G1 X104.77 Y97.267 E.02909
G1 X104.961 Y98.195 E.02525
G1 X104.938 Y98.345 E.00404
G1 X105.034 Y98.685 E.00942
G1 X105.104 Y99.657 E.02597
G1 X104.627 Y99.96 E.01506
G1 X103.957 Y100.432 E.02184
G1 X103.301 Y100.944 E.02218
G1 X102.668 Y101.489 E.02226
G1 X102.068 Y102.06 E.02207
G1 X101.494 Y102.662 E.02217
G1 X100.944 Y103.301 E.02247
G1 X100.432 Y103.957 E.02218
G1 X99.895 Y104.729 E.02506
G1 X99.243 Y104.705 E.01739
G1 X98.943 Y104.906 E.00962
G1 X96.956 Y104.105 E.0571
G1 X96.063 Y103.509 E.02861
G1 X95.306 Y102.754 E.02849
G1 X94.705 Y101.86 E.02871
G1 X94.293 Y100.878 E.02838
G1 X94.08 Y99.917 E.02623
G1 X94.049 Y98.759 E.03087
G1 X94.269 Y97.59 E.0317
G1 X94.734 Y96.508 E.03139
G1 X95.393 Y95.583 E.03027
G1 X96.205 Y94.816 E.02977
G1 X97.197 Y94.194 E.03121
G1 X98.33 Y93.801 E.03196
G1 X99.529 Y93.669 E.03215
G1 X100.529 Y93.75 E.02674
G1 X104.387 Y99.922 F9000
G1 F1200
G1 X104.746 Y99.409 E.01669
G1 X104.698 Y98.744 E.01777
G1 X104.592 Y98.366 E.01046
G1 X104.602 Y98.3 E.00178
G1 X102.705 Y101.009 E.08814
G1 X101.831 Y101.817 E.03172
G1 X101.233 Y102.446 E.02313
G1 X100.679 Y103.089 E.02262
G1 X100.169 Y103.742 E.02208
G1 X99.718 Y104.382 E.02087
G1 X99.43 Y104.372 E.00768
G1 X104.399 Y97.275 E.2309
G1 X104.027 Y96.492 E.0231
G1 X98.512 Y104.367 E.25623
G1 X97.794 Y104.077 E.02064
G1 X103.547 Y95.862 E.26729
G1 X103.337 Y95.593 E.0091
G1 X103.008 Y95.317 E.01145
G1 X97.081 Y103.781 E.27538
G1 X96.454 Y103.362 E.0201
G1 X102.415 Y94.848 E.27699
G1 X101.744 Y94.492 E.02024
G1 X95.888 Y102.855 E.27209
G1 X95.569 Y102.537 E.012
G1 X95.384 Y102.261 E.00886
G1 X101.007 Y94.231 E.26126
G1 X100.523 Y94.09 E.01344
G1 X100.203 Y94.064 E.00856
G1 X94.95 Y101.566 E.24408
G1 X94.609 Y100.737 E.02389
G1 X99.302 Y94.036 E.21803
G1 X98.405 Y94.134 E.02405
G1 X98.283 Y94.176 E.00344
G1 X94.414 Y99.702 E.17978
G1 X94.389 Y98.786 E.02442
G1 X94.483 Y98.288 E.01351
G1 X97.22 Y94.379 E.12718
;WIPE_START
G1 F7200
G1 X95.288 Y97.138 E-.8
;WIPE_END
G1 X113.759 Y98.089 F9000
G1 E.8 F1800
;TYPE:External perimeter
G1 F1200
G1 X113.638 Y98.113 E.00329
G1 X112.484 Y98.18 E.03081
G1 X111.707 Y98.276 E.02087
G1 X110.936 Y98.409 E.02085
G1 X110.173 Y98.581 E.02085
G1 X109.419 Y98.789 E.02085
G1 X108.676 Y99.035 E.02086
G1 X107.945 Y99.317 E.02088
G1 X107.23 Y99.634 E.02084
G1 X106.531 Y99.986 E.02086
G1 X105.85 Y100.371 E.02085
G1 X105.189 Y100.79 E.02086
G1 X104.549 Y101.241 E.02087
G1 X103.932 Y101.722 E.02085
G1 X103.34 Y102.233 E.02084
G1 X102.773 Y102.773 E.02087
G1 X102.228 Y103.345 E.02106
G1 X101.722 Y103.932 E.02065
G1 X101.241 Y104.549 E.02085
G1 X100.79 Y105.189 E.02087
G1 X100.371 Y105.85 E.02086
G1 X99.986 Y106.531 E.02085
G1 X99.634 Y107.23 E.02086
G1 X99.317 Y107.945 E.02084
G1 X99.035 Y108.676 E.02088
G1 X98.79 Y109.419 E.02085
G1 X98.581 Y110.173 E.02085
G1 X98.409 Y110.936 E.02085
G1 X98.276 Y111.707 E.02085
G1 X98.18 Y112.484 E.02087
