; generated by PrusaSlicer 2.6.1+win64 on 2024-01-27 at 16:06:41 UTC

; 

; external perimeters extrusion width = 0.42mm
; perimeters extrusion width = 0.44mm
; infill extrusion width = 0.44mm
; solid infill extrusion width = 0.44mm
; top infill extrusion width = 0.40mm
; support material extrusion width = 0.36mm
; first layer extrusion width = 0.42mm

M201 X500 Y500 Z100 E5000 ; sets maximum accelerations, mm/sec^2
M203 X500 Y500 Z10 E60 ; sets maximum feedrates, mm / sec
M204 S500 T1000 ; sets acceleration (S) and retract acceleration (R), mm/sec^2
M205 X8.00 Y8.00 Z0.40 E5.00 ; sets the jerk limits, mm/sec
M205 S0 T0 ; sets the minimum extruding and travel feed rate, mm/sec
;TYPE:Custom
G90 ; use absolute coordinates
M83 ; extruder relative mode
M104 S150 ; set temporary nozzle temp to prevent oozing during homing
M140 S60 ; set final bed temp
G4 S30 ; allow partial nozzle warmup
G28 ; home all axis and restore leveling
G1 Z50 F240
G1 X2.0 Y10 F3000
M104 S215 ; set final nozzle temp
M190 S60 ; wait for bed temp to stabilize
M109 S215 ; wait for nozzle temp to stabilize
G1 Z0.28 F240
G92 E0
G1 X2.0 Y140 E10 F1500 ; prime the nozzle
G1 X2.3 Y140 F5000
G92 E0
G1 X2.3 Y10 E10 F1200 ; prime the nozzle
G92 E0
G21 ; set units to millimeters
G90 ; use absolute coordinates
M83 ; use relative distances for extrusion
; Filament gcode
M107
;LAYER_CHANGE
;Z:0.2
;HEIGHT:0.2
;BEFORE_LAYER_CHANGE
G92 E0
;0.2


G1 E-.8 F1800
G1 Z.2 F9000
;AFTER_LAYER_CHANGE
;0.2
G1 X103.699 Y103.701
G1 E.8 F1800
M204 S500
;TYPE:Skirt/Brim
;WIDTH:0.42
G1 F1200
G1 X104.047 Y103.354 E.0131
G1 X105.121 Y102.529 E.03609
G1 X105.97 Y102.039 E.02612
G1 X107.221 Y101.521 E.03609
G1 X108.167 Y101.267 E.0261
G1 X109.897 Y101.06 E.04644
G1 X119.093 Y100.816 E.24517
G1 X120.234 Y100.868 E.03044
G1 X122.014 Y101.212 E.04832
G1 X122.654 Y101.42 E.01793
G1 X124.297 Y102.188 E.04834
G1 X125.776 Y103.236 E.04831
G1 X127.044 Y104.532 E.04832
G1 X127.715 Y105.456 E.03043
G1 X128.555 Y107.062 E.0483
G1 X129.095 Y108.793 E.04833
G1 X129.216 Y109.455 E.01794
G1 X129.318 Y111.265 E.04832
G1 X129.095 Y113.064 E.04831
G1 X128.792 Y114.165 E.03043
G1 X128.06 Y115.824 E.04833
G1 X127.044 Y117.325 E.04831
G1 X126.601 Y117.832 E.01794
G1 X125.249 Y119.04 E.04832
G1 X124.297 Y119.669 E.03041
G1 X122.654 Y120.437 E.04834
G1 X122.014 Y120.645 E.01793
G1 X120.234 Y120.989 E.04832
G1 X118.421 Y121.01 E.04832
G1 X116.943 Y120.793 E.03981
G1 X107.806 Y118.667 E.25002
G1 X105.97 Y117.961 E.05242
G1 X105.121 Y117.471 E.02612
G1 X104.046 Y116.646 E.03611
G1 X103.354 Y115.953 E.0261
G1 X102.529 Y114.879 E.03609
G1 X102.039 Y114.03 E.02612
G1 X101.521 Y112.779 E.03609
G1 X101.267 Y111.833 E.0261
G1 X101.09 Y110.49 E.0361
G1 X101.09 Y109.51 E.02612
G1 X101.267 Y108.167 E.0361
G1 X101.521 Y107.221 E.0261
G1 X102.039 Y105.97 E.03609
G1 X102.529 Y105.121 E.02612
G1 X103.354 Y104.046 E.03611
G1 X103.657 Y103.743 E.01142
G1 X103.921 Y104.008 F9000
G1 F1200
G1 X104.276 Y103.653 E.01338
G1 X105.35 Y102.828 E.03609
G1 X106.114 Y102.387 E.02351
G1 X107.365 Y101.869 E.03609
G1 X108.217 Y101.641 E.02351
G1 X109.907 Y101.437 E.04537
G1 X119.077 Y101.193 E.24448
G1 X120.217 Y101.244 E.03041
G1 X121.93 Y101.58 E.04652
G1 X122.506 Y101.767 E.01614
G1 X124.089 Y102.502 E.04651
G1 X125.042 Y103.131 E.03043
G1 X126.34 Y104.298 E.04652
G1 X127.41 Y105.677 E.04652
G1 X128.215 Y107.226 E.04652
G1 X128.732 Y108.893 E.04652
G1 X128.84 Y109.489 E.01614
G1 X128.942 Y111.231 E.04651
G1 X128.732 Y112.964 E.04652
G1 X128.215 Y114.631 E.04652
G1 X127.41 Y116.18 E.04652
G1 X126.34 Y117.559 E.04652
G1 X125.515 Y118.348 E.03042
G1 X124.089 Y119.355 E.04653
G1 X123.556 Y119.642 E.01613
G1 X121.93 Y120.277 E.04652
G1 X120.217 Y120.613 E.04652
G1 X118.472 Y120.637 E.04651
G1 X117.028 Y120.426 E.03889
G1 X107.365 Y118.131 E.26469
G1 X106.114 Y117.613 E.03609
G1 X105.35 Y117.172 E.02351
G1 X104.276 Y116.347 E.03609
G1 X103.653 Y115.724 E.02348
G1 X102.828 Y114.65 E.03609
G1 X102.387 Y113.886 E.02351
G1 X101.869 Y112.635 E.03609
G1 X101.641 Y111.783 E.02351
G1 X101.464 Y110.441 E.03608
G1 X101.464 Y109.559 E.02351
G1 X101.641 Y108.217 E.03608
G1 X101.869 Y107.365 E.02351
G1 X102.387 Y106.114 E.03609
G1 X102.828 Y105.35 E.02351
G1 X103.653 Y104.276 E.03609
G1 X103.879 Y104.05 E.00852
; printing object J-2-engine.stl id:0 copy 0
;WIPE_START
G1 F7200
G1 X104.276 Y103.653 E-.13334
G1 X105.35 Y102.828 E-.32164
G1 X106.114 Y102.387 E-.20951
G1 X106.641 Y102.169 E-.13551
;WIPE_END
G1 X119.408 Y104.589 F9000
G1 E.8 F1800
;TYPE:Support material
G1 F1200
G1 X120.066 Y104.618 E.01755
G1 X121.179 Y104.872 E.03043
G1 X122.228 Y105.321 E.03041
G1 X123.181 Y105.95 E.03043
G1 X124.006 Y106.739 E.03042
G1 X124.677 Y107.662 E.03041
G1 X125.173 Y108.691 E.03044
G1 X125.476 Y109.791 E.03041
G1 X125.579 Y110.929 E.03045
G1 X125.476 Y112.066 E.03043
G1 X125.173 Y113.166 E.03041
G1 X124.677 Y114.195 E.03044
G1 X124.006 Y115.118 E.03041
G1 X123.181 Y115.907 E.03042
G1 X122.228 Y116.536 E.03043
G1 X121.179 Y116.985 E.03041
G1 X120.066 Y117.239 E.03043
G1 X118.925 Y117.29 E.03044
G1 X117.794 Y117.137 E.03042
G1 X116.708 Y116.784 E.03043
G1 X115.703 Y116.243 E.03042
G1 X114.81 Y115.531 E.03044
G1 X114.059 Y114.672 E.03041
G1 X113.763 Y114.177 E.01537
G1 X114.016 Y113.973 E.00866
G1 X114.908 Y112.799 E.0393
G1 X115.465 Y111.433 E.03932
G1 X115.649 Y110.03 E.03771
G1 X115.449 Y108.509 E.04089
G1 X114.908 Y107.201 E.03772
G1 X114.51 Y106.67 E.01769
G1 X114.81 Y106.326 E.01216
G1 X115.703 Y105.614 E.03044
G1 X116.708 Y105.073 E.03042
G1 X117.794 Y104.72 E.03043
G1 X118.925 Y104.567 E.03042
G1 X119.352 Y104.586 E.01139
G1 X122.08 Y116.415 F9000
G1 F1200
G1 X125.124 Y112.068 E.14143
G1 X125.238 Y110.929 E.03051
G1 X125.211 Y110.629 E.00803
G1 X120.971 Y116.684 E.197
G1 X120.02 Y116.901 E.026
G1 X119.894 Y116.907 E.00336
G1 X125.054 Y109.538 E.23975
G1 X124.854 Y108.811 E.0201
G1 X124.768 Y108.632 E.00529
G1 X118.944 Y116.95 E.27062
G1 X118.102 Y116.836 E.02265
G1 X124.393 Y107.853 E.29228
G1 X123.926 Y107.205 E.02129
G1 X117.327 Y116.629 E.30661
G1 X116.842 Y116.471 E.01359
G1 X116.606 Y116.344 E.00714
G1 X123.405 Y106.633 E.31594
G1 X122.969 Y106.216 E.01608
G1 X122.837 Y106.13 E.0042
G1 X115.937 Y115.984 E.3206
G1 X115.341 Y115.521 E.02011
G1 X122.208 Y105.714 E.31907
G1 X122.067 Y105.621 E.0045
G1 X121.517 Y105.386 E.01594
G1 X114.79 Y114.993 E.31257
G1 X114.335 Y114.471 E.01846
G1 X114.288 Y114.394 E.0024
G1 X120.776 Y105.128 E.30147
G1 X119.978 Y104.954 E.02177
G1 X115.892 Y110.789 E.18985
G1 X115.989 Y110.053 E.01978
G1 X115.921 Y109.433 E.01662
G1 X119.085 Y104.914 E.14702
G1 X118.94 Y104.907 E.00387
G1 X118.088 Y105.023 E.02292
G1 X115.754 Y108.357 E.10846
G1 X115.412 Y107.531 E.02383
G1 X116.934 Y105.356 E.07075
G1 X116.842 Y105.386 E.00258
G1 X115.89 Y105.898 E.02881
G1 X115.31 Y106.361 E.01978
G1 X114.917 Y106.922 E.01825
;WIPE_START
G1 F7200
G1 X115.31 Y106.361 E-.16268
G1 X115.89 Y105.898 E-.17626
G1 X116.842 Y105.386 E-.25673
G1 X116.934 Y105.356 E-.02298
G1 X116.496 Y105.982 E-.18135
;WIPE_END
G1 X112.322 Y114.021 F9000
G1 E.8 F1800
;TYPE:External perimeter
G1 F1200
G1 X111.202 Y114.485 E.03231
G1 X110 Y114.643 E.03231
G1 X108.798 Y114.485 E.03231
G1 X107.679 Y114.021 E.03228
G1 X106.717 Y113.283 E.03231
G1 X105.979 Y112.321 E.03231
G1 X105.515 Y111.202 E.03228
G1 X105.357 Y110 E.03231
G1 X105.515 Y108.798 E.03231
G1 X105.979 Y107.679 E.03228
G1 X106.717 Y106.717 E.03231
G1 X107.679 Y105.979 E.03231
G1 X108.798 Y105.515 E.03228
G1 X110 Y105.357 E.03231
G1 X111.202 Y105.515 E.03231
G1 X112.321 Y105.979 E.03228
G1 X113.283 Y106.717 E.03231
G1 X114.021 Y107.679 E.03231
G1 X114.485 Y108.798 E.03228
G1 X114.643 Y110 E.03231
G1 X114.485 Y111.202 E.03231
G1 X114.021 Y112.321 E.03228
G1 X113.283 Y113.283 E.03231
G1 X112.369 Y113.984 E.0307
G1 X112.322 Y114.421 F9000
;WIPE_START
G1 F7200
G1 X111.202 Y114.485 E-.30162
G1 X110 Y114.643 E-.28793
G1 X109.121 Y114.528 E-.21045
;WIPE_END
G1 X108.712 Y105.194 F9000
G1 E.8 F1800
G1 F1200
G1 X110 Y105.024 E.03462
G1 X111.288 Y105.194 E.03462
G1 X112.488 Y105.691 E.03462
G1 X113.518 Y106.482 E.03461
G1 X114.309 Y107.512 E.03461
G1 X114.806 Y108.712 E.03462
G1 X114.976 Y110 E.03462
G1 X114.806 Y111.288 E.03462
G1 X114.309 Y112.488 E.03462
G1 X113.518 Y113.518 E.03461
G1 X112.488 Y114.309 E.03461
G1 X111.288 Y114.806 E.03462
G1 X110 Y114.976 E.03462
G1 X108.712 Y114.806 E.03462
G1 X107.512 Y114.309 E.03462
G1 X106.482 Y113.518 E.03461
G1 X105.691 Y112.488 E.03461
G1 X105.194 Y111.288 E.03462
G1 X105.024 Y110 E.03462
G1 X105.194 Y108.712 E.03462
G1 X105.691 Y107.512 E.03462
G1 X106.482 Y106.482 E.03461
G1 X107.512 Y105.691 E.03461
G1 X108.657 Y105.217 E.03303
G1 X108.995 Y105.477 F9000
; stop printing object J-2-engine.stl id:0 copy 0
M106 S255
;LAYER_CHANGE
;Z:0.4
;HEIGHT:0.2
;BEFORE_LAYER_CHANGE
G92 E0
;0.4


;WIPE_START
G1 F7200
G1 X110 Y105.024 E-.32224
G1 X111.288 Y105.194 E-.30855
G1 X111.946 Y105.467 E-.16921
;WIPE_END
G1 Z.4 F9000
;AFTER_LAYER_CHANGE
;0.4
G1 X111.828 Y101.009
G1 E.8 F1800
;TYPE:Skirt/Brim
G1 F900
G1 X119.093 Y100.816 E.19369
G1 X120.234 Y100.868 E.03044
G1 X122.014 Y101.212 E.04832
G1 X122.654 Y101.42 E.01793
G1 X124.297 Y102.188 E.04834
G1 X125.776 Y103.236 E.04831
G1 X127.044 Y104.532 E.04832
G1 X127.715 Y105.456 E.03043
G1 X128.555 Y107.062 E.0483
G1 X129.095 Y108.793 E.04833
G1 X129.216 Y109.455 E.01794
G1 X129.318 Y111.265 E.04832
G1 X129.095 Y113.064 E.04831
G1 X128.792 Y114.165 E.03043
G1 X128.06 Y115.824 E.04833
G1 X127.044 Y117.325 E.04831
G1 X126.601 Y117.832 E.01794
G1 X125.249 Y119.04 E.04832
G1 X124.297 Y119.669 E.03041
G1 X122.654 Y120.437 E.04834
G1 X122.014 Y120.645 E.01793
G1 X120.234 Y120.989 E.04832
G1 X118.421 Y121.01 E.04832
G1 X116.943 Y120.793 E.03981
G1 X107.806 Y118.667 E.25002
G1 X105.97 Y117.961 E.05242
G1 X105.121 Y117.471 E.02612
G1 X104.046 Y116.646 E.03611
G1 X103.354 Y115.953 E.0261
G1 X102.529 Y114.879 E.03609
G1 X102.039 Y114.03 E.02612
G1 X101.521 Y112.779 E.03609
G1 X101.267 Y111.833 E.0261
G1 X101.09 Y110.49 E.0361
G1 X101.09 Y109.51 E.02612
G1 X101.267 Y108.167 E.0361
G1 X101.521 Y107.221 E.0261
G1 X102.039 Y105.97 E.03609
G1 X102.529 Y105.121 E.02612
G1 X103.354 Y104.046 E.03611
G1 X104.047 Y103.354 E.0261
G1 X105.121 Y102.529 E.03609
G1 X105.97 Y102.039 E.02612
G1 X107.221 Y101.521 E.03609
G1 X108.167 Y101.267 E.0261
G1 X109.897 Y101.06 E.04644
G1 X111.768 Y101.01 E.04988
G1 X111.778 Y101.387 F9000
G1 F900
G1 X119.077 Y101.193 E.1946
G1 X120.217 Y101.244 E.03041
G1 X121.93 Y101.58 E.04652
G1 X122.506 Y101.767 E.01614
G1 X124.089 Y102.502 E.04651
G1 X125.042 Y103.131 E.03043
G1 X126.34 Y104.298 E.04652
G1 X127.41 Y105.677 E.04652
G1 X128.215 Y107.226 E.04652
G1 X128.732 Y108.893 E.04652
G1 X128.84 Y109.489 E.01614
G1 X128.942 Y111.231 E.04651
G1 X128.732 Y112.964 E.04652
G1 X128.215 Y114.631 E.04652
G1 X127.41 Y116.18 E.04652
G1 X126.34 Y117.559 E.04652
G1 X125.515 Y118.348 E.03042
G1 X124.089 Y119.355 E.04653
G1 X123.556 Y119.642 E.01613
G1 X121.93 Y120.277 E.04652
G1 X120.217 Y120.613 E.04652
G1 X118.472 Y120.637 E.04651
G1 X117.028 Y120.426 E.03889
G1 X107.365 Y118.131 E.26469
G1 X106.114 Y117.613 E.03609
G1 X105.35 Y117.172 E.02351
G1 X104.276 Y116.347 E.03609
G1 X103.653 Y115.724 E.02348
G1 X102.828 Y114.65 E.03609
G1 X102.387 Y113.886 E.02351
G1 X101.869 Y112.635 E.03609
G1 X101.641 Y111.783 E.02351
G1 X101.464 Y110.441 E.03608
G1 X101.464 Y109.559 E.02351
G1 X101.641 Y108.217 E.03608
G1 X101.869 Y107.365 E.02351
G1 X102.387 Y106.114 E.03609
G1 X102.828 Y105.35 E.02351
G1 X103.653 Y104.276 E.03609
G1 X104.276 Y103.653 E.02348
G1 X105.35 Y102.828 E.03609
G1 X106.114 Y102.387 E.02351
G1 X107.365 Y101.869 E.03609
G1 X108.217 Y101.641 E.02351
G1 X109.907 Y101.437 E.04537
G1 X111.718 Y101.389 E.04828
; printing object J-2-engine.stl id:0 copy 0
;WIPE_START
G1 F7200
G1 X115.085 Y101.299 E-.8
;WIPE_END
G1 X117.714 Y108.764 F9000
G1 E.8 F1800
;TYPE:Support material
;WIDTH:0.36
G1 F900
G1 X118.174 Y108.504 E.01184
G1 X118.616 Y108.361 E.01041
G1 X119.18 Y108.299 E.01272
G1 X119.196 Y107.939 E.00808
G1 X119.613 Y107.958 E.00935
G1 X120.137 Y108.077 E.01204
G1 X120.631 Y108.288 E.01204
G1 X121.08 Y108.585 E.01206
G1 X121.468 Y108.956 E.01203
G1 X121.784 Y109.391 E.01205
G1 X122.018 Y109.875 E.01205
G1 X122.161 Y110.393 E.01204
G1 X122.209 Y110.929 E.01206
G1 X122.161 Y111.464 E.01204
G1 X122.018 Y111.982 E.01204
G1 X121.784 Y112.466 E.01205
G1 X121.468 Y112.901 E.01205
G1 X121.084 Y113.269 E.01192
G1 X120.565 Y113.597 E.01376
G1 X120.137 Y113.78 E.01043
G1 X119.613 Y113.899 E.01204
G1 X119.076 Y113.924 E.01205
G1 X118.544 Y113.851 E.01203
G1 X118.032 Y113.685 E.01206
G1 X117.559 Y113.431 E.01203
G1 X117.139 Y113.095 E.01205
G1 X116.785 Y112.691 E.01204
G1 X116.51 Y112.229 E.01205
G1 X116.321 Y111.726 E.01204
G1 X116.225 Y111.197 E.01205
G1 X116.225 Y110.66 E.01203
G1 X116.321 Y110.131 E.01205
G1 X116.51 Y109.628 E.01204
G1 X116.785 Y109.166 E.01205
G1 X117.139 Y108.762 E.01204
G1 X117.559 Y108.426 E.01205
G1 X118.032 Y108.172 E.01203
G1 X118.539 Y108.007 E.01195
G1 X119.148 Y107.937 E.01374
G1 X119.662 Y107.599 F9000
G1 F900
G1 X120.249 Y107.733 E.01349
G1 X120.803 Y107.97 E.0135
G1 X121.305 Y108.302 E.01349
G1 X121.741 Y108.718 E.01351
G1 X122.095 Y109.205 E.01349
G1 X122.356 Y109.748 E.0135
G1 X122.516 Y110.329 E.01351
G1 X122.57 Y110.929 E.0135
G1 X122.516 Y111.528 E.01348
G1 X122.356 Y112.109 E.01351
G1 X122.095 Y112.652 E.0135
G1 X121.741 Y113.139 E.01349
G1 X121.307 Y113.554 E.01346
G1 X120.733 Y113.917 E.01522
G1 X120.249 Y114.124 E.0118
G1 X119.662 Y114.258 E.01349
G1 X119.06 Y114.285 E.0135
G1 X118.463 Y114.204 E.0135
G1 X117.89 Y114.018 E.0135
G1 X117.36 Y113.732 E.0135
G1 X116.889 Y113.357 E.01349
G1 X116.493 Y112.903 E.0135
G1 X116.184 Y112.386 E.0135
G1 X115.972 Y111.822 E.0135
G1 X115.865 Y111.23 E.01348
G1 X115.865 Y110.627 E.01351
G1 X115.972 Y110.035 E.01348
G1 X116.184 Y109.471 E.0135
G1 X116.493 Y108.954 E.0135
G1 X116.889 Y108.5 E.0135
G1 X117.36 Y108.125 E.01349
G1 X117.89 Y107.839 E.0135
G1 X118.461 Y107.654 E.01345
G1 X119.136 Y107.576 E.01523
G1 X119.614 Y107.597 E.01072
;WIPE_START
G1 F7200
G1 X119.136 Y107.576 E-.11363
G1 X118.461 Y107.654 E-.16138
G1 X117.89 Y107.839 E-.14255
G1 X117.36 Y108.125 E-.14303
G1 X116.889 Y108.5 E-.14299
G1 X116.622 Y108.806 E-.09642
;WIPE_END
G1 X112.287 Y113.962 F9000
G1 E.8 F1800
;TYPE:External perimeter
;WIDTH:0.42
G1 F900
G1 X111.184 Y114.419 E.03182
G1 X110 Y114.575 E.03183
G1 X108.816 Y114.419 E.03183
G1 X107.713 Y113.962 E.03182
G1 X106.765 Y113.235 E.03184
G1 X106.038 Y112.287 E.03184
G1 X105.581 Y111.184 E.03182
G1 X105.425 Y110 E.03183
G1 X105.581 Y108.816 E.03183
G1 X106.038 Y107.713 E.03182
G1 X106.765 Y106.765 E.03184
G1 X107.713 Y106.038 E.03184
G1 X108.816 Y105.581 E.03182
G1 X110 Y105.425 E.03183
G1 X111.184 Y105.581 E.03183
G1 X112.287 Y106.038 E.03182
G1 X113.235 Y106.765 E.03184
G1 X113.962 Y107.713 E.03184
G1 X114.419 Y108.816 E.03182
G1 X114.575 Y110 E.03183
G1 X114.419 Y111.184 E.03183
G1 X113.962 Y112.287 E.03182
G1 X113.235 Y113.235 E.03184
G1 X112.335 Y113.925 E.03022
G1 X112.287 Y114.362 F9000
;WIPE_START
G1 F7200
G1 X111.184 Y114.419 E-.29748
G1 X110 Y114.575 E-.28363
G1 X109.086 Y114.455 E-.21889
;WIPE_END
G1 X108.712 Y105.194 F9000
G1 E.8 F1800
G1 F900
G1 X110 Y105.024 E.03462
G1 X110.241 Y105.056 E.00648
G1 X111.288 Y105.194 E.02815
G1 X112.488 Y105.691 E.03462
G1 X113.518 Y106.482 E.03461
G1 X114.309 Y107.512 E.03461
G1 X114.806 Y108.712 E.03462
G1 X114.976 Y110 E.03462
G1 X114.806 Y111.288 E.03462
G1 X114.309 Y112.488 E.03462
G1 X113.518 Y113.518 E.03461
G1 X112.488 Y114.309 E.03461
G1 X111.288 Y114.806 E.03462
G1 X110 Y114.976 E.03462
G1 X108.712 Y114.806 E.03462
G1 X107.512 Y114.309 E.03462
G1 X106.482 Y113.518 E.03461
G1 X105.691 Y112.488 E.03461
G1 X105.194 Y111.288 E.03462
G1 X105.024 Y110 E.03462
G1 X105.194 Y108.712 E.03462
G1 X105.691 Y107.512 E.03462
G1 X106.482 Y106.482 E.03461
G1 X107.512 Y105.691 E.03461
G1 X108.657 Y105.217 E.03303
G1 X108.995 Y105.477 F9000
; stop printing object J-2-engine.stl id:0 copy 0
;LAYER_CHANGE
;Z:0.6
