; generated by PrusaSlicer 2.6.1+win64 on 2024-01-27 at 11:31:49 UTC

; 

; external perimeters extrusion width = 0.42mm
; perimeters extrusion width = 0.44mm
; infill extrusion width = 0.44mm
; solid infill extrusion width = 0.44mm
; top infill extrusion width = 0.40mm
; support material extrusion width = 0.36mm
; first layer extrusion width = 0.42mm

M201 X500 Y500 Z100 E5000 ; sets maximum accelerations, mm/sec^2
M203 X500 Y500 Z10 E60 ; sets maximum feedrates, mm / sec
M204 S500 T1000 ; sets acceleration (S) and retract acceleration (R), mm/sec^2
M205 X8.00 Y8.00 Z0.40 E5.00 ; sets the jerk limits, mm/sec
M205 S0 T0 ; sets the minimum extruding and travel feed rate, mm/sec
;TYPE:Custom
G90 ; use absolute coordinates
M83 ; extruder relative mode
M104 S150 ; set temporary nozzle temp to prevent oozing during homing
M140 S60 ; set final bed temp
G4 S30 ; allow partial nozzle warmup
G28 ; home all axis and restore leveling
G1 Z50 F240
G1 X2.0 Y10 F3000
M104 S215 ; set final nozzle temp
M190 S60 ; wait for bed temp to stabilize
M109 S215 ; wait for nozzle temp to stabilize
G1 Z0.28 F240
G92 E0
G1 X2.0 Y140 E10 F1500 ; prime the nozzle
G1 X2.3 Y140 F5000
G92 E0
G1 X2.3 Y10 E10 F1200 ; prime the nozzle
G92 E0
G21 ; set units to millimeters
G90 ; use absolute coordinates
M83 ; use relative distances for extrusion
; Filament gcode
M107
;LAYER_CHANGE
;Z:0.2
;HEIGHT:0.2
;BEFORE_LAYER_CHANGE
G92 E0
;0.2


G1 E-.8 F1800
G1 Z.2 F9000
;AFTER_LAYER_CHANGE
;0.2
G1 X95.102 Y102.159
G1 E.8 F1800
M204 S500
;TYPE:Skirt/Brim
;WIDTH:0.42
G1 F1200
G1 X96.654 Y101.138 E.04951
G1 X97.992 Y100.543 E.03903
G1 X115.919 Y94.147 E.50727
G1 X118.459 Y93.55 E.06954
G1 X119.435 Y93.523 E.02602
G1 X122.599 Y93.852 E.08478
G1 X123.773 Y94.023 E.03162
G1 X125.785 Y94.993 E.05953
G1 X127.09 Y96.383 E.05081
G1 X127.926 Y97.69 E.04135
G1 X128.417 Y98.724 E.03051
G1 X128.928 Y100.529 E.05
G1 X129.06 Y101.672 E.03066
G1 X128.891 Y117.623 E.42514
G1 X128.743 Y119.128 E.0403
G1 X128.247 Y120.942 E.05012
G1 X127.406 Y122.628 E.05021
G1 X126.374 Y124.273 E.05175
G1 X125.145 Y125.479 E.04589
G1 X123.752 Y125.98 E.03945
G1 X119.438 Y126.477 E.11573
G1 X118.307 Y126.426 E.03017
G1 X115.919 Y125.853 E.06545
G1 X97.912 Y118.965 E.51382
G1 X96.657 Y118.401 E.03667
G1 X95.106 Y117.381 E.04947
G1 X94.566 Y116.914 E.01903
G1 X93.334 Y115.525 E.04948
G1 X92.386 Y113.928 E.0495
G1 X91.759 Y112.18 E.04949
G1 X91.473 Y110.345 E.0495
G1 X91.54 Y108.488 E.04952
G1 X91.958 Y106.678 E.04951
G1 X92.711 Y104.98 E.0495
G1 X93.772 Y103.455 E.04951
G1 X95.059 Y102.201 E.04789
G1 X95.32 Y102.467 F9000
G1 F1200
G1 X96.811 Y101.481 E.04764
G1 X98.118 Y100.898 E.03814
G1 X116.036 Y94.505 E.50702
G1 X118.518 Y93.922 E.06795
G1 X119.396 Y93.899 E.02341
G1 X122.56 Y94.227 E.08478
G1 X123.717 Y94.396 E.03116
G1 X125.528 Y95.269 E.05358
G1 X126.807 Y96.632 E.04981
G1 X127.599 Y97.878 E.03935
G1 X128.059 Y98.841 E.02844
G1 X128.553 Y100.572 E.04798
G1 X128.685 Y101.715 E.03066
G1 X128.514 Y117.618 E.42386
G1 X128.368 Y119.087 E.03934
G1 X127.887 Y120.829 E.04816
G1 X127.075 Y122.447 E.04825
G1 X126.055 Y124.072 E.05113
G1 X124.876 Y125.199 E.04347
G1 X123.697 Y125.607 E.03325
G1 X119.399 Y126.102 E.1153
G1 X118.366 Y126.054 E.02756
G1 X116.036 Y125.495 E.06386
G1 X97.855 Y118.532 E.51886
G1 X96.257 Y117.737 E.04757
G1 X95.324 Y117.074 E.0305
G1 X94.048 Y115.826 E.04757
G1 X93.651 Y115.321 E.01712
G1 X92.736 Y113.788 E.04758
G1 X92.129 Y112.109 E.04758
G1 X91.85 Y110.345 E.0476
G1 X91.911 Y108.56 E.0476
G1 X92.308 Y106.818 E.04762
G1 X93.028 Y105.184 E.04759
G1 X94.045 Y103.715 E.04762
G1 X95.277 Y102.509 E.04595
; printing object S-IC-fairing-fin-3.6.stl id:0 copy 0
;WIPE_START
G1 F7200
G1 X96.811 Y101.481 E-.43857
G1 X98.118 Y100.898 E-.33989
G1 X98.203 Y100.868 E-.02154
;WIPE_END
G1 X102.137 Y103.846 F9000
G1 E.8 F1800
;TYPE:Support material
G1 F1200
G1 X102.644 Y103.919 E.01365
G1 X103.725 Y104.294 E.03049
G1 X104.624 Y104.814 E.02768
G1 X105.623 Y104.758 E.02667
G1 X106.76 Y104.942 E.0307
G1 X107.836 Y105.369 E.03085
G1 X108.35 Y105.716 E.01653
G1 X108.221 Y106.115 E.01118
G1 X108.321 Y106.406 E.0082
G1 X108.532 Y106.55 E.00681
G1 X108.314 Y107.42 E.0239
G1 X108.07 Y107.451 E.00656
G1 X107.848 Y107.666 E.00824
G1 X107.77 Y108.16 E.01333
G1 X107.914 Y108.432 E.0082
G1 X108.143 Y108.539 E.00674
G1 X108.113 Y108.743 E.0055
G1 X108.08 Y109.431 E.01836
G1 X107.83 Y109.503 E.00693
G1 X107.645 Y109.75 E.00822
G1 X107.645 Y110.25 E.01333
G1 X107.83 Y110.497 E.00822
G1 X108.08 Y110.569 E.00693
G1 X108.113 Y111.257 E.01836
G1 X108.143 Y111.461 E.0055
G1 X107.914 Y111.568 E.00674
G1 X107.77 Y111.84 E.0082
G1 X107.848 Y112.334 E.01333
G1 X108.07 Y112.549 E.00824
G1 X108.314 Y112.58 E.00656
G1 X108.532 Y113.45 E.0239
G1 X108.321 Y113.594 E.00681
G1 X108.221 Y113.885 E.0082
G1 X108.375 Y114.361 E.01333
G1 X108.433 Y114.402 E.00189
G1 X107.836 Y114.805 E.0192
G1 X106.758 Y115.233 E.03091
G1 X105.62 Y115.417 E.03072
G1 X104.468 Y115.351 E.03075
G1 X103.841 Y115.176 E.01735
G1 X103.724 Y115.244 E.00361
G1 X102.643 Y115.618 E.03049
G1 X101.511 Y115.782 E.03048
G1 X100.368 Y115.728 E.0305
G1 X99.256 Y115.459 E.03049
G1 X98.214 Y114.985 E.03051
G1 X97.281 Y114.321 E.03052
G1 X96.491 Y113.493 E.0305
G1 X95.871 Y112.531 E.0305
G1 X95.445 Y111.468 E.03052
G1 X95.227 Y110.343 E.03054
G1 X95.227 Y109.198 E.03052
G1 X95.443 Y108.073 E.03053
G1 X95.869 Y107.01 E.03052
G1 X96.488 Y106.046 E.03053
G1 X97.279 Y105.218 E.03052
G1 X98.212 Y104.554 E.03052
G1 X99.254 Y104.078 E.03053
G1 X100.367 Y103.809 E.03052
G1 X101.511 Y103.755 E.03052
G1 X102.082 Y103.838 E.01538
G1 X107.625 Y114.707 F9000
G1 F1200
G1 X107.97 Y114.213 E.01606
G1 X107.863 Y113.883 E.00925
G1 X108.036 Y113.377 E.01425
G1 X108.145 Y113.302 E.00353
G1 X108.042 Y112.887 E.0114
G1 X107.983 Y112.88 E.00158
G1 X106.554 Y114.922 E.06642
G1 X105.602 Y115.076 E.0257
G1 X105.528 Y115.072 E.00198
G1 X107.494 Y112.265 E.09133
G1 X107.417 Y111.782 E.01304
G1 X107.668 Y111.309 E.01427
G1 X107.774 Y111.259 E.00312
G1 X107.753 Y110.828 E.0115
G1 X107.615 Y110.776 E.00393
G1 X104.643 Y115.021 E.13811
G1 X104.524 Y115.015 E.00318
G1 X103.858 Y114.828 E.01844
G1 X107.306 Y109.903 E.16023
G1 X107.306 Y109.637 E.00709
G1 X107.627 Y109.209 E.01426
G1 X107.753 Y109.173 E.00349
G1 X107.774 Y108.741 E.01153
G1 X107.668 Y108.691 E.00312
G1 X107.481 Y108.338 E.01065
G1 X102.632 Y115.263 E.22531
G1 X102.562 Y115.287 E.00197
G1 X101.597 Y115.426 E.02598
G1 X107.946 Y106.359 E.295
G1 X107.863 Y106.117 E.00682
G1 X107.948 Y105.855 E.00734
G1 X107.676 Y105.671 E.00875
G1 X107.544 Y105.618 E.00379
G1 X100.692 Y115.404 E.31838
G1 X100.416 Y115.391 E.00736
G1 X99.873 Y115.259 E.01489
G1 X106.824 Y105.333 E.32295
G1 X106.669 Y105.272 E.00444
G1 X106.019 Y105.166 E.01755
G1 X99.117 Y115.023 E.3207
G1 X98.419 Y114.705 E.02044
G1 X105.127 Y105.126 E.31166
G1 X104.542 Y105.159 E.01562
G1 X104.287 Y105.011 E.00786
G1 X97.801 Y114.274 E.30137
G1 X97.504 Y114.064 E.00969
G1 X97.229 Y113.776 E.01061
G1 X103.631 Y104.632 E.29749
G1 X102.897 Y104.366 E.02081
G1 X96.708 Y113.205 E.28758
G1 X96.267 Y112.52 E.02171
G1 X102.104 Y104.184 E.27121
G1 X101.495 Y104.096 E.0164
G1 X101.236 Y104.108 E.00691
G1 X95.91 Y111.715 E.24749
G1 X95.772 Y111.372 E.00985
G1 X95.654 Y110.765 E.01648
G1 X100.263 Y104.183 E.21415
G1 X99.365 Y104.401 E.02463
G1 X99.108 Y104.518 E.00753
G1 X95.566 Y109.576 E.16457
G1 X95.566 Y109.23 E.00922
G1 X95.771 Y108.169 E.0288
G1 X95.957 Y107.703 E.01337
G1 X97.822 Y105.039 E.08667
;WIPE_START
G1 F7200
G1 X95.957 Y107.703 E-.77234
G1 X95.914 Y107.811 E-.02766
;WIPE_END
G1 X124.266 Y98.857 F9000
G1 E.8 F1800
G1 F1200
G1 X124.849 Y99.891 E.03164
G1 X125.198 Y100.958 E.02992
G1 X125.33 Y102.102 E.03069
G1 X125.231 Y103.246 E.0306
G1 X125.089 Y103.728 E.01339
G1 X124.905 Y104.347 E.01721
G1 X124.369 Y105.358 E.0305
G1 X123.652 Y106.231 E.03011
G1 X122.742 Y106.972 E.03128
G1 X121.745 Y107.496 E.03002
G1 X120.648 Y107.817 E.03046
G1 X119.611 Y107.906 E.02774
G1 X119.495 Y108.04 E.00472
G1 X118.836 Y108.54 E.02205
G1 X119.61 Y109.263 E.02823
G1 X120.328 Y110.155 E.03052
G1 X120.881 Y111.119 E.02962
G1 X121.229 Y111.974 E.0246
G1 X121.65 Y112.12 E.01188
G1 X122.629 Y112.676 E.03001
G1 X123.484 Y113.411 E.03005
G1 X124.207 Y114.326 E.03108
G1 X124.724 Y115.335 E.03022
G1 X125.04 Y116.434 E.03048
G1 X125.137 Y117.576 E.03055
G1 X125.011 Y118.717 E.03059
G1 X124.666 Y119.815 E.03067
G1 X124.113 Y120.826 E.03071
G1 X123.399 Y121.678 E.02963
G1 X123.03 Y120.957 E.02159
G1 X122.764 Y120.819 E.00799
G1 X122.064 Y120.923 E.01886
G1 X120.988 Y120.976 E.02871
G1 X119.912 Y120.923 E.02871
G1 X118.847 Y120.765 E.02869
G1 X117.802 Y120.503 E.02871
G1 X116.788 Y120.14 E.0287
G1 X115.814 Y119.68 E.02871
G1 X114.89 Y119.126 E.02871
G1 X114.025 Y118.484 E.02871
G1 X113.227 Y117.761 E.0287
G1 X112.503 Y116.963 E.02872
G1 X111.862 Y116.098 E.02869
G1 X111.308 Y115.174 E.02871
G1 X110.854 Y114.214 E.0283
G1 X110.485 Y113.186 E.02911
G1 X110.223 Y112.141 E.02871
G1 X110.065 Y111.076 E.02869
G1 X110.012 Y110 E.02871
G1 X110.065 Y108.924 E.02871
G1 X110.223 Y107.859 E.02869
G1 X110.485 Y106.814 E.02871
G1 X110.848 Y105.8 E.0287
G1 X111.308 Y104.826 E.02871
G1 X111.862 Y103.902 E.02871
G1 X112.503 Y103.037 E.02869
G1 X113.227 Y102.239 E.02872
G1 X114.025 Y101.516 E.0287
G1 X114.89 Y100.874 E.02871
G1 X115.814 Y100.32 E.02871
G1 X116.788 Y99.86 E.02871
G1 X117.802 Y99.497 E.0287
G1 X118.847 Y99.235 E.02871
G1 X119.912 Y99.077 E.02869
G1 X120.988 Y99.024 E.02871
G1 X122.064 Y99.077 E.02871
G1 X122.783 Y99.184 E.01937
G1 X123.049 Y99.046 E.00799
G1 X123.347 Y98.453 E.01769
G1 X123.569 Y98.061 E.01201
G1 X124.229 Y98.814 E.02669
;WIPE_START
G1 F7200
G1 X123.569 Y98.061 E-.23781
G1 X123.347 Y98.453 E-.10699
G1 X123.049 Y99.046 E-.15762
G1 X122.783 Y99.184 E-.07117
G1 X122.064 Y99.077 E-.17264
G1 X121.838 Y99.066 E-.05377
;WIPE_END
G1 X123.338 Y121.192 F9000
G1 E.8 F1800
G1 F1200
G1 X124.194 Y119.97 E.03976
G1 X124.352 Y119.681 E.00878
G1 X124.678 Y118.647 E.02889
G1 X124.767 Y117.837 E.02172
G1 X122.898 Y120.506 E.08684
G1 X122.823 Y120.467 E.00225
G1 X121.918 Y120.59 E.02434
G1 X124.713 Y116.599 E.12985
G1 X124.704 Y116.496 E.00276
G1 X124.46 Y115.646 E.02357
G1 X120.966 Y120.635 E.16233
G1 X120.076 Y120.591 E.02375
G1 X124.095 Y114.852 E.18673
G1 X123.919 Y114.509 E.01027
G1 X123.654 Y114.167 E.01153
G1 X119.234 Y120.479 E.20537
G1 X118.913 Y120.432 E.00865
G1 X118.431 Y120.311 E.01324
G1 X123.151 Y113.571 E.2193
G1 X122.576 Y113.077 E.0202
G1 X117.663 Y120.093 E.22827
G1 X116.927 Y119.83 E.02083
G1 X121.938 Y112.674 E.23283
G1 X121.509 Y112.431 E.01314
G1 X121.25 Y112.341 E.00731
G1 X116.235 Y119.504 E.23304
G1 X115.974 Y119.38 E.0077
G1 X115.57 Y119.138 E.01255
G1 X120.761 Y111.724 E.24121
G1 X120.576 Y111.268 E.01311
G1 X120.388 Y110.942 E.01003
G1 X114.932 Y118.735 E.25353
G1 X114.326 Y118.285 E.02012
G1 X119.96 Y110.239 E.26178
G1 X119.467 Y109.628 E.02092
G1 X113.757 Y117.783 E.26532
G1 X113.467 Y117.521 E.01042
G1 X113.215 Y117.242 E.01002
G1 X119.023 Y108.947 E.26987
;WIPE_START
G1 F7200
G1 X117.091 Y111.706 E-.8
;WIPE_END
G1 X122.172 Y107.08 F9000
G1 E.8 F1800
G1 F1200
G1 X124.892 Y103.195 E.12639
G1 X124.989 Y102.106 E.02914
G1 X124.953 Y101.793 E.0084
G1 X121.069 Y107.341 E.18049
G1 X120.585 Y107.482 E.01344
G1 X120.015 Y107.531 E.01525
G1 X124.77 Y100.74 E.22094
G1 X124.536 Y100.025 E.02005
G1 X124.455 Y99.875 E.00454
G1 X112.702 Y116.66 E.5461
G1 X112.228 Y116.022 E.02118
G1 X124.043 Y99.149 E.54897
G1 X123.988 Y99.055 E.0029
G1 X123.63 Y98.645 E.01451
G1 X123.302 Y99.297 E.01945
G1 X122.857 Y99.528 E.01336
G1 X111.795 Y115.326 E.51399
G1 X111.608 Y115.014 E.00969
G1 X111.4 Y114.575 E.01295
G1 X122.015 Y99.414 E.49325
G1 X121.125 Y99.371 E.02375
G1 X111.05 Y113.759 E.46812
G1 X110.81 Y113.088 E.01899
G1 X110.755 Y112.867 E.00607
G1 X120.182 Y99.403 E.43804
G1 X119.945 Y99.415 E.00632
G1 X119.173 Y99.53 E.0208
G1 X110.527 Y111.877 E.40172
G1 X110.403 Y111.043 E.02247
G1 X110.389 Y110.759 E.00758
G1 X118.079 Y99.777 E.3573
G1 X117.9 Y99.822 E.00492
G1 X116.862 Y100.2 E.02944
G1 X110.378 Y109.46 E.30128
G1 X110.403 Y108.957 E.01342
G1 X110.57 Y107.872 E.02926
G1 X115.411 Y100.957 E.22497
G1 X115.079 Y101.156 E.01032
G1 X114.24 Y101.778 E.02783
G1 X113.467 Y102.479 E.02781
G1 X113.281 Y102.684 E.00738
G1 X110.953 Y106.01 E.1082
;WIPE_START
G1 F7200
G1 X112.885 Y103.25 E-.8
;WIPE_END
G1 X108.75 Y111.957 F9000
G1 E.8 F1800
;TYPE:External perimeter
G1 F1200
G1 X108.703 Y111.946 E.00129
G1 X108.878 Y111.84 E.00545
G1 X108.824 Y111.473 E.00989
G1 X108.849 Y111.225 E.00664
G1 X108.818 Y110.518 E.01886
G1 X108.703 Y110.063 E.01251
G1 X108.549 Y110 E.00443
G1 X108.703 Y109.937 E.00443
G1 X108.818 Y109.482 E.01251
G1 X108.849 Y108.775 E.01886
G1 X108.824 Y108.527 E.00664
G1 X108.878 Y108.16 E.00989
G1 X108.703 Y108.054 E.00545
G1 X108.901 Y108.007 E.00542
G1 X108.958 Y107.623 E.01035
G1 X109.115 Y107.242 E.01098
G1 X109.224 Y106.806 E.01198
G1 X109.279 Y106.261 E.0146
G1 X109.157 Y106.157 E.00427
G1 X109.335 Y106.144 E.00476
G1 X109.588 Y105.699 E.01364
G1 X109.886 Y104.98 E.02074
G1 X110.021 Y104.487 E.01362
G1 X109.905 Y104.352 E.00474
G1 X110.064 Y104.364 E.00425
G1 X110.411 Y103.94 E.0146
G1 X110.642 Y103.555 E.01197
G1 X110.801 Y103.174 E.011
G1 X111.032 Y102.862 E.01035
G1 X110.925 Y102.689 E.00542
G1 X111.087 Y102.729 E.00445
G1 X111.396 Y102.49 E.01041
G1 X112.019 Y101.758 E.02562
G1 X112.256 Y101.357 E.01241
G1 X112.192 Y101.204 E.00442
G1 X112.345 Y101.268 E.00442
G1 X112.746 Y101.031 E.01241
G1 X113.478 Y100.408 E.02562
G1 X113.717 Y100.099 E.01041
G1 X113.677 Y99.937 E.00445
G1 X113.85 Y100.044 E.00542
G1 X114.162 Y99.813 E.01035
G1 X114.543 Y99.654 E.011
G1 X114.928 Y99.423 E.01197
G1 X115.352 Y99.076 E.0146
G1 X115.34 Y98.917 E.00425
G1 X115.475 Y99.033 E.00474
G1 X115.968 Y98.898 E.01362
G1 X116.687 Y98.6 E.02074
G1 X117.132 Y98.347 E.01364
G1 X117.145 Y98.169 E.00476
G1 X117.249 Y98.291 E.00427
G1 X117.794 Y98.236 E.0146
G1 X118.23 Y98.127 E.01198
G1 X118.611 Y97.97 E.01098
G1 X118.995 Y97.913 E.01035
G1 X119.042 Y97.715 E.00542
G1 X119.128 Y97.857 E.00442
G1 X119.52 Y97.908 E.01054
G1 X119.787 Y97.876 E.00717
G1 X120.986 Y97.837 E.03197
G1 X122.18 Y97.895 E.03186
G1 X122.738 Y97.978 E.01503
G1 X122.531 Y98.366 E.01172
G1 X122.14 Y98.308 E.01053
G1 X120.988 Y98.251 E.03074
G1 X119.836 Y98.308 E.03074
G1 X118.696 Y98.477 E.03071
G1 X117.577 Y98.757 E.03074
G1 X116.492 Y99.145 E.03071
G1 X115.45 Y99.638 E.03072
G1 X114.461 Y100.231 E.03073
G1 X113.535 Y100.918 E.03073
G1 X112.68 Y101.692 E.03074
G1 X111.906 Y102.547 E.03074
G1 X111.674 Y102.859 E.01036
G1 X111.219 Y103.473 E.02037
G1 X110.626 Y104.462 E.03073
G1 X110.133 Y105.504 E.03072
G1 X109.745 Y106.589 E.03071
G1 X109.465 Y107.708 E.03074
G1 X109.296 Y108.848 E.03071
G1 X109.239 Y110 E.03074
G1 X109.296 Y111.152 E.03074
G1 X109.465 Y112.292 E.03071
G1 X109.745 Y113.411 E.03074
G1 X110.133 Y114.496 E.03071
G1 X110.626 Y115.538 E.03072
G1 X111.219 Y116.527 E.03073
G1 X111.906 Y117.453 E.03073
G1 X112.68 Y118.308 E.03074
G1 X113.535 Y119.082 E.03074
G1 X114.461 Y119.769 E.03073
G1 X115.45 Y120.362 E.03073
G1 X116.492 Y120.855 E.03072
G1 X117.577 Y121.243 E.03071
G1 X118.696 Y121.523 E.03074
G1 X119.836 Y121.692 E.03071
G1 X120.988 Y121.749 E.03074
G1 X122.14 Y121.692 E.03074
G1 X122.512 Y121.637 E.01002
G1 X122.717 Y122.025 E.0117
G1 X122.18 Y122.105 E.01447
G1 X120.986 Y122.163 E.03186
G1 X119.787 Y122.124 E.03197
G1 X119.52 Y122.092 E.00717
G1 X119.128 Y122.143 E.01054
G1 X119.042 Y122.285 E.00442
G1 X118.995 Y122.087 E.00542
G1 X118.611 Y122.03 E.01035
G1 X118.23 Y121.873 E.01098
G1 X117.794 Y121.764 E.01198
G1 X117.249 Y121.709 E.0146
G1 X117.145 Y121.831 E.00427
G1 X117.132 Y121.653 E.00476
G1 X116.687 Y121.4 E.01364
G1 X115.968 Y121.102 E.02074
G1 X115.475 Y120.967 E.01362
G1 X115.34 Y121.083 E.00474
G1 X115.352 Y120.924 E.00425
G1 X114.928 Y120.577 E.0146
G1 X114.543 Y120.346 E.01197
G1 X114.162 Y120.187 E.011
G1 X113.85 Y119.956 E.01035
G1 X113.677 Y120.063 E.00542
G1 X113.726 Y119.864 E.00546
