; generated by PrusaSlicer 2.6.1+win64 on 2024-01-27 at 16:57:34 UTC

; 

; external perimeters extrusion width = 0.42mm
; perimeters extrusion width = 0.44mm
; infill extrusion width = 0.44mm
; solid infill extrusion width = 0.44mm
; top infill extrusion width = 0.40mm
; support material extrusion width = 0.36mm
; first layer extrusion width = 0.42mm

M201 X500 Y500 Z100 E5000 ; sets maximum accelerations, mm/sec^2
M203 X500 Y500 Z10 E60 ; sets maximum feedrates, mm / sec
M204 S500 T1000 ; sets acceleration (S) and retract acceleration (R), mm/sec^2
M205 X8.00 Y8.00 Z0.40 E5.00 ; sets the jerk limits, mm/sec
M205 S0 T0 ; sets the minimum extruding and travel feed rate, mm/sec
;TYPE:Custom
G90 ; use absolute coordinates
M83 ; extruder relative mode
M104 S150 ; set temporary nozzle temp to prevent oozing during homing
M140 S60 ; set final bed temp
G4 S30 ; allow partial nozzle warmup
G28 ; home all axis and restore leveling
G1 Z50 F240
G1 X2.0 Y10 F3000
M104 S215 ; set final nozzle temp
M190 S60 ; wait for bed temp to stabilize
M109 S215 ; wait for nozzle temp to stabilize
G1 Z0.28 F240
G92 E0
G1 X2.0 Y140 E10 F1500 ; prime the nozzle
G1 X2.3 Y140 F5000
G92 E0
G1 X2.3 Y10 E10 F1200 ; prime the nozzle
G92 E0
G21 ; set units to millimeters
G90 ; use absolute coordinates
M83 ; use relative distances for extrusion
; Filament gcode
M107
;LAYER_CHANGE
;Z:0.2
;HEIGHT:0.2
;BEFORE_LAYER_CHANGE
G92 E0
;0.2


G1 E-.8 F1800
G1 Z.2 F9000
;AFTER_LAYER_CHANGE
;0.2
G1 X96.655 Y95.184
G1 E.8 F1800
M204 S500
;TYPE:Skirt/Brim
;WIDTH:0.42
G1 F1200
G1 X103.27 Y88.467 E.25125
G1 X104.696 Y87.287 E.04933
G1 X106.363 Y86.422 E.05005
G1 X107.211 Y86.144 E.02378
G1 X108.302 Y85.924 E.02966
G1 X109.628 Y85.854 E.03539
G1 X111.3 Y86.038 E.04483
G1 X112.382 Y86.345 E.02997
G1 X113.202 Y86.687 E.02368
G1 X114.208 Y87.255 E.03079
G1 X114.897 Y87.755 E.02269
G1 X132.158 Y103.588 E.62424
G1 X132.703 Y104.254 E.02294
G1 X133.324 Y105.219 E.03058
G1 X133.898 Y106.527 E.03807
G1 X134.291 Y107.936 E.03898
G1 X134.419 Y109.078 E.03063
G1 X134.417 Y109.938 E.02292
G1 X134.281 Y111.088 E.03086
G1 X134.083 Y111.925 E.02292
G1 X133.689 Y113.015 E.03089
G1 X133.304 Y113.786 E.02297
G1 X132.182 Y115.354 E.05139
G1 X115.866 Y131.345 E.60886
G1 X114.931 Y132.218 E.03409
G1 X114.25 Y132.711 E.02241
G1 X113.259 Y133.271 E.03034
G1 X112.44 Y133.614 E.02366
G1 X111.327 Y133.93 E.03084
G1 X110.449 Y134.071 E.0237
G1 X109.292 Y134.117 E.03086
G1 X108.404 Y134.047 E.02374
G1 X106.558 Y133.593 E.05066
G1 X105.151 Y132.927 E.04149
G1 X103.692 Y131.846 E.04839
G1 X88.306 Y115.668 E.59502
G1 X87.365 Y114.489 E.0402
G1 X86.907 Y113.734 E.02353
G1 X86.458 Y112.745 E.02895
G1 X86.225 Y112.067 E.01911
G1 X85.985 Y110.968 E.02998
G1 X85.889 Y109.343 E.04338
G1 X86.052 Y107.954 E.03727
G1 X86.532 Y106.369 E.04414
G1 X87.009 Y105.379 E.02929
G1 X88.082 Y103.89 E.04891
G1 X96.613 Y95.227 E.32403
G1 X96.88 Y95.491 F9000
G1 F1200
G1 X103.538 Y88.732 E.25285
G1 X104.921 Y87.589 E.04782
G1 X106.523 Y86.764 E.04802
G1 X107.285 Y86.514 E.02137
G1 X108.377 Y86.294 E.02969
G1 X109.626 Y86.231 E.03333
G1 X111.197 Y86.401 E.04211
G1 X112.279 Y86.708 E.02997
G1 X113.016 Y87.016 E.02129
G1 X114.023 Y87.584 E.03081
G1 X114.643 Y88.033 E.0204
G1 X131.895 Y103.859 E.62394
G1 X132.386 Y104.458 E.02064
G1 X133.007 Y105.423 E.03058
G1 X133.542 Y106.652 E.03572
G1 X133.916 Y107.978 E.03672
G1 X134.045 Y109.12 E.03063
G1 X134.043 Y109.894 E.02063
G1 X133.907 Y111.043 E.03084
G1 X133.729 Y111.797 E.02065
G1 X133.334 Y112.886 E.03087
G1 X132.988 Y113.58 E.02067
G1 X131.917 Y115.086 E.04925
G1 X115.605 Y131.073 E.60871
G1 X114.677 Y131.939 E.03383
G1 X114.064 Y132.383 E.02017
G1 X113.074 Y132.943 E.03031
G1 X112.336 Y133.251 E.02131
G1 X111.224 Y133.568 E.03082
G1 X110.434 Y133.694 E.02132
G1 X109.277 Y133.74 E.03086
G1 X108.478 Y133.677 E.02136
G1 X106.707 Y133.247 E.04857
G1 X105.326 Y132.593 E.04072
G1 X103.928 Y131.552 E.04645
G1 X88.58 Y115.408 E.59366
G1 X87.662 Y114.257 E.03924
G1 X87.251 Y113.578 E.02115
G1 X86.801 Y112.589 E.02896
G1 X86.359 Y110.921 E.04599
G1 X86.266 Y109.343 E.04213
G1 X86.419 Y108.041 E.03494
G1 X86.884 Y106.504 E.0428
G1 X87.346 Y105.548 E.0283
G1 X88.379 Y104.122 E.04693
G1 X96.838 Y95.534 E.32126
; printing object S-II-thrust-cross-3.0.stl id:0 copy 0
;WIPE_START
G1 F7200
G1 X99.202 Y93.134 E-.8
;WIPE_END
G1 X98.86 Y104.714 F9000
G1 E.8 F1800
;TYPE:Support material
G1 F1200
G1 X99.472 Y104.66 E.01637
G1 X100.034 Y104.924 E.01655
G1 X100.574 Y104.841 E.01456
G1 X101.327 Y105.042 E.02077
G1 X102.244 Y105.39 E.02614
G1 X103.316 Y106.567 E.04243
G1 X103.427 Y107.009 E.01215
G1 X104.091 Y107.748 E.02648
G1 X104.482 Y109.311 E.04294
G1 X104.302 Y110.031 E.01978
G1 X104.482 Y110.751 E.01978
G1 X104.091 Y112.315 E.04297
G1 X103.334 Y113.158 E.0302
G1 X103.265 Y113.435 E.00761
G1 X102.192 Y114.612 E.04245
G1 X101.275 Y114.96 E.02614
G1 X100.522 Y115.162 E.02078
G1 X99.292 Y114.972 E.03317
G1 X98.907 Y115.043 E.01043
G1 X98.71 Y115.025 E.00527
G1 X98.073 Y115.331 E.01883
G1 X96.547 Y115.331 E.04067
G1 X95.172 Y114.669 E.04067
G1 X95.026 Y114.486 E.00624
G1 X94.085 Y114.516 E.02509
G1 X93.014 Y114.296 E.02914
G1 X92.46 Y114.061 E.01604
G1 X91.891 Y113.771 E.01702
G1 X91.031 Y113.085 E.02932
G1 X90.325 Y112.18 E.03059
G1 X89.876 Y111.192 E.02892
G1 X89.71 Y110.5 E.01897
G1 X89.644 Y109.977 E.01405
G1 X89.643 Y109.338 E.01703
G1 X89.705 Y108.82 E.0139
G1 X89.853 Y108.195 E.01712
G1 X90.039 Y107.708 E.01389
G1 X90.362 Y107.068 E.01911
G1 X91.039 Y106.203 E.02927
G1 X91.942 Y105.487 E.03071
G1 X92.986 Y105.003 E.03067
G1 X94.081 Y104.784 E.02976
G1 X94.702 Y104.792 E.01655
G1 X95.298 Y104.831 E.01592
G1 X95.629 Y104.924 E.00916
G1 X96.191 Y104.653 E.01663
G1 X97.717 Y104.653 E.04067
G1 X97.811 Y104.699 E.00279
G1 X98.13 Y104.529 E.00963
G1 X98.805 Y104.7 E.01856
G1 X101.092 Y114.833 F9000
G1 F1200
G1 X104.084 Y110.56 E.13902
G1 X103.952 Y110.031 E.01453
G1 X104.132 Y109.311 E.01978
G1 X104.107 Y109.212 E.00272
G1 X100.215 Y114.771 E.18086
G1 X99.384 Y114.643 E.02241
G1 X103.865 Y108.243 E.20822
G1 X103.783 Y107.912 E.00909
G1 X103.442 Y107.533 E.01359
G1 X98.332 Y114.83 E.23742
G1 X97.996 Y114.992 E.00994
G1 X97.298 Y114.992 E.0186
G1 X103.027 Y106.81 E.2662
G1 X103.008 Y106.733 E.00211
G1 X102.529 Y106.207 E.01896
G1 X96.44 Y114.903 E.28292
G1 X95.751 Y114.571 E.02038
G1 X101.993 Y105.658 E.29
G1 X101.265 Y105.382 E.02075
G1 X95.13 Y114.143 E.28505
G1 X94.189 Y114.173 E.02509
G1 X100.472 Y105.2 E.29194
G1 X99.984 Y105.275 E.01316
G1 X99.619 Y105.104 E.01074
G1 X93.373 Y114.023 E.29019
G1 X93.115 Y113.97 E.00702
G1 X92.633 Y113.765 E.01396
G1 X98.746 Y105.035 E.28403
G1 X98.174 Y104.89 E.01573
G1 X97.819 Y105.079 E.01072
G1 X97.801 Y105.07 E.00054
G1 X91.969 Y113.399 E.27098
G1 X91.378 Y112.928 E.02014
G1 X96.934 Y104.993 E.25816
G1 X96.269 Y104.993 E.01772
G1 X95.884 Y105.178 E.01138
G1 X90.874 Y112.333 E.23279
G1 X90.617 Y112.003 E.01115
G1 X90.447 Y111.628 E.01097
G1 X94.982 Y105.151 E.21073
G1 X94.076 Y105.131 E.02415
G1 X90.124 Y110.774 E.18361
G1 X90.044 Y110.439 E.00918
G1 X89.983 Y109.955 E.013
G1 X89.983 Y109.661 E.00784
G1 X92.981 Y105.38 E.13929
G1 X92.121 Y105.778 E.02526
G1 X91.357 Y106.383 E.02597
G1 X89.997 Y108.327 E.06323
;WIPE_START
G1 F7200
G1 X91.357 Y106.383 E-.56347
G1 X92.121 Y105.778 E-.23145
G1 X92.14 Y105.769 E-.00508
;WIPE_END
G1 X111.99 Y115.753 F9000
G1 E.8 F1800
G1 F1200
G1 X112.865 Y116.08 E.0249
G1 X113.942 Y117.22 E.0418
G1 X114.026 Y117.526 E.00846
G1 X114.81 Y118.387 E.03103
G1 X115.207 Y119.965 E.04337
G1 X114.939 Y121.028 E.02922
G1 X115.078 Y121.202 E.00594
G1 X115.417 Y122.69 E.04067
G1 X115.078 Y124.178 E.04067
G1 X114.365 Y125.072 E.03048
G1 X114.413 Y125.437 E.00981
G1 X114.29 Y126.589 E.03088
G1 X113.899 Y127.679 E.03086
G1 X113.272 Y128.632 E.0304
G1 X112.403 Y129.443 E.03168
G1 X111.412 Y130.003 E.03034
G1 X110.3 Y130.32 E.03082
G1 X109.142 Y130.366 E.03089
G1 X108.045 Y130.146 E.02982
G1 X107.395 Y129.865 E.01887
G1 X106.898 Y129.604 E.01496
G1 X106.039 Y128.916 E.02933
G1 X105.365 Y128.04 E.02946
G1 X105.049 Y127.404 E.01893
G1 X104.863 Y126.896 E.01442
G1 X104.725 Y126.301 E.01628
G1 X104.664 Y125.746 E.01488
G1 X104.668 Y125.086 E.01759
G1 X104.862 Y124.046 E.0282
G1 X105.331 Y122.989 E.03082
G1 X105.322 Y122.951 E.00104
G1 X105.513 Y122.115 E.02285
G1 X105.391 Y121.538 E.01572
G1 X105.492 Y121.129 E.01123
G1 X105.111 Y120.402 E.02187
G1 X104.9 Y119.616 E.02169
G1 X104.976 Y118.343 E.03399
G1 X105.626 Y117.104 E.03729
G1 X106.866 Y116.171 E.04136
G1 X108.36 Y115.94 E.04029
G1 X109.22 Y116.17 E.02373
G1 X109.711 Y115.796 E.01645
G1 X111.2 Y115.545 E.04024
G1 X111.936 Y115.739 E.02029
G1 X112.023 Y129.463 F9000
G1 F1200
G1 X113.817 Y126.9 E.08338
G1 X113.957 Y126.513 E.01097
G1 X114.071 Y125.441 E.02873
G1 X114.047 Y125.258 E.00492
G1 X110.862 Y129.807 E.148
G1 X110.246 Y129.982 E.01707
G1 X109.806 Y130 E.01174
G1 X115.034 Y122.534 E.24291
G1 X114.807 Y121.542 E.02712
G1 X108.905 Y129.972 E.27426
G1 X108.103 Y129.801 E.02185
G1 X114.781 Y120.264 E.31029
G1 X114.857 Y119.965 E.00822
G1 X114.649 Y119.138 E.02273
G1 X107.403 Y129.486 E.33668
G1 X107.084 Y129.319 E.0096
G1 X106.774 Y129.07 E.0106
G1 X114.297 Y118.327 E.34953
G1 X113.776 Y117.756 E.0206
G1 X106.202 Y128.572 E.35191
G1 X105.721 Y127.945 E.02106
G1 X113.335 Y117.071 E.35379
G1 X112.806 Y116.511 E.02053
G1 X105.331 Y127.187 E.34734
G1 X105.188 Y126.799 E.01102
G1 X105.062 Y126.255 E.01488
G1 X112.127 Y116.166 E.32826
G1 X111.888 Y116.077 E.0068
G1 X111.365 Y115.94 E.01441
G1 X105.033 Y124.983 E.29421
G1 X105.188 Y124.147 E.02266
G1 X105.687 Y123.023 E.03278
G1 X105.67 Y122.951 E.00197
G1 X105.736 Y122.664 E.00785
G1 X110.383 Y116.027 E.21593
G1 X109.85 Y116.116 E.0144
G1 X109.293 Y116.541 E.01867
G1 X109.133 Y116.498 E.00442
G1 X105.815 Y121.236 E.15416
G1 X105.852 Y121.085 E.00414
G1 X105.487 Y120.39 E.02092
G1 X108.357 Y116.29 E.13338
G1 X107.33 Y116.442 E.02767
G1 X105.085 Y119.65 E.10435
;WIPE_START
G1 F7200
G1 X107.016 Y116.89 E-.8
;WIPE_END
G1 X126.028 Y104.474 F9000
G1 E.8 F1800
G1 F1200
G1 X126.65 Y104.542 E.01668
G1 X127.717 Y104.882 E.02985
G1 X128.713 Y105.478 E.03093
G1 X129.545 Y106.284 E.03087
G1 X130.166 Y107.249 E.03058
G1 X130.56 Y108.356 E.03132
G1 X130.689 Y109.498 E.03063
G1 X130.553 Y110.647 E.03084
G1 X130.159 Y111.737 E.03089
G1 X129.539 Y112.687 E.03023
G1 X128.666 Y113.523 E.03221
G1 X127.683 Y114.102 E.0304
G1 X126.571 Y114.447 E.03103
G1 X125.408 Y114.528 E.03107
G1 X124.243 Y114.337 E.03146
G1 X123.714 Y114.592 E.01565
G1 X122.188 Y114.592 E.04067
G1 X122.062 Y114.531 E.00373
G1 X121.622 Y114.524 E.01173
G1 X121.462 Y114.604 E.00477
G1 X120.499 Y114.838 E.02641
G1 X119.328 Y114.694 E.03144
G1 X118.457 Y114.266 E.02586
G1 X118.086 Y113.927 E.01339
G1 X117.675 Y113.864 E.01108
G1 X116.436 Y112.93 E.04135
G1 X115.92 Y111.947 E.02959
G1 X115.709 Y111.161 E.02169
G1 X115.77 Y110.134 E.02742
G1 X115.731 Y110.049 E.00249
G1 X115.731 Y108.65 E.03728
G1 X116.376 Y107.254 E.04098
G1 X117.675 Y106.275 E.04335
G1 X118.899 Y106.087 E.033
G1 X119.531 Y105.611 E.02109
G1 X120.832 Y105.41 E.03508
G1 X120.907 Y105.316 E.0032
G1 X122.283 Y104.653 E.04071
G1 X123.809 Y104.653 E.04067
G1 X123.99 Y104.741 E.00536
G1 X124.293 Y104.617 E.00873
G1 X125.405 Y104.445 E.02999
G1 X125.972 Y104.472 E.01513
G1 X127.458 Y113.994 F9000
G1 F1200
G1 X130.295 Y109.943 E.13181
G1 X130.347 Y109.497 E.01197
G1 X130.256 Y108.684 E.0218
G1 X126.452 Y114.115 E.17672
G1 X125.485 Y114.182 E.02583
G1 X129.988 Y107.752 E.20921
G1 X129.86 Y107.401 E.00996
G1 X129.598 Y106.993 E.01292
G1 X124.65 Y114.06 E.22992
G1 X124.192 Y113.985 E.01237
G1 X123.637 Y114.252 E.01641
G1 X123.594 Y114.252 E.00115
G1 X129.127 Y106.351 E.25707
G1 X128.578 Y105.82 E.02036
G1 X122.674 Y114.252 E.27433
G1 X122.266 Y114.252 E.01087
G1 X122.142 Y114.193 E.00366
G1 X121.798 Y114.187 E.00917
G1 X127.943 Y105.413 E.28548
G1 X127.577 Y105.193 E.01138
G1 X127.249 Y105.089 E.00917
G1 X120.701 Y114.439 E.30422
G1 X120.479 Y114.493 E.00609
G1 X119.801 Y114.41 E.0182
G1 X126.485 Y104.865 E.31055
G1 X126.002 Y104.813 E.01295
G1 X125.614 Y104.794 E.01035
G1 X119.044 Y114.176 E.30525
G1 X118.65 Y113.983 E.01169
G1 X118.412 Y113.765 E.0086
G1 X124.611 Y104.912 E.28803
G1 X124.385 Y104.947 E.00609
G1 X123.979 Y105.112 E.01168
G1 X123.731 Y104.993 E.00733
G1 X123.633 Y104.993 E.00261
G1 X117.704 Y113.461 E.2755
G1 X117.101 Y113.007 E.02012
G1 X122.713 Y104.993 E.26074
G1 X122.36 Y104.993 E.00941
G1 X121.503 Y105.406 E.02535
G1 X116.568 Y112.453 E.22928
G1 X116.238 Y111.823 E.01895
G1 X116.197 Y111.669 E.00425
G1 X120.279 Y105.839 E.18968
G1 X119.667 Y105.933 E.0165
G1 X119.036 Y106.409 E.02107
G1 X118.95 Y106.422 E.00232
G1 X116.088 Y110.509 E.13297
G1 X116.114 Y110.069 E.01175
G1 X116.071 Y109.975 E.00275
G1 X116.071 Y109.219 E.02015
G1 X118.052 Y106.389 E.09207
;WIPE_START
G1 F7200
G1 X116.12 Y109.149 E-.8
;WIPE_END
G1 X109.604 Y89.609 F9000
G1 E.8 F1800
G1 F1200
G1 X110.275 Y89.65 E.01792
G1 X111.357 Y89.957 E.02997
G1 X112.363 Y90.525 E.03079
G1 X113.209 Y91.313 E.03081
G1 X113.845 Y92.279 E.03082
G1 X114.237 Y93.368 E.03085
G1 X114.361 Y94.52 E.03088
G1 X114.255 Y95.329 E.02175
G1 X114.343 Y95.44 E.00378
G1 X114.461 Y95.954 E.01406
G1 X115.041 Y96.681 E.02479
G1 X115.38 Y98.169 E.04067
G1 X115.041 Y99.657 E.04067
G1 X114.37 Y100.499 E.02869
G1 X114.312 Y100.727 E.00627
G1 X113.767 Y101.327 E.0216
G1 X113.602 Y101.979 E.01792
G1 X112.53 Y103.157 E.04245
G1 X111.479 Y103.541 E.02982
G1 X111.257 Y103.784 E.00877
G1 X110.34 Y104.132 E.02614
G1 X109.587 Y104.334 E.02078
G1 X108.093 Y104.103 E.04029
G1 X106.853 Y103.17 E.04136
G1 X106.806 Y103.079 E.00273
G1 X105.759 Y102.291 E.03492
G1 X105.243 Y101.308 E.02959
G1 X105.032 Y100.522 E.02169
G1 X105.108 Y99.249 E.03399
G1 X105.437 Y98.622 E.01887
G1 X105.379 Y98.367 E.00697
G1 X105.501 Y97.833 E.0146
G1 X105.313 Y97.009 E.02252
G1 X105.271 Y96.955 E.00182
G1 X104.841 Y95.985 E.02828
G1 X104.693 Y95.374 E.01675
G1 X104.616 Y94.803 E.01536
G1 X104.613 Y94.211 E.01578
G1 X104.674 Y93.656 E.01488
G1 X104.812 Y93.062 E.01625
G1 X104.999 Y92.553 E.01445
G1 X105.314 Y91.921 E.01882
G1 X105.942 Y91.104 E.02746
G1 X106.374 Y90.719 E.01542
G1 X106.941 Y90.295 E.01887
G1 X107.951 Y89.824 E.0297
G1 X109.042 Y89.605 E.02966
G1 X109.547 Y89.608 E.01346
G1 X112.022 Y103.168 F9000
G1 F1200
G1 X114.796 Y99.207 E.12888
G1 X115.032 Y98.169 E.02837
G1 X114.926 Y97.705 E.01268
G1 X110.803 Y103.593 E.19157
G1 X110.235 Y103.809 E.0162
G1 X109.616 Y103.975 E.01708
G1 X114.668 Y96.759 E.23476
G1 X114.178 Y96.144 E.02096
G1 X108.772 Y103.865 E.2512
G1 X108.229 Y103.781 E.01464
G1 X108.02 Y103.624 E.00697
G1 X113.932 Y95.181 E.2747
G1 X114.019 Y94.516 E.01787
G1 X113.947 Y93.845 E.01799
G1 X107.417 Y103.17 E.3034
G1 X107.118 Y102.944 E.00999
G1 X107.071 Y102.854 E.00271
G1 X106.84 Y102.68 E.00771
G1 X113.701 Y92.881 E.31881
G1 X113.539 Y92.432 E.01272
G1 X113.324 Y92.105 E.01043
G1 X106.237 Y102.226 E.32929
G1 X106.024 Y102.065 E.00712
G1 X105.769 Y101.58 E.0146
G1 X112.86 Y91.452 E.3295
G1 X112.303 Y90.933 E.02029
G1 X105.44 Y100.734 E.31888
G1 X105.374 Y100.487 E.00681
G1 X105.438 Y99.422 E.02843
G1 X111.669 Y90.523 E.28953
G1 X111.225 Y90.272 E.01359
G1 X110.974 Y90.201 E.00695
G1 X105.795 Y97.598 E.24066
G1 X105.627 Y96.862 E.02012
G1 X105.565 Y96.781 E.00272
G1 X105.519 Y96.677 E.00303
G1 X110.205 Y89.985 E.21773
G1 X109.311 Y89.946 E.02385
G1 X105.163 Y95.871 E.19276
G1 X105.027 Y95.312 E.01533
G1 X104.963 Y94.841 E.01267
G1 X108.28 Y90.104 E.15412
G1 X108.057 Y90.149 E.00606
G1 X107.116 Y90.588 E.02767
G1 X106.915 Y90.738 E.00668
G1 X104.839 Y93.704 E.09649
;WIPE_START
G1 F7200
G1 X106.771 Y90.944 E-.8
;WIPE_END
G1 X108.72 Y111.28 F9000
G1 E.8 F1800
;TYPE:External perimeter
G1 F1200
G1 X107.594 Y111.329 E.03004
G1 X107.403 Y111.311 E.00511
G1 X107.395 Y111.036 E.00733
G1 X107.589 Y110.999 E.00526
G1 X108.677 Y110.952 E.02902
G1 X108.677 Y110.808 E.00384
G1 X108.883 Y111.117 E.0099
G1 X109.192 Y111.323 E.0099
G1 X109.048 Y111.323 E.00384
G1 X109.001 Y112.411 E.02902
