; generated by PrusaSlicer 2.6.1+win64 on 2024-01-27 at 11:35:40 UTC

; 

; external perimeters extrusion width = 0.42mm
; perimeters extrusion width = 0.44mm
; infill extrusion width = 0.44mm
; solid infill extrusion width = 0.44mm
; top infill extrusion width = 0.40mm
; support material extrusion width = 0.36mm
; first layer extrusion width = 0.42mm

M201 X500 Y500 Z100 E5000 ; sets maximum accelerations, mm/sec^2
M203 X500 Y500 Z10 E60 ; sets maximum feedrates, mm / sec
M204 S500 T1000 ; sets acceleration (S) and retract acceleration (R), mm/sec^2
M205 X8.00 Y8.00 Z0.40 E5.00 ; sets the jerk limits, mm/sec
M205 S0 T0 ; sets the minimum extruding and travel feed rate, mm/sec
;TYPE:Custom
G90 ; use absolute coordinates
M83 ; extruder relative mode
M104 S150 ; set temporary nozzle temp to prevent oozing during homing
M140 S60 ; set final bed temp
G4 S30 ; allow partial nozzle warmup
G28 ; home all axis and restore leveling
G1 Z50 F240
G1 X2.0 Y10 F3000
M104 S215 ; set final nozzle temp
M190 S60 ; wait for bed temp to stabilize
M109 S215 ; wait for nozzle temp to stabilize
G1 Z0.28 F240
G92 E0
G1 X2.0 Y140 E10 F1500 ; prime the nozzle
G1 X2.3 Y140 F5000
G92 E0
G1 X2.3 Y10 E10 F1200 ; prime the nozzle
G92 E0
G21 ; set units to millimeters
G90 ; use absolute coordinates
M83 ; use relative distances for extrusion
; Filament gcode
M107
;LAYER_CHANGE
;Z:0.2
;HEIGHT:0.2
;BEFORE_LAYER_CHANGE
G92 E0
;0.2


G1 E-.8 F1800
G1 Z.2 F9000
;AFTER_LAYER_CHANGE
;0.2
G1 X99.501 Y97.5
G1 E.8 F1800
M204 S500
;TYPE:Skirt/Brim
;WIDTH:0.42
G1 F1200
G1 X100.628 Y96.654 E.03756
G1 X101.985 Y96.011 E.04002
G1 X103.274 Y95.693 E.03538
G1 X104.151 Y95.585 E.02355
G1 X116.409 Y95.543 E.32669
G1 X118.262 Y95.828 E.04997
G1 X119.537 Y96.338 E.0366
G1 X120.685 Y97.064 E.0362
G1 X121.768 Y98.105 E.04004
G1 X122.833 Y99.711 E.05136
G1 X123.883 Y101.799 E.06229
G1 X124.28 Y103.619 E.04965
G1 X123.833 Y116.166 E.3346
G1 X122.876 Y121.46 E.14338
G1 X122.287 Y122.841 E.04001
G1 X121.487 Y124.001 E.03755
G1 X120.404 Y125.042 E.04004
G1 X119.213 Y125.795 E.03755
G1 X117.809 Y126.328 E.04002
G1 X116.418 Y126.555 E.03756
G1 X115.74 Y126.603 E.01811
G1 X104.147 Y126.374 E.30903
G1 X103.324 Y126.266 E.02212
G1 X101.956 Y125.929 E.03755
G1 X100.599 Y125.286 E.04002
G1 X99.472 Y124.44 E.03756
G1 X98.581 Y123.488 E.03475
G1 X96.872 Y120.742 E.0862
G1 X96.441 Y119.596 E.03263
G1 X96.264 Y118.709 E.02411
G1 X96.193 Y117.264 E.03856
G1 X96.387 Y105.008 E.32668
G1 X96.729 Y103.077 E.05226
G1 X97.516 Y100.523 E.07123
G1 X97.854 Y99.749 E.02251
G1 X98.505 Y98.623 E.03466
G1 X99.461 Y97.545 E.0384
G1 X99.727 Y97.801 F9000
G1 F1200
G1 X100.854 Y96.955 E.03756
G1 X102.075 Y96.377 E.036
G1 X103.364 Y96.06 E.03538
G1 X104.153 Y95.962 E.02119
G1 X116.369 Y95.918 E.32557
G1 X118.188 Y96.198 E.04905
G1 X119.335 Y96.657 E.03293
G1 X120.484 Y97.383 E.03622
G1 X121.458 Y98.319 E.036
G1 X122.496 Y99.881 E.04998
G1 X123.546 Y101.969 E.06229
G1 X123.903 Y103.605 E.04463
G1 X123.457 Y116.153 E.33463
G1 X122.506 Y121.384 E.1417
G1 X121.977 Y122.627 E.036
G1 X121.176 Y123.787 E.03757
G1 X120.202 Y124.723 E.036
G1 X119.011 Y125.477 E.03757
G1 X117.748 Y125.956 E.036
G1 X116.357 Y126.182 E.03756
G1 X115.748 Y126.226 E.01627
G1 X104.154 Y125.997 E.30905
G1 X103.414 Y125.899 E.01989
G1 X102.046 Y125.563 E.03754
G1 X100.825 Y124.984 E.03601
G1 X99.698 Y124.139 E.03754
G1 X98.897 Y123.282 E.03126
G1 X97.199 Y120.553 E.08566
G1 X96.81 Y119.522 E.02937
G1 X96.634 Y118.636 E.02407
G1 X96.57 Y117.27 E.03645
G1 X96.764 Y105.014 E.32668
G1 X97.09 Y103.188 E.04943
G1 X97.876 Y100.634 E.07122
G1 X98.18 Y99.938 E.02024
G1 X98.831 Y98.812 E.03466
G1 X99.687 Y97.846 E.0344
; printing object S-II-ullage-motor-3.1.stl id:0 copy 3
;WIPE_START
G1 F7200
G1 X100.854 Y96.955 E-.34871
G1 X102.075 Y96.377 E-.32084
G1 X102.608 Y96.246 E-.13045
;WIPE_END
G1 X116.731 Y99.352 F9000
G1 E.8 F1800
;TYPE:Support material
G1 F1200
G1 X117.53 Y99.51 E.02171
G1 X118.678 Y100.237 E.03621
G1 X119.479 Y101.397 E.03757
G1 X119.638 Y102.176 E.02119
G1 X120.528 Y103.485 E.04219
G1 X119.507 Y104.728 E.04287
G1 X119.926 Y106.78 E.05582
G1 X119.644 Y108.161 E.03756
G1 X118.843 Y109.322 E.03759
G1 X117.652 Y110.075 E.03755
G1 X116.261 Y110.302 E.03756
G1 X114.893 Y109.965 E.03755
G1 X113.766 Y109.119 E.03756
G1 X113.114 Y107.993 E.03468
G1 X113.089 Y107.866 E.00345
G1 X112.749 Y107.56 E.01219
G1 X112.162 Y106.545 E.03125
G1 X111.986 Y105.659 E.02407
G1 X111.986 Y105.006 E.0174
G1 X112.162 Y104.119 E.0241
G1 X112.773 Y103.063 E.03252
G1 X112.773 Y102.452 E.01628
G1 X112.949 Y101.566 E.02407
G1 X113.6 Y100.44 E.03466
G1 X114.727 Y99.594 E.03756
G1 X116.016 Y99.276 E.03538
G1 X116.675 Y99.346 E.01766
G1 X117.221 Y103.232 F9000
G1 F1200
G1 X117.625 Y102.989 E.01256
G1 X118.357 Y103.308 E.02128
G1 X118.809 Y103.638 E.01492
G1 X118.909 Y103.859 E.00646
G1 X118.699 Y106.263 E.06431
G1 X118.562 Y106.464 E.00648
G1 X118.059 Y106.711 E.01493
G1 X117.283 Y106.897 E.02127
G1 X116.927 Y106.588 E.01256
G1 X117.216 Y103.288 E.08829
;WIPE_START
G1 F7200
G1 X116.927 Y106.588 E-.78675
G1 X116.969 Y106.625 E-.01325
;WIPE_END
G1 X117.185 Y109.979 F9000
G1 E.8 F1800
G1 F1200
G1 X119.545 Y106.609 E.10965
G1 X119.337 Y105.591 E.02769
G1 X119.065 Y105.98 E.01265
G1 X119.03 Y106.381 E.01073
G1 X118.792 Y106.729 E.01124
G1 X118.408 Y106.917 E.01139
G1 X116.282 Y109.955 E.09882
G1 X115.495 Y109.764 E.02158
G1 X117.253 Y107.252 E.08171
G1 X117.191 Y107.267 E.0017
G1 X116.651 Y106.797 E.01908
G1 X114.786 Y109.461 E.08667
G1 X114.182 Y109.008 E.02012
G1 X116.688 Y105.429 E.11644
G1 X116.82 Y103.927 E.04018
G1 X113.717 Y108.357 E.14415
G1 X113.436 Y107.872 E.01494
G1 X113.4 Y107.689 E.00497
G1 X113.317 Y107.614 E.00298
G1 X118.348 Y100.43 E.23374
G1 X117.71 Y100.026 E.02013
G1 X112.822 Y107.007 E.22712
G1 X112.484 Y106.423 E.01798
G1 X112.446 Y106.229 E.00527
G1 X116.984 Y99.748 E.21086
G1 X116.68 Y99.687 E.00826
G1 X116.145 Y99.631 E.01434
G1 X112.326 Y105.086 E.17747
G1 X112.484 Y104.241 E.02291
G1 X113.112 Y103.154 E.03346
G1 X113.112 Y102.647 E.01351
G1 X115.212 Y99.649 E.09755
;WIPE_START
G1 F7200
G1 X113.279 Y102.408 E-.8
;WIPE_END
G1 X119.001 Y104.756 F9000
G1 E.8 F1800
G1 F1200
G1 X120.006 Y103.321 E.04669
G1 X119.552 Y102.654 E.0215
G1 X119.039 Y103.386 E.02382
G1 X118.541 Y103.022 E.01644
G1 X118.418 Y102.958 E.0037
G1 X119.218 Y101.817 E.03714
G1 X119.16 Y101.533 E.00773
G1 X118.83 Y101.055 E.01548
G1 X117.607 Y102.803 E.05686
;WIPE_START
G1 F7200
G1 X118.83 Y101.055 E-.50667
G1 X119.16 Y101.533 E-.13795
G1 X119.218 Y101.817 E-.06884
G1 X119.009 Y102.115 E-.08654
;WIPE_END
G1 X117.98 Y103.871 F9000
G1 E.8 F1800
;TYPE:External perimeter
G1 F1200
G1 X118.219 Y104.041 E.00782
G1 X118.051 Y105.966 E.0515
G1 X117.808 Y106.085 E.00721
G1 X117.643 Y106.124 E.00452
G1 X117.845 Y103.813 E.06183
G1 X117.925 Y103.847 E.00232
G1 X118.142 Y104.116 F9000
; stop printing object S-II-ullage-motor-3.1.stl id:0 copy 3
; printing object S-II-ullage-motor-3.1.stl id:0 copy 0
;WIPE_START
G1 F7200
G1 X118.219 Y104.041 E-.08366
G1 X118.051 Y105.966 E-.45893
G1 X117.808 Y106.085 E-.06426
G1 X117.643 Y106.124 E-.04027
G1 X117.699 Y105.483 E-.15288
;WIPE_END
G1 X104.886 Y99.414 F9000
G1 E.8 F1800
;TYPE:Support material
G1 F1200
G1 X105.684 Y99.573 E.02169
G1 X106.833 Y100.299 E.03622
G1 X107.633 Y101.46 E.03758
G1 X107.792 Y102.239 E.02119
G1 X108.683 Y103.548 E.0422
G1 X107.662 Y104.79 E.04285
G1 X108.081 Y106.843 E.05584
G1 X107.799 Y108.224 E.03756
G1 X106.998 Y109.384 E.03757
G1 X105.807 Y110.138 E.03757
G1 X104.416 Y110.364 E.03756
G1 X103.047 Y110.028 E.03757
G1 X101.92 Y109.182 E.03756
G1 X101.269 Y108.056 E.03466
G1 X101.244 Y107.928 E.00348
G1 X100.904 Y107.622 E.01219
G1 X100.317 Y106.607 E.03125
G1 X100.141 Y105.721 E.02407
G1 X100.141 Y105.068 E.0174
G1 X100.317 Y104.182 E.02407
G1 X100.927 Y103.126 E.0325
G1 X100.927 Y102.515 E.01628
G1 X101.104 Y101.628 E.02411
G1 X101.755 Y100.502 E.03466
G1 X102.882 Y99.656 E.03756
G1 X104.171 Y99.339 E.03538
G1 X104.829 Y99.408 E.01763
G1 X105.376 Y103.294 F9000
G1 F1200
G1 X105.78 Y103.052 E.01255
G1 X106.511 Y103.37 E.02125
G1 X106.964 Y103.701 E.01495
G1 X107.064 Y103.922 E.00646
G1 X106.854 Y106.326 E.06431
G1 X106.717 Y106.526 E.00646
G1 X106.213 Y106.773 E.01496
G1 X105.438 Y106.959 E.02124
G1 X105.082 Y106.65 E.01256
G1 X105.371 Y103.351 E.08826
;WIPE_START
G1 F7200
G1 X105.082 Y106.65 E-.78651
G1 X105.125 Y106.687 E-.01349
;WIPE_END
G1 X105.339 Y110.042 F9000
G1 E.8 F1800
G1 F1200
G1 X107.699 Y106.672 E.10965
G1 X107.491 Y105.654 E.02769
G1 X107.219 Y106.043 E.01265
G1 X107.184 Y106.444 E.01073
G1 X106.946 Y106.791 E.01121
G1 X106.563 Y106.98 E.01138
G1 X104.436 Y110.017 E.09882
G1 X103.649 Y109.826 E.02158
G1 X105.408 Y107.315 E.08171
G1 X105.346 Y107.329 E.00169
G1 X104.806 Y106.86 E.01906
G1 X102.941 Y109.523 E.08665
G1 X102.337 Y109.07 E.02012
G1 X104.843 Y105.492 E.11642
G1 X104.974 Y103.989 E.04021
G1 X101.872 Y108.42 E.14415
G1 X101.591 Y107.934 E.01496
G1 X101.555 Y107.752 E.00494
G1 X101.472 Y107.677 E.00298
G1 X106.502 Y100.492 E.23375
G1 X105.864 Y100.088 E.02013
G1 X100.976 Y107.069 E.22712
G1 X100.639 Y106.486 E.01795
G1 X100.6 Y106.291 E.0053
G1 X105.138 Y99.81 E.21086
G1 X104.835 Y99.75 E.00823
G1 X104.299 Y99.694 E.01436
G1 X100.48 Y105.148 E.17745
G1 X100.639 Y104.303 E.02292
G1 X101.267 Y103.217 E.03343
G1 X101.267 Y102.71 E.01351
G1 X103.366 Y99.712 E.09754
;WIPE_START
G1 F7200
G1 X101.434 Y102.471 E-.8
;WIPE_END
G1 X107.156 Y104.818 F9000
G1 E.8 F1800
G1 F1200
G1 X108.16 Y103.383 E.04668
G1 X107.707 Y102.716 E.02149
G1 X107.194 Y103.449 E.02384
G1 X106.696 Y103.085 E.01644
G1 X106.573 Y103.021 E.0037
G1 X107.372 Y101.879 E.03715
G1 X107.315 Y101.596 E.00769
G1 X106.985 Y101.118 E.01548
G1 X105.761 Y102.865 E.05685
;WIPE_START
G1 F7200
G1 X106.985 Y101.118 E-.50662
G1 X107.315 Y101.596 E-.13795
G1 X107.372 Y101.879 E-.06856
G1 X107.162 Y102.179 E-.08687
;WIPE_END
G1 X106.135 Y103.934 F9000
G1 E.8 F1800
;TYPE:External perimeter
G1 F1200
G1 X106.374 Y104.104 E.00782
G1 X106.205 Y106.029 E.0515
G1 X105.962 Y106.148 E.00721
G1 X105.797 Y106.186 E.00451
G1 X105.999 Y103.876 E.0618
G1 X106.079 Y103.91 E.00232
G1 X106.297 Y104.178 F9000
; stop printing object S-II-ullage-motor-3.1.stl id:0 copy 0
; printing object S-II-ullage-motor-3.1.stl id:0 copy 2
;WIPE_START
G1 F7200
G1 X106.374 Y104.104 E-.08385
G1 X106.205 Y106.029 E-.45895
G1 X105.962 Y106.148 E-.06426
G1 X105.797 Y106.186 E-.04021
G1 X105.853 Y105.545 E-.15273
;WIPE_END
G1 X104.691 Y111.67 F9000
G1 E.8 F1800
;TYPE:Support material
G1 F1200
G1 X105.49 Y111.829 E.02171
G1 X106.638 Y112.555 E.0362
G1 X107.439 Y113.716 E.03759
G1 X107.598 Y114.495 E.02119
G1 X108.488 Y115.804 E.04219
G1 X107.467 Y117.046 E.04285
G1 X107.886 Y119.098 E.05582
G1 X107.604 Y120.48 E.03759
G1 X106.803 Y121.64 E.03757
G1 X105.612 Y122.394 E.03757
G1 X104.221 Y122.62 E.03756
G1 X102.853 Y122.284 E.03754
G1 X101.726 Y121.438 E.03756
G1 X101.075 Y120.311 E.03469
G1 X101.049 Y120.184 E.00345
G1 X100.709 Y119.878 E.01219
G1 X100.123 Y118.863 E.03124
G1 X99.946 Y117.977 E.02408
G1 X99.946 Y117.324 E.0174
G1 X100.123 Y116.438 E.02408
G1 X100.733 Y115.382 E.0325
G1 X100.733 Y114.771 E.01628
G1 X100.909 Y113.884 E.0241
G1 X101.56 Y112.758 E.03466
G1 X102.687 Y111.912 E.03756
G1 X103.976 Y111.595 E.03538
G1 X104.635 Y111.664 E.01766
G1 X105.181 Y115.55 F9000
G1 F1200
G1 X105.585 Y115.308 E.01255
G1 X106.317 Y115.626 E.02127
G1 X106.769 Y115.957 E.01493
G1 X106.87 Y116.178 E.00648
G1 X106.659 Y118.582 E.06432
G1 X106.522 Y118.782 E.00646
G1 X106.019 Y119.029 E.01493
G1 X105.243 Y119.215 E.02127
G1 X104.888 Y118.906 E.01254
G1 X105.176 Y115.607 E.08826
;WIPE_START
G1 F7200
G1 X104.888 Y118.906 E-.78649
G1 X104.931 Y118.943 E-.01351
;WIPE_END
G1 X105.145 Y122.298 F9000
G1 E.8 F1800
G1 F1200
G1 X107.505 Y118.928 E.10965
G1 X107.297 Y117.909 E.02772
G1 X107.025 Y118.298 E.01265
G1 X106.99 Y118.7 E.01075
G1 X106.752 Y119.047 E.01121
G1 X106.369 Y119.235 E.01137
G1 X104.242 Y122.273 E.09884
G1 X103.455 Y122.082 E.02158
G1 X105.213 Y119.571 E.08169
G1 X105.152 Y119.585 E.00167
G1 X104.611 Y119.116 E.01908
G1 X102.746 Y121.779 E.08665
G1 X102.143 Y121.326 E.0201
G1 X104.648 Y117.748 E.11641
G1 X104.78 Y116.245 E.04021
G1 X101.677 Y120.676 E.14417
G1 X101.396 Y120.19 E.01496
G1 X101.36 Y120.008 E.00494
G1 X101.277 Y119.933 E.00298
G1 X106.308 Y112.748 E.23376
G1 X105.67 Y112.344 E.02013
G1 X100.782 Y119.325 E.22712
G1 X100.445 Y118.742 E.01795
G1 X100.406 Y118.547 E.0053
G1 X104.944 Y112.066 E.21086
G1 X104.64 Y112.006 E.00826
G1 X104.105 Y111.95 E.01434
G1 X100.286 Y117.404 E.17745
G1 X100.445 Y116.559 E.02292
G1 X101.072 Y115.473 E.03342
G1 X101.072 Y114.966 E.01351
G1 X103.172 Y111.968 E.09755
;WIPE_START
G1 F7200
G1 X101.239 Y114.727 E-.8
;WIPE_END
G1 X106.961 Y117.074 F9000
G1 E.8 F1800
G1 F1200
G1 X107.966 Y115.639 E.04669
G1 X107.512 Y114.972 E.0215
G1 X107 Y115.705 E.02383
G1 X106.501 Y115.34 E.01648
G1 X106.378 Y115.277 E.00368
G1 X107.178 Y114.135 E.03716
G1 X107.12 Y113.851 E.00773
G1 X106.79 Y113.374 E.01546
G1 X105.567 Y115.121 E.05683
;WIPE_START
G1 F7200
G1 X106.79 Y113.374 E-.50648
G1 X107.12 Y113.851 E-.13776
G1 X107.178 Y114.135 E-.06884
G1 X106.968 Y114.435 E-.08692
;WIPE_END
G1 X105.94 Y116.189 F9000
G1 E.8 F1800
;TYPE:External perimeter
G1 F1200
G1 X106.179 Y116.36 E.00783
G1 X106.011 Y118.284 E.05147
G1 X105.768 Y118.404 E.00722
G1 X105.603 Y118.442 E.00451
G1 X105.805 Y116.132 E.0618
G1 X105.885 Y116.166 E.00232
G1 X106.102 Y116.434 F9000
; stop printing object S-II-ullage-motor-3.1.stl id:0 copy 2
; printing object S-II-ullage-motor-3.1.stl id:0 copy 1
;WIPE_START
G1 F7200
G1 X106.179 Y116.36 E-.08366
G1 X106.011 Y118.284 E-.45869
G1 X105.768 Y118.404 E-.06437
G1 X105.603 Y118.442 E-.04021
G1 X105.659 Y117.8 E-.15307
;WIPE_END
G1 X116.285 Y111.899 F9000
G1 E.8 F1800
;TYPE:Support material
G1 F1200
G1 X117.083 Y112.058 E.02169
G1 X118.231 Y112.784 E.0362
G1 X119.032 Y113.945 E.03759
G1 X119.191 Y114.724 E.02119
G1 X120.082 Y116.033 E.0422
G1 X119.06 Y117.275 E.04287
G1 X119.479 Y119.327 E.05582
G1 X119.197 Y120.709 E.03759
G1 X118.397 Y121.869 E.03755
G1 X117.205 Y122.623 E.03759
G1 X115.814 Y122.849 E.03756
G1 X114.446 Y122.512 E.03755
G1 X113.319 Y121.667 E.03754
G1 X112.668 Y120.54 E.03469
G1 X112.643 Y120.413 E.00345
G1 X112.303 Y120.107 E.01219
G1 X111.716 Y119.092 E.03125
G1 X111.54 Y118.206 E.02407
G1 X111.54 Y117.553 E.0174
G1 X111.716 Y116.667 E.02407
G1 X112.326 Y115.611 E.0325
G1 X112.326 Y115 E.01628
G1 X112.503 Y114.113 E.02411
G1 X113.154 Y112.987 E.03466
G1 X114.28 Y112.141 E.03754
G1 X115.57 Y111.824 E.0354
G1 X116.228 Y111.893 E.01763
G1 X116.774 Y115.779 F9000
G1 F1200
G1 X117.178 Y115.537 E.01255
G1 X117.91 Y115.855 E.02127
G1 X118.363 Y116.186 E.01495
G1 X118.463 Y116.406 E.00644
G1 X118.253 Y118.811 E.06434
G1 X118.115 Y119.011 E.00648
G1 X117.612 Y119.258 E.01493
G1 X116.837 Y119.444 E.02124
G1 X116.481 Y119.135 E.01256
G1 X116.77 Y115.836 E.08826
;WIPE_START
G1 F7200
G1 X116.481 Y119.135 E-.78651
G1 X116.524 Y119.172 E-.01349
;WIPE_END
G1 X116.738 Y122.527 F9000
G1 E.8 F1800
G1 F1200
G1 X119.098 Y119.157 E.10965
G1 X118.89 Y118.138 E.02772
G1 X118.618 Y118.527 E.01265
G1 X118.583 Y118.929 E.01075
G1 X118.345 Y119.276 E.01121
G1 X117.962 Y119.464 E.01137
G1 X115.835 Y122.502 E.09884
G1 X115.048 Y122.311 E.02158
G1 X116.806 Y119.8 E.08169
G1 X116.745 Y119.814 E.00167
G1 X116.204 Y119.345 E.01908
G1 X114.339 Y122.008 E.08665
G1 X113.736 Y121.555 E.0201
G1 X116.242 Y117.977 E.11642
G1 X116.373 Y116.474 E.04021
G1 X113.271 Y120.905 E.14415
G1 X112.99 Y120.419 E.01496
G1 X112.953 Y120.237 E.00495
G1 X112.87 Y120.162 E.00298
G1 X117.901 Y112.977 E.23376
G1 X117.263 Y112.573 E.02013
G1 X112.375 Y119.554 E.22712
G1 X112.038 Y118.971 E.01795
G1 X111.999 Y118.776 E.0053
G1 X116.537 Y112.295 E.21086
G1 X116.234 Y112.235 E.00823
G1 X115.698 Y112.179 E.01436
G1 X111.879 Y117.633 E.17745
G1 X112.038 Y116.788 E.02292
G1 X112.666 Y115.702 E.03343
G1 X112.666 Y115.195 E.01351
G1 X114.765 Y112.197 E.09754
;WIPE_START
G1 F7200
