; generated by PrusaSlicer 2.6.1+win64 on 2024-01-26 at 23:29:41 UTC

; 

; external perimeters extrusion width = 0.42mm
; perimeters extrusion width = 0.44mm
; infill extrusion width = 0.44mm
; solid infill extrusion width = 0.44mm
; top infill extrusion width = 0.40mm
; support material extrusion width = 0.36mm
; first layer extrusion width = 0.42mm

M201 X500 Y500 Z100 E5000 ; sets maximum accelerations, mm/sec^2
M203 X500 Y500 Z10 E60 ; sets maximum feedrates, mm / sec
M204 S500 T1000 ; sets acceleration (S) and retract acceleration (R), mm/sec^2
M205 X8.00 Y8.00 Z0.40 E5.00 ; sets the jerk limits, mm/sec
M205 S0 T0 ; sets the minimum extruding and travel feed rate, mm/sec
;TYPE:Custom
G90 ; use absolute coordinates
M83 ; extruder relative mode
M104 S150 ; set temporary nozzle temp to prevent oozing during homing
M140 S60 ; set final bed temp
G4 S30 ; allow partial nozzle warmup
G28 ; home all axis and restore leveling
G1 Z50 F240
G1 X2.0 Y10 F3000
M104 S215 ; set final nozzle temp
M190 S60 ; wait for bed temp to stabilize
M109 S215 ; wait for nozzle temp to stabilize
G1 Z0.28 F240
G92 E0
G1 X2.0 Y140 E10 F1500 ; prime the nozzle
G1 X2.3 Y140 F5000
G92 E0
G1 X2.3 Y10 E10 F1200 ; prime the nozzle
G92 E0
G21 ; set units to millimeters
G90 ; use absolute coordinates
M83 ; use relative distances for extrusion
; Filament gcode
M107
;LAYER_CHANGE
;Z:0.2
;HEIGHT:0.2
;BEFORE_LAYER_CHANGE
G92 E0
;0.2


G1 E-.8 F1800
G1 Z.2 F9000
;AFTER_LAYER_CHANGE
;0.2
G1 X93.652 Y86.957
G1 E.8 F1800
M204 S500
;TYPE:Skirt/Brim
;WIDTH:0.42
G1 F1200
G1 X94.657 Y86.055 E.03599
G1 X95.773 Y85.317 E.03566
G1 X97.445 Y84.612 E.04836
G1 X99.152 Y84.272 E.04639
G1 X120.868 Y83.267 E.57938
G1 X122.201 Y83.428 E.03578
G1 X123.84 Y83.91 E.04553
G1 X125.439 Y84.732 E.04792
G1 X126.848 Y85.847 E.04789
G1 X128.097 Y87.318 E.05143
G1 X136.545 Y98.917 E.38243
G1 X136.96 Y99.767 E.02521
G1 X137.309 Y100.919 E.03208
G1 X138.75 Y108.217 E.19826
G1 X138.915 Y109.646 E.03834
G1 X138.792 Y111.499 E.04949
G1 X138.277 Y113.285 E.04954
G1 X137.392 Y114.923 E.04962
G1 X136.957 Y115.501 E.01928
G1 X126.439 Y126.498 E.40556
G1 X125.427 Y127.385 E.03586
G1 X124.169 Y127.953 E.03679
G1 X113.627 Y130.363 E.2882
G1 X111.634 Y130.626 E.05358
G1 X109.795 Y130.691 E.04904
G1 X107.679 Y130.558 E.05651
G1 X105.755 Y130.241 E.05197
G1 X89.762 Y126.216 E.43952
G1 X87.558 Y125.429 E.06237
G1 X86.401 Y124.927 E.03361
G1 X85.121 Y124.067 E.0411
G1 X83.952 Y122.821 E.04553
G1 X83.268 Y121.732 E.03427
G1 X82.75 Y120.382 E.03854
G1 X82.562 Y119.503 E.02396
G1 X82.492 Y118.627 E.02342
G1 X82.745 Y114.391 E.1131
G1 X84.024 Y108.06 E.17214
G1 X84.232 Y107.4 E.01844
G1 X91.935 Y89.579 E.51742
G1 X92.554 Y88.382 E.03591
G1 X93.616 Y87.005 E.04635
; printing object S-IVB-aft-skirt-3.0.stl id:0 copy 0
;WIPE_START
G1 F7200
G1 X94.657 Y86.055 E-.33471
G1 X95.773 Y85.317 E-.31776
G1 X96.345 Y85.076 E-.14753
;WIPE_END
G1 X101.554 Y87.85 F9000
G1 E.8 F1800
;TYPE:Support material
G1 F1200
G1 X102.59 Y88.302 E.03012
G1 X103.508 Y88.962 E.03013
G1 X104.266 Y89.801 E.03013
G1 X104.83 Y90.783 E.03018
G1 X105.173 Y91.864 E.03023
G1 X105.278 Y92.981 E.0299
G1 X105.142 Y94.125 E.0307
G1 X105.097 Y94.257 E.00372
G1 X105.076 Y94.283 E.00089
G1 X104.908 Y94.225 E.00474
G1 X104.124 Y94.491 E.02206
G1 X104.025 Y94.64 E.00477
G1 X103.853 Y94.593 E.00475
G1 X103.088 Y94.91 E.02207
G1 X103 Y95.065 E.00475
G1 X102.825 Y95.029 E.00476
G1 X102.082 Y95.395 E.02207
G1 X102.005 Y95.555 E.00473
G1 X101.828 Y95.532 E.00476
G1 X101.111 Y95.946 E.02207
G1 X101.043 Y96.111 E.00476
G1 X100.865 Y96.098 E.00476
G1 X100.177 Y96.558 E.02206
G1 X100.12 Y96.728 E.00478
G1 X99.942 Y96.727 E.00474
G1 X99.556 Y97.023 E.01296
G1 X99.487 Y96.7 E.0088
G1 X99.453 Y96.618 E.00237
G1 X99.187 Y96.219 E.01278
G1 X99.122 Y96.155 E.00243
G1 X98.722 Y95.888 E.01282
G1 X98.638 Y95.853 E.00243
G1 X98.166 Y95.759 E.01283
G1 X98.075 Y95.759 E.00243
G1 X97.603 Y95.853 E.01283
G1 X97.38 Y95.981 E.00685
G1 X97.286 Y95.941 E.00272
G1 X96.945 Y95.859 E.00935
G1 X96.854 Y95.856 E.00243
G1 X96.47 Y95.918 E.01037
G1 X96.385 Y95.95 E.00242
G1 X96.087 Y96.135 E.00935
G1 X95.892 Y96.322 E.0072
G1 X95.53 Y95.887 E.01508
G1 X95.013 Y94.903 E.02962
G1 X94.728 Y93.892 E.02799
G1 X94.656 Y93.244 E.01738
G1 X94.651 Y92.707 E.01431
G1 X94.712 Y92.1 E.01626
G1 X94.818 Y91.593 E.0138
G1 X95.035 Y90.918 E.0189
G1 X95.542 Y89.956 E.02898
G1 X96.235 Y89.134 E.02865
G1 X96.642 Y88.788 E.01424
G1 X97.217 Y88.37 E.01895
G1 X98.209 Y87.901 E.02924
G1 X99.313 Y87.645 E.0302
G1 X100.445 Y87.628 E.03017
G1 X101.498 Y87.839 E.02862
G1 X104.503 Y94.183 F9000
G1 F1200
G1 X104.855 Y93.68 E.01636
G1 X104.937 Y92.978 E.01884
G1 X104.877 Y92.335 E.01721
G1 X103.43 Y94.401 E.06722
G1 X102.851 Y94.641 E.0167
G1 X102.827 Y94.683 E.00129
G1 X102.779 Y94.673 E.00131
G1 X102.076 Y95.02 E.02089
G1 X104.651 Y91.342 E.11966
G1 X104.517 Y90.921 E.01177
G1 X104.296 Y90.535 E.01185
G1 X100.529 Y95.915 E.17504
G1 X99.892 Y96.341 E.02042
G1 X99.876 Y96.387 E.0013
G1 X99.827 Y96.387 E.00131
G1 X99.747 Y96.448 E.00268
G1 X99.497 Y96.073 E.01201
G1 X103.854 Y89.851 E.20244
G1 X103.335 Y89.277 E.02062
G1 X98.906 Y95.602 E.20579
G1 X98.737 Y95.527 E.00493
G1 X98.2 Y95.42 E.01459
G1 X98.114 Y95.42 E.00229
G1 X102.733 Y88.822 E.21465
G1 X102.421 Y88.598 E.01024
G1 X102.075 Y88.447 E.01006
G1 X97.103 Y95.548 E.23103
G1 X96.991 Y95.522 E.00306
G1 X96.833 Y95.516 E.00421
G1 X96.383 Y95.589 E.01215
G1 X96.234 Y95.644 E.00423
G1 X96.023 Y95.775 E.00662
G1 X101.357 Y88.157 E.24785
G1 X100.55 Y87.995 E.02194
G1 X95.532 Y95.162 E.23317
G1 X95.33 Y94.776 E.01161
G1 X95.201 Y94.32 E.01263
G1 X99.641 Y87.979 E.2063
G1 X99.354 Y87.984 E.00765
G1 X98.593 Y88.16 E.02082
G1 X95.003 Y93.288 E.16683
G1 X94.99 Y92.722 E.01509
G1 X95.047 Y92.152 E.01527
G1 X95.12 Y91.805 E.00945
G1 X97.482 Y88.433 E.10972
;WIPE_START
G1 F7200
G1 X95.549 Y91.192 E-.8
;WIPE_END
G1 X111.474 Y95.55 F9000
G1 E.8 F1800
G1 F1200
G1 X112.098 Y95.627 E.01676
G1 X112.5 Y95.92 E.01326
G1 X112.598 Y95.962 E.00284
G1 X113.169 Y96.075 E.01551
G1 X113.276 Y96.074 E.00285
G1 X113.759 Y95.957 E.01324
G1 X114.365 Y96.125 E.01676
G1 X115.066 Y96.356 E.01967
G1 X115.755 Y96.622 E.01968
G1 X116.429 Y96.921 E.01965
G1 X117.089 Y97.253 E.01969
G1 X117.731 Y97.617 E.01967
G1 X118.354 Y98.011 E.01965
G1 X119.175 Y98.606 E.02702
G1 X118.563 Y99.352 E.02572
G1 X118.595 Y99.727 E.01003
G1 X119.258 Y100.299 E.02334
G1 X119.663 Y100.686 E.01493
G1 X120.425 Y101.488 E.02948
G1 X120.8 Y101.508 E.01001
G1 X121.531 Y100.867 E.02591
G1 X121.624 Y100.975 E.0038
G1 X122.011 Y101.471 E.01677
G1 X122.087 Y101.962 E.01324
G1 X122.127 Y102.061 E.00285
G1 X122.451 Y102.545 E.01552
G1 X122.527 Y102.62 E.00285
G1 X122.952 Y102.879 E.01326
G1 X123.262 Y103.426 E.01676
G1 X123.594 Y104.085 E.01967
G1 X123.893 Y104.76 E.01968
G1 X124.158 Y105.449 E.01967
G1 X124.39 Y106.149 E.01965
G1 X124.587 Y106.861 E.01969
G1 X124.748 Y107.581 E.01966
G1 X124.908 Y108.582 E.02702
G1 X123.948 Y108.677 E.02571
G1 X123.706 Y108.964 E.01001
G1 X123.77 Y109.837 E.02333
G1 X123.782 Y110.397 E.01493
G1 X123.754 Y111.503 E.02949
G1 X124.006 Y111.783 E.01004
G1 X124.975 Y111.846 E.02588
G1 X124.965 Y111.988 E.00379
G1 X124.888 Y112.613 E.01678
G1 X124.595 Y113.014 E.01324
G1 X124.553 Y113.112 E.00284
G1 X124.439 Y113.684 E.01554
G1 X124.44 Y113.79 E.00283
G1 X124.558 Y114.273 E.01325
G1 X124.39 Y114.88 E.01679
G1 X124.158 Y115.58 E.01965
G1 X123.893 Y116.269 E.01967
G1 X123.594 Y116.944 E.01968
G1 X123.262 Y117.603 E.01967
G1 X122.898 Y118.245 E.01967
G1 X122.503 Y118.869 E.01968
G1 X121.908 Y119.69 E.02702
G1 X121.162 Y119.078 E.02572
G1 X120.788 Y119.11 E.01
G1 X120.216 Y119.773 E.02334
G1 X119.829 Y120.177 E.01491
G1 X119.027 Y120.939 E.02948
G1 X119.007 Y121.315 E.01003
G1 X119.648 Y122.045 E.02589
G1 X119.54 Y122.139 E.00382
G1 X119.044 Y122.526 E.01677
G1 X118.553 Y122.602 E.01324
G1 X118.454 Y122.642 E.00285
G1 X117.969 Y122.966 E.01554
G1 X117.894 Y123.042 E.00285
G1 X117.636 Y123.466 E.01323
G1 X117.089 Y123.776 E.01676
G1 X116.429 Y124.108 E.01969
G1 X115.755 Y124.407 E.01965
G1 X115.066 Y124.673 E.01968
G1 X114.365 Y124.904 E.01967
G1 X113.654 Y125.101 E.01966
G1 X112.934 Y125.263 E.01967
G1 X111.933 Y125.423 E.02702
G1 X111.838 Y124.463 E.02571
G1 X111.55 Y124.22 E.01004
G1 X110.677 Y124.285 E.02333
G1 X110.117 Y124.297 E.01493
G1 X109.011 Y124.269 E.02949
G1 X108.732 Y124.52 E.01
G1 X108.669 Y125.49 E.02591
G1 X108.526 Y125.479 E.00382
G1 X107.902 Y125.402 E.01676
G1 X107.5 Y125.109 E.01326
G1 X107.402 Y125.068 E.00283
G1 X106.831 Y124.954 E.01552
G1 X106.724 Y124.955 E.00285
G1 X106.241 Y125.072 E.01324
G1 X105.635 Y124.904 E.01676
G1 X104.934 Y124.673 E.01967
G1 X104.245 Y124.407 E.01968
G1 X103.571 Y124.108 E.01965
G1 X102.911 Y123.776 E.01969
G1 X102.269 Y123.413 E.01966
G1 X101.646 Y123.018 E.01966
G1 X100.825 Y122.423 E.02702
G1 X101.437 Y121.677 E.02572
G1 X101.405 Y121.302 E.01003
G1 X100.742 Y120.731 E.02332
G1 X100.337 Y120.343 E.01495
G1 X99.575 Y119.541 E.02948
G1 X99.2 Y119.521 E.01001
G1 X98.469 Y120.162 E.02591
G1 X98.376 Y120.054 E.0038
G1 X97.989 Y119.558 E.01677
G1 X97.913 Y119.067 E.01324
G1 X97.873 Y118.968 E.00285
G1 X97.549 Y118.484 E.01552
G1 X97.473 Y118.409 E.00285
G1 X97.048 Y118.151 E.01325
G1 X96.738 Y117.603 E.01678
G1 X96.406 Y116.944 E.01967
G1 X96.107 Y116.269 E.01968
G1 X95.842 Y115.581 E.01965
G1 X95.61 Y114.88 E.01968
G1 X95.413 Y114.168 E.01969
G1 X95.252 Y113.448 E.01966
G1 X95.092 Y112.447 E.02702
G1 X96.052 Y112.353 E.02571
G1 X96.294 Y112.065 E.01003
G1 X96.23 Y111.192 E.02333
G1 X96.218 Y110.632 E.01493
G1 X96.246 Y109.526 E.02949
G1 X95.994 Y109.246 E.01004
G1 X95.025 Y109.183 E.02588
G1 X95.035 Y109.041 E.00379
G1 X95.112 Y108.416 E.01678
G1 X95.405 Y108.015 E.01324
G1 X95.447 Y107.917 E.00284
G1 X95.561 Y107.345 E.01554
G1 X95.56 Y107.239 E.00283
G1 X95.442 Y106.756 E.01325
G1 X95.61 Y106.149 E.01679
G1 X95.842 Y105.449 E.01965
G1 X96.107 Y104.76 E.01967
G1 X96.406 Y104.085 E.01968
G1 X96.738 Y103.426 E.01967
G1 X97.102 Y102.784 E.01967
G1 X97.497 Y102.16 E.01968
G1 X98.092 Y101.339 E.02702
G1 X98.838 Y101.951 E.02572
G1 X99.212 Y101.919 E.01
G1 X99.784 Y101.256 E.02334
G1 X100.171 Y100.852 E.01491
G1 X100.973 Y100.09 E.02948
G1 X100.993 Y99.714 E.01003
G1 X100.352 Y98.984 E.02589
G1 X100.46 Y98.891 E.0038
G1 X100.956 Y98.503 E.01678
G1 X101.447 Y98.427 E.01324
G1 X101.546 Y98.387 E.00285
G1 X102.031 Y98.063 E.01554
G1 X102.106 Y97.987 E.00285
G1 X102.364 Y97.563 E.01323
G1 X102.911 Y97.253 E.01676
G1 X103.571 Y96.921 E.01969
G1 X104.245 Y96.622 E.01965
G1 X104.934 Y96.356 E.01968
G1 X105.635 Y96.125 E.01967
G1 X106.346 Y95.928 E.01966
G1 X107.066 Y95.766 E.01967
G1 X108.067 Y95.606 E.02702
G1 X108.162 Y96.567 E.02574
G1 X108.45 Y96.809 E.01003
G1 X109.323 Y96.744 E.02333
G1 X109.883 Y96.732 E.01493
G1 X110.989 Y96.76 E.02949
G1 X111.268 Y96.509 E.01
G1 X111.331 Y95.539 E.02591
G1 X111.418 Y95.545 E.00232
;WIPE_START
G1 F7200
G1 X111.331 Y95.539 E-.02071
G1 X111.268 Y96.509 E-.23086
G1 X110.989 Y96.76 E-.08913
G1 X109.883 Y96.732 E-.26276
G1 X109.323 Y96.744 E-.13303
G1 X109.056 Y96.764 E-.06351
;WIPE_END
G1 X107.112 Y101.164 F9000
G1 E.8 F1800
G1 F1200
G1 X107.448 Y101.08 E.00923
G1 X107.855 Y101.403 E.01385
G1 X109.002 Y101.852 E.03283
G1 X110.23 Y101.944 E.03282
G1 X111.431 Y101.669 E.03284
G1 X112.212 Y101.219 E.02402
G1 X113.117 Y101.723 E.02761
G1 X113.649 Y101.876 E.01475
G1 X114.375 Y102.025 E.01975
G1 X114.588 Y102.014 E.00568
G1 X114.861 Y102.886 E.02435
G1 X115.557 Y103.896 E.03269
G1 X116.449 Y104.6 E.03028
G1 X117.626 Y105.097 E.03405
G1 X117.837 Y105.111 E.00564
G1 X118.077 Y105.437 E.01079
G1 X118.299 Y106.231 E.02197
G1 X118.851 Y107.215 E.03007
G1 X119.262 Y107.62 E.01538
G1 X119.009 Y107.994 E.01203
G1 X118.647 Y109.162 E.03259
G1 X118.647 Y110.392 E.03278
G1 X119.007 Y111.557 E.0325
G1 X119.15 Y111.77 E.00684
G1 X119.023 Y111.913 E.0051
G1 X118.648 Y112.591 E.02065
G1 X118.439 Y113.093 E.01449
G1 X118.226 Y114.075 E.02678
G1 X118.229 Y114.866 E.02108
G1 X117.74 Y115.072 E.01414
G1 X116.848 Y115.777 E.0303
G1 X116.152 Y116.787 E.03269
G1 X115.786 Y117.955 E.03262
G1 X115.784 Y118.12 E.0044
G1 X115.516 Y118.296 E.00855
G1 X114.927 Y118.771 E.02017
G1 X114.33 Y119.589 E.02699
G1 X113.595 Y119.625 E.01961
G1 X112.939 Y119.827 E.01829
G1 X112.204 Y119.402 E.02263
G1 X111.096 Y119.148 E.0303
G1 X109.823 Y119.204 E.03396
G1 X108.638 Y119.67 E.03394
G1 X108.343 Y119.905 E.01005
G1 X108.138 Y119.854 E.00563
G1 X107.332 Y119.895 E.02151
G1 X106.837 Y119.751 E.01374
G1 X106.108 Y119.584 E.01993
G1 X105.769 Y119.602 E.00905
G1 X105.284 Y119.068 E.01923
G1 X104.715 Y118.73 E.01764
G1 X104.604 Y118.014 E.01931
G1 X104.025 Y116.914 E.03313
G1 X103.214 Y116.073 E.03114
G1 X102.171 Y115.472 E.03208
G1 X101.729 Y115.376 E.01205
G1 X101.392 Y115.005 E.01336
G1 X100.651 Y114.56 E.02304
G1 X100.729 Y114.018 E.01459
G1 X100.589 Y113.075 E.02541
G1 X101.134 Y111.941 E.03353
G1 X101.298 Y110.74 E.03231
G1 X101.128 Y109.58 E.03125
G1 X100.694 Y108.631 E.02781
G1 X100.87 Y107.449 E.03185
G1 X100.761 Y106.71 E.01991
G1 X101.32 Y106.095 E.02215
G1 X101.382 Y105.964 E.00386
G1 X102.013 Y105.824 E.01723
G1 X103.092 Y105.213 E.03305
G1 X103.932 Y104.318 E.03271
G1 X104.47 Y103.214 E.03273
G1 X104.549 Y102.702 E.01381
G1 X104.749 Y102.581 E.00623
G1 X105.286 Y101.984 E.0214
G1 X105.332 Y101.972 E.00127
G1 X106.383 Y101.345 E.03262
G1 X106.572 Y101.137 E.00749
G1 X107.055 Y101.161 E.01289
;WIPE_START
G1 F7200
G1 X106.572 Y101.137 E-.11485
G1 X106.383 Y101.345 E-.06675
G1 X105.332 Y101.972 E-.29066
G1 X105.286 Y101.984 E-.01129
G1 X104.749 Y102.581 E-.19071
G1 X104.549 Y102.702 E-.05552
G1 X104.504 Y102.994 E-.07022
;WIPE_END
G1 X118.818 Y122.389 F9000
G1 E.8 F1800
G1 F1200
G1 X119.12 Y121.958 E.01403
G1 X118.661 Y121.435 E.01855
G1 X118.668 Y121.287 E.00395
G1 X117.271 Y123.283 E.06493
G1 X116.284 Y123.801 E.02971
G1 X115.854 Y123.992 E.01254
G1 X124.158 Y112.133 E.38584
G1 X123.846 Y112.112 E.00833
G1 X123.512 Y111.741 E.0133
G1 X114.599 Y124.47 E.41414
G1 X114.267 Y124.58 E.00932
G1 X113.447 Y124.8 E.02263
G1 X123.444 Y110.522 E.46453
G1 X123.431 Y109.853 E.01783
G1 X123.389 Y109.286 E.01515
G1 X112.375 Y125.015 E.51175
G1 X112.236 Y125.04 E.00376
G1 X112.162 Y124.292 E.02003
G1 X112.036 Y124.185 E.00441
G1 X124.215 Y106.791 E.56591
G1 X123.94 Y105.87 E.02562
G1 X118.743 Y113.292 E.24148
G1 X118.764 Y113.195 E.00265
G1 X118.954 Y112.739 E.01317
G1 X119.302 Y112.11 E.01916
G1 X119.579 Y111.799 E.0111
G1 X119.316 Y111.409 E.01254
G1 X119.262 Y111.235 E.00486
G1 X123.624 Y105.006 E.20267
G1 X123.27 Y104.197 E.02353
G1 X118.986 Y110.315 E.19905
G1 X118.986 Y109.213 E.02937
G1 X119.105 Y108.83 E.01069
G1 X122.879 Y103.44 E.17536
G1 X122.7 Y103.123 E.0097
G1 X122.336 Y102.901 E.01136
G1 X119.323 Y107.204 E.14
G1 X119.124 Y107.007 E.00746
G1 X118.864 Y106.545 E.01413
G1 X121.858 Y102.268 E.13914
G1 X121.758 Y102.053 E.00632
G1 X121.689 Y101.61 E.01195
G1 X121.536 Y101.414 E.00663
G1 X118.512 Y105.733 E.14052
G1 X118.387 Y105.286 E.01237
G1 X118.14 Y104.95 E.01111
G1 X120.329 Y101.823 E.10173
G1 X120.269 Y101.82 E.0016
G1 X119.781 Y101.291 E.01918
G1 X117.431 Y104.646 E.10917
G1 X116.721 Y104.346 E.02054
G1 X119.239 Y100.75 E.117
G1 X118.674 Y100.243 E.02023
G1 X116.112 Y103.901 E.11902
G1 X115.808 Y103.661 E.01032
G1 X115.585 Y103.338 E.01046
G1 X118.239 Y99.548 E.12331
G1 X118.213 Y99.244 E.00813
G1 X118.69 Y98.663 E.02003
G1 X118.187 Y98.308 E.01641
G1 X115.144 Y102.653 E.14137
G1 X114.859 Y101.745 E.02536
G1 X117.549 Y97.904 E.12497
G1 X116.889 Y97.532 E.02019
G1 X114.034 Y101.609 E.13265
G1 X113.73 Y101.546 E.00827
G1 X113.253 Y101.409 E.01323
G1 X116.206 Y97.193 E.13718
G1 X115.499 Y96.887 E.02053
G1 X112.59 Y101.041 E.13516
G1 X112.209 Y100.829 E.01162
G1 X111.554 Y101.207 E.02015
G1 X114.769 Y96.615 E.1494
G1 X114.013 Y96.379 E.02111
G1 X110.386 Y101.56 E.16855
G1 X110.205 Y101.601 E.00495
G1 X109.474 Y101.547 E.01954
G1 X113.077 Y96.402 E.1674
G1 X112.501 Y96.289 E.01564
G1 X112.301 Y96.195 E.00589
G1 X108.683 Y101.363 E.16813
