; generated by PrusaSlicer 2.6.1+win64 on 2024-01-27 at 17:16:43 UTC

; 

; external perimeters extrusion width = 0.42mm
; perimeters extrusion width = 0.44mm
; infill extrusion width = 0.44mm
; solid infill extrusion width = 0.44mm
; top infill extrusion width = 0.40mm
; support material extrusion width = 0.36mm
; first layer extrusion width = 0.42mm

M201 X500 Y500 Z100 E5000 ; sets maximum accelerations, mm/sec^2
M203 X500 Y500 Z10 E60 ; sets maximum feedrates, mm / sec
M204 S500 T1000 ; sets acceleration (S) and retract acceleration (R), mm/sec^2
M205 X8.00 Y8.00 Z0.40 E5.00 ; sets the jerk limits, mm/sec
M205 S0 T0 ; sets the minimum extruding and travel feed rate, mm/sec
;TYPE:Custom
G90 ; use absolute coordinates
M83 ; extruder relative mode
M104 S150 ; set temporary nozzle temp to prevent oozing during homing
M140 S60 ; set final bed temp
G4 S30 ; allow partial nozzle warmup
G28 ; home all axis and restore leveling
G1 Z50 F240
G1 X2.0 Y10 F3000
M104 S215 ; set final nozzle temp
M190 S60 ; wait for bed temp to stabilize
M109 S215 ; wait for nozzle temp to stabilize
G1 Z0.28 F240
G92 E0
G1 X2.0 Y140 E10 F1500 ; prime the nozzle
G1 X2.3 Y140 F5000
G92 E0
G1 X2.3 Y10 E10 F1200 ; prime the nozzle
G92 E0
G21 ; set units to millimeters
G90 ; use absolute coordinates
M83 ; use relative distances for extrusion
; Filament gcode
M107
;LAYER_CHANGE
;Z:0.2
;HEIGHT:0.2
;BEFORE_LAYER_CHANGE
G92 E0
;0.2


G1 E-.8 F1800
G1 Z.2 F9000
;AFTER_LAYER_CHANGE
;0.2
G1 X93.345 Y94.213
G1 E.8 F1800
M204 S500
;TYPE:Skirt/Brim
;WIDTH:0.42
G1 F1200
G1 X94.374 Y93.324 E.03624
G1 X95.746 Y92.709 E.04007
G1 X106.191 Y90.316 E.28558
G1 X108.329 Y90.028 E.05749
G1 X110.205 Y89.961 E.05003
G1 X112.886 Y90.163 E.07165
G1 X115.635 Y90.748 E.0749
G1 X129.221 Y95.457 E.38322
G1 X130.388 Y95.931 E.03357
G1 X131.16 Y96.361 E.02355
G1 X132.52 Y97.345 E.04474
G1 X133.593 Y98.548 E.04296
G1 X134.42 Y100.021 E.04502
G1 X134.898 Y101.717 E.04696
G1 X134.947 Y103.001 E.03424
G1 X134.843 Y104.034 E.02767
G1 X134.355 Y105.96 E.05295
G1 X127.694 Y125.156 E.54152
G1 X127.191 Y126.141 E.02948
G1 X126.655 Y126.816 E.02297
G1 X125.626 Y127.706 E.03626
G1 X124.254 Y128.32 E.04006
G1 X113.809 Y130.713 E.28558
G1 X111.671 Y131.001 E.05749
G1 X109.795 Y131.068 E.05003
G1 X107.114 Y130.866 E.07165
G1 X104.483 Y130.315 E.07164
G1 X91.405 Y126 E.36703
G1 X89.935 Y125.442 E.0419
G1 X88.536 Y124.703 E.04217
G1 X87.711 Y124.112 E.02705
G1 X86.869 Y123.317 E.03086
G1 X86.083 Y122.254 E.03523
G1 X85.607 Y121.292 E.02861
G1 X85.277 Y120.296 E.02796
G1 X85.073 Y119.172 E.03045
G1 X85.026 Y118.184 E.02636
G1 X85.142 Y116.806 E.03686
G1 X85.299 Y116.006 E.02173
G1 X85.645 Y114.905 E.03076
G1 X92.309 Y95.864 E.53765
G1 X92.809 Y94.888 E.02923
G1 X93.307 Y94.26 E.02136
G1 X93.601 Y94.493 F9000
G1 F1200
G1 X94.573 Y93.644 E.0344
G1 X95.831 Y93.076 E.03679
G1 X106.264 Y90.686 E.28525
G1 X108.366 Y90.403 E.05653
G1 X110.205 Y90.338 E.04904
G1 X112.836 Y90.537 E.07032
G1 X115.526 Y91.109 E.07329
G1 X129.097 Y95.813 E.38279
G1 X130.245 Y96.28 E.03303
G1 X130.939 Y96.667 E.02118
G1 X132.299 Y97.651 E.04474
G1 X133.264 Y98.733 E.03864
G1 X134.091 Y100.205 E.045
G1 X134.521 Y101.731 E.04225
G1 X134.57 Y103.015 E.03424
G1 X134.476 Y103.944 E.02489
G1 X133.999 Y105.836 E.052
G1 X127.338 Y125.032 E.54152
G1 X126.871 Y125.942 E.02726
G1 X126.389 Y126.55 E.02068
G1 X125.427 Y127.385 E.03395
G1 X124.169 Y127.953 E.03679
G1 X113.736 Y130.344 E.28526
G1 X111.634 Y130.626 E.05652
G1 X109.795 Y130.691 E.04904
G1 X107.164 Y130.492 E.07032
G1 X104.58 Y129.951 E.07036
G1 X91.524 Y125.643 E.36641
G1 X90.111 Y125.109 E.04026
G1 X88.712 Y124.369 E.04218
G1 X87.97 Y123.838 E.02432
G1 X87.128 Y123.043 E.03086
G1 X86.421 Y122.087 E.03169
G1 X85.944 Y121.125 E.02862
G1 X85.648 Y120.229 E.02515
G1 X85.444 Y119.104 E.03047
G1 X85.401 Y118.216 E.02369
G1 X85.518 Y116.838 E.03686
G1 X86.001 Y115.03 E.04988
G1 X92.665 Y95.988 E.53767
G1 X93.13 Y95.087 E.02702
G1 X93.564 Y94.54 E.01861
; printing object S-IVB-aft-skirt-3.1.stl id:0 copy 0
;WIPE_START
G1 F7200
G1 X94.573 Y93.644 E-.32048
G1 X95.831 Y93.076 E-.32782
G1 X96.454 Y92.933 E-.1517
;WIPE_END
G1 X111.474 Y95.55 F9000
G1 E.8 F1800
;TYPE:Support material
G1 F1200
G1 X112.098 Y95.627 E.01676
G1 X112.5 Y95.92 E.01326
G1 X112.598 Y95.962 E.00284
G1 X113.169 Y96.075 E.01551
G1 X113.276 Y96.074 E.00285
G1 X113.759 Y95.957 E.01324
G1 X114.365 Y96.125 E.01676
G1 X115.066 Y96.356 E.01967
G1 X115.755 Y96.622 E.01968
G1 X116.429 Y96.921 E.01965
G1 X117.089 Y97.253 E.01969
G1 X117.731 Y97.617 E.01967
G1 X118.354 Y98.011 E.01965
G1 X119.175 Y98.606 E.02702
G1 X118.563 Y99.352 E.02572
G1 X118.595 Y99.727 E.01003
G1 X119.259 Y100.299 E.02336
G1 X119.749 Y100.766 E.01804
G1 X120.472 Y101.554 E.0285
G1 X120.861 Y101.577 E.01039
G1 X121.585 Y100.93 E.02588
G1 X121.624 Y100.975 E.00159
G1 X122.011 Y101.471 E.01677
G1 X122.087 Y101.962 E.01324
G1 X122.127 Y102.061 E.00285
G1 X122.451 Y102.545 E.01552
G1 X122.527 Y102.62 E.00285
G1 X122.952 Y102.879 E.01326
G1 X123.262 Y103.426 E.01676
G1 X123.594 Y104.085 E.01967
G1 X123.893 Y104.76 E.01968
G1 X124.158 Y105.449 E.01967
G1 X124.39 Y106.149 E.01965
G1 X124.587 Y106.861 E.01969
G1 X124.748 Y107.581 E.01966
G1 X124.908 Y108.582 E.02702
G1 X123.948 Y108.677 E.02571
G1 X123.706 Y108.964 E.01001
G1 X123.77 Y109.838 E.02336
G1 X123.787 Y110.515 E.01805
G1 X123.741 Y111.583 E.02849
G1 X123.999 Y111.875 E.01038
G1 X124.969 Y111.93 E.02589
G1 X124.965 Y111.988 E.00155
G1 X124.888 Y112.613 E.01678
G1 X124.595 Y113.014 E.01324
G1 X124.553 Y113.112 E.00284
G1 X124.439 Y113.684 E.01554
G1 X124.44 Y113.79 E.00283
G1 X124.558 Y114.273 E.01325
G1 X124.39 Y114.88 E.01679
G1 X124.158 Y115.581 E.01968
G1 X123.893 Y116.269 E.01965
G1 X123.594 Y116.944 E.01968
G1 X123.262 Y117.603 E.01967
G1 X122.898 Y118.245 E.01967
G1 X122.503 Y118.869 E.01968
G1 X121.908 Y119.69 E.02702
G1 X121.162 Y119.078 E.02572
G1 X120.788 Y119.11 E.01
G1 X120.215 Y119.773 E.02335
G1 X119.749 Y120.263 E.01802
G1 X118.961 Y120.987 E.02852
G1 X118.937 Y121.376 E.01039
G1 X119.584 Y122.1 E.02588
G1 X119.54 Y122.139 E.00157
G1 X119.044 Y122.526 E.01677
G1 X118.553 Y122.602 E.01324
G1 X118.454 Y122.642 E.00285
G1 X117.969 Y122.966 E.01554
G1 X117.894 Y123.042 E.00285
G1 X117.636 Y123.466 E.01323
G1 X117.089 Y123.776 E.01676
G1 X116.429 Y124.108 E.01969
G1 X115.755 Y124.407 E.01965
G1 X115.066 Y124.673 E.01968
G1 X114.365 Y124.904 E.01967
G1 X113.654 Y125.101 E.01966
G1 X112.934 Y125.263 E.01967
G1 X111.933 Y125.423 E.02702
G1 X111.838 Y124.463 E.02571
G1 X111.55 Y124.22 E.01004
G1 X110.676 Y124.285 E.02336
G1 X110 Y124.302 E.01802
G1 X108.931 Y124.256 E.02852
G1 X108.64 Y124.514 E.01036
G1 X108.585 Y125.484 E.02589
G1 X108.526 Y125.48 E.00158
G1 X107.902 Y125.402 E.01676
G1 X107.5 Y125.109 E.01326
G1 X107.402 Y125.068 E.00283
G1 X106.831 Y124.954 E.01552
G1 X106.724 Y124.955 E.00285
G1 X106.241 Y125.072 E.01324
G1 X105.635 Y124.904 E.01676
G1 X104.934 Y124.673 E.01967
G1 X104.245 Y124.407 E.01968
G1 X103.571 Y124.108 E.01965
G1 X102.911 Y123.776 E.01969
G1 X102.269 Y123.413 E.01966
G1 X101.646 Y123.018 E.01966
G1 X100.825 Y122.423 E.02702
G1 X101.437 Y121.677 E.02572
G1 X101.405 Y121.302 E.01003
G1 X100.741 Y120.73 E.02336
G1 X100.251 Y120.263 E.01804
G1 X99.53 Y119.478 E.02841
G1 X99.148 Y119.45 E.01021
G1 X98.407 Y120.09 E.02609
G1 X98.376 Y120.054 E.00127
G1 X97.989 Y119.558 E.01677
G1 X97.913 Y119.067 E.01324
G1 X97.873 Y118.968 E.00285
G1 X97.549 Y118.484 E.01552
G1 X97.473 Y118.409 E.00285
G1 X97.048 Y118.151 E.01325
G1 X96.738 Y117.603 E.01678
G1 X96.406 Y116.944 E.01967
G1 X96.107 Y116.269 E.01968
G1 X95.842 Y115.581 E.01965
G1 X95.61 Y114.88 E.01968
G1 X95.413 Y114.168 E.01969
G1 X95.252 Y113.448 E.01966
G1 X95.092 Y112.447 E.02702
G1 X96.052 Y112.352 E.02571
G1 X96.294 Y112.065 E.01001
G1 X96.23 Y111.191 E.02336
G1 X96.213 Y110.515 E.01802
G1 X96.258 Y109.449 E.02844
G1 X96.008 Y109.159 E.0102
G1 X95.032 Y109.088 E.02608
G1 X95.035 Y109.041 E.00126
G1 X95.112 Y108.416 E.01678
G1 X95.405 Y108.015 E.01324
G1 X95.447 Y107.917 E.00284
G1 X95.561 Y107.345 E.01554
G1 X95.56 Y107.239 E.00283
G1 X95.442 Y106.756 E.01325
G1 X95.61 Y106.149 E.01679
G1 X95.842 Y105.449 E.01965
G1 X96.107 Y104.76 E.01967
G1 X96.406 Y104.085 E.01968
G1 X96.738 Y103.426 E.01967
G1 X97.102 Y102.784 E.01967
G1 X97.497 Y102.16 E.01968
G1 X98.092 Y101.339 E.02702
G1 X98.838 Y101.951 E.02572
G1 X99.212 Y101.919 E.01
G1 X99.785 Y101.256 E.02335
G1 X100.251 Y100.766 E.01802
G1 X101.036 Y100.044 E.02842
G1 X101.065 Y99.663 E.01018
G1 X100.424 Y98.922 E.02611
G1 X100.46 Y98.891 E.00127
G1 X100.956 Y98.503 E.01678
G1 X101.447 Y98.427 E.01324
G1 X101.546 Y98.387 E.00285
G1 X102.031 Y98.063 E.01554
G1 X102.106 Y97.987 E.00285
G1 X102.364 Y97.563 E.01323
G1 X102.911 Y97.253 E.01676
G1 X103.571 Y96.921 E.01969
G1 X104.245 Y96.622 E.01965
G1 X104.934 Y96.356 E.01968
G1 X105.635 Y96.125 E.01967
G1 X106.346 Y95.928 E.01966
G1 X107.066 Y95.766 E.01967
G1 X108.067 Y95.606 E.02702
G1 X108.162 Y96.566 E.02571
G1 X108.45 Y96.809 E.01004
G1 X109.324 Y96.744 E.02336
G1 X110 Y96.728 E.01802
G1 X111.069 Y96.773 E.02852
G1 X111.36 Y96.515 E.01036
G1 X111.417 Y95.545 E.0259
;WIPE_START
G1 F7200
G1 X111.36 Y96.515 E-.23077
G1 X111.069 Y96.773 E-.09236
G1 X110 Y96.728 E-.25411
G1 X109.324 Y96.744 E-.16059
G1 X109.063 Y96.763 E-.06217
;WIPE_END
G1 X107.146 Y101.171 F9000
G1 E.8 F1800
G1 F1200
G1 X107.475 Y101.09 E.00903
G1 X107.866 Y101.401 E.01331
G1 X109.012 Y101.85 E.0328
G1 X110.241 Y101.941 E.03284
G1 X111.439 Y101.668 E.03275
G1 X112.138 Y101.266 E.02149
G1 X112.23 Y101.299 E.0026
G1 X113.459 Y101.363 E.0328
G1 X113.767 Y101.286 E.00846
G1 X114.345 Y101.746 E.01969
G1 X114.546 Y101.875 E.00637
G1 X114.863 Y102.887 E.02826
G1 X115.423 Y103.7 E.02631
G1 X115.425 Y104.664 E.02569
G1 X115.677 Y105.793 E.03083
G1 X116.166 Y106.84 E.0308
G1 X116.866 Y107.756 E.03072
G1 X117.749 Y108.501 E.03079
G1 X118.859 Y109.087 E.03345
G1 X118.751 Y109.458 E.0103
G1 X118.749 Y110.694 E.03294
G1 X119.051 Y111.74 E.02902
G1 X119.34 Y112.217 E.01486
G1 X118.656 Y113.178 E.03144
G1 X118.366 Y113.877 E.02017
G1 X118.226 Y114.377 E.01384
G1 X118.141 Y115.03 E.01755
G1 X118.142 Y115.325 E.00786
G1 X117.188 Y115.692 E.02724
G1 X116.209 Y116.512 E.03403
G1 X115.564 Y117.451 E.03036
G1 X115.333 Y118.188 E.02058
G1 X115.013 Y118.237 E.00863
G1 X114.335 Y118.519 E.01957
G1 X113.833 Y118.779 E.01507
G1 X113.261 Y119.255 E.01983
G1 X112.383 Y119.465 E.02406
G1 X111.625 Y119.895 E.02323
G1 X111.091 Y119.655 E.0156
G1 X109.786 Y119.548 E.0349
G1 X108.517 Y119.883 E.03498
G1 X108.192 Y120.104 E.01047
G1 X108.018 Y119.999 E.00542
G1 X107.316 Y119.824 E.01928
G1 X106.82 Y119.19 E.02145
G1 X105.874 Y118.488 E.0314
G1 X104.808 Y118.076 E.03046
G1 X104.441 Y118.03 E.00986
G1 X104.386 Y117.766 E.00719
G1 X103.837 Y116.733 E.03118
G1 X103.026 Y115.9 E.03098
G1 X102.736 Y115.734 E.00891
G1 X102.93 Y115.17 E.0159
G1 X103.031 Y114.012 E.03098
G1 X102.907 Y112.959 E.02826
G1 X102.723 Y112.329 E.01749
G1 X102.56 Y111.86 E.01323
G1 X101.994 Y110.831 E.0313
G1 X101.332 Y110.159 E.02514
G1 X101.392 Y109.768 E.01054
G1 X101.206 Y108.548 E.03289
G1 X100.723 Y107.554 E.02945
G1 X100.802 Y107.39 E.00485
G1 X101.097 Y107.189 E.00951
G1 X101.855 Y106.274 E.03167
G1 X102.065 Y105.795 E.01394
G1 X103.092 Y105.212 E.03147
G1 X103.932 Y104.317 E.03271
G1 X104.47 Y103.213 E.03273
G1 X104.505 Y102.991 E.00599
G1 X105.692 Y102.529 E.03395
G1 X106.636 Y101.825 E.03138
G1 X107.111 Y101.216 E.02058
;WIPE_START
G1 F7200
G1 X106.636 Y101.825 E-.18343
G1 X105.692 Y102.529 E-.27968
G1 X104.505 Y102.991 E-.30251
G1 X104.482 Y103.134 E-.03438
;WIPE_END
G1 X118.818 Y122.389 F9000
G1 E.8 F1800
G1 F1200
G1 X119.07 Y122.028 E.01173
G1 X118.59 Y121.497 E.01908
G1 X118.596 Y121.39 E.00286
G1 X117.271 Y123.283 E.06158
G1 X116.929 Y123.477 E.01048
G1 X116.284 Y123.801 E.01924
G1 X115.854 Y123.992 E.01254
G1 X124.097 Y112.22 E.38301
G1 X123.84 Y112.207 E.00686
G1 X123.475 Y111.794 E.01469
G1 X114.599 Y124.47 E.41242
G1 X114.267 Y124.58 E.00932
G1 X113.447 Y124.8 E.02263
G1 X123.447 Y110.518 E.46466
G1 X123.431 Y109.855 E.01767
G1 X123.389 Y109.286 E.01521
G1 X112.375 Y125.015 E.51175
G1 X112.236 Y125.04 E.00376
G1 X112.162 Y124.292 E.02003
G1 X112.036 Y124.186 E.00439
G1 X117.928 Y115.771 E.27378
G1 X117.362 Y115.988 E.01616
G1 X116.463 Y116.742 E.03127
G1 X115.873 Y117.602 E.0278
G1 X115.594 Y118.491 E.02483
G1 X115.105 Y118.567 E.01319
G1 X115.027 Y118.599 E.00225
G1 X111.317 Y123.897 E.17238
G1 X110.357 Y123.953 E.02563
G1 X113.445 Y119.543 E.14348
G1 X113.417 Y119.567 E.00098
G1 X112.509 Y119.784 E.02488
G1 X112.255 Y119.928 E.00778
G1 X109.44 Y123.948 E.13079
G1 X108.814 Y123.907 E.01672
G1 X108.308 Y124.354 E.01799
G1 X108.271 Y125.106 E.02007
G1 X108.031 Y125.076 E.00645
G1 X107.831 Y124.931 E.00658
G1 X111.223 Y120.086 E.15762
G1 X111.005 Y119.988 E.00637
G1 X110.405 Y119.94 E.01604
G1 X107.096 Y124.666 E.15376
G1 X106.867 Y124.614 E.00626
G1 X106.682 Y124.616 E.00493
G1 X106.247 Y124.722 E.01193
G1 X106.154 Y124.696 E.00257
G1 X109.452 Y119.987 E.15322
G1 X108.66 Y120.196 E.02183
G1 X108.204 Y120.506 E.0147
G1 X108.178 Y120.491 E.0008
G1 X105.394 Y124.467 E.12936
G1 X104.658 Y124.203 E.02084
G1 X107.455 Y120.209 E.12995
G1 X107.12 Y120.125 E.0092
G1 X106.842 Y119.769 E.01204
G1 X103.947 Y123.904 E.13453
G1 X103.259 Y123.571 E.02037
G1 X106.301 Y119.227 E.14134
G1 X105.708 Y118.788 E.01966
G1 X105.692 Y118.782 E.00046
G1 X102.594 Y123.206 E.14394
G1 X101.951 Y122.81 E.02013
G1 X104.968 Y118.502 E.14017
G1 X104.724 Y118.407 E.00698
G1 X104.163 Y118.337 E.01507
G1 X101.234 Y122.52 E.13609
G1 X121.243 Y118.925 F9000
G1 F1200
G1 X123.994 Y114.997 E.12781
G1 X124.207 Y114.268 E.02024
G1 X124.101 Y113.833 E.01193
G1 X124.1 Y113.648 E.00493
G1 X124.138 Y113.476 E.00469
G1 X119.15 Y120.599 E.23175
G1 X123.934 Y108.507 F9000
G1 F1200
G1 X124.44 Y107.786 E.02348
G1 X124.215 Y106.791 E.02719
G1 X118.491 Y114.966 E.26597
G1 X118.559 Y114.445 E.014
G1 X118.687 Y113.988 E.01265
G1 X118.954 Y113.344 E.01858
G1 X119.747 Y112.232 E.0364
G1 X119.625 Y112.032 E.00624
G1 X123.94 Y105.87 E.20049
G1 X123.839 Y105.563 E.00861
G1 X123.624 Y105.006 E.01591
G1 X119.26 Y111.239 E.20278
G1 X119.088 Y110.646 E.01646
G1 X119.089 Y110.168 E.01274
G1 X123.27 Y104.197 E.19427
G1 X122.879 Y103.44 E.02271
G1 X119.104 Y108.832 E.17542
G1 X118.431 Y108.477 E.02028
G1 X122.336 Y102.901 E.18143
G1 X122.185 Y102.76 E.00551
G1 X121.858 Y102.268 E.01574
G1 X117.784 Y108.087 E.18931
G1 X117.206 Y107.598 E.02018
G1 X121.517 Y101.441 E.20032
G1 X120.983 Y101.925 E.01921
G1 X120.309 Y101.884 E.018
G1 X120.296 Y101.869 E.00053
G1 X116.709 Y106.992 E.16667
G1 X116.457 Y106.663 E.01104
G1 X116.282 Y106.287 E.01105
G1 X119.781 Y101.291 E.16256
G1 X119.239 Y100.749 E.02043
G1 X115.948 Y105.449 E.15292
G1 X115.765 Y104.626 E.02247
G1 X115.764 Y104.398 E.00608
G1 X118.674 Y100.243 E.13519
G1 X118.269 Y99.894 E.01425
G1 X118.239 Y99.548 E.00926
G1 X115.586 Y103.338 E.1233
G1 X115.172 Y102.737 E.01945
G1 X115.145 Y102.652 E.00238
G1 X118.187 Y98.308 E.14134
G1 X118.166 Y98.294 E.00067
G1 X117.549 Y97.904 E.01945
G1 X114.86 Y101.744 E.12494
G1 X114.833 Y101.656 E.00245
G1 X114.542 Y101.47 E.0092
G1 X114.279 Y101.26 E.00897
G1 X116.889 Y97.532 E.12128
G1 X116.206 Y97.193 E.02032
G1 X113.546 Y100.992 E.1236
G1 X113.426 Y101.022 E.0033
G1 X112.633 Y100.98 E.02116
G1 X115.499 Y96.887 E.13317
G1 X114.769 Y96.615 E.02076
G1 X111.549 Y101.213 E.1496
G1 X111.314 Y101.348 E.00722
G1 X110.386 Y101.56 E.02537
G1 X114.013 Y96.379 E.16855
G1 X113.753 Y96.308 E.00718
G1 X113.318 Y96.413 E.01193
G1 X113.077 Y96.402 E.00643
G1 X109.476 Y101.544 E.1673
G1 X109.089 Y101.515 E.01034
G1 X108.686 Y101.357 E.01154
G1 X112.301 Y96.195 E.16795
G1 X111.969 Y95.953 E.01095
G1 X111.729 Y95.923 E.00645
G1 X111.692 Y96.675 E.02007
G1 X111.186 Y97.122 E.01799
G1 X110.754 Y97.09 E.01154
G1 X107.977 Y101.056 E.12903
G1 X107.555 Y100.72 E.01438
G1 X107.236 Y100.799 E.00876
G1 X109.847 Y97.071 E.1213
G1 X108.894 Y97.116 E.02543
G1 X105.235 Y102.343 E.17005
