; generated by PrusaSlicer 2.6.1+win64 on 2024-01-27 at 15:21:55 UTC

; 

; external perimeters extrusion width = 0.42mm
; perimeters extrusion width = 0.44mm
; infill extrusion width = 0.44mm
; solid infill extrusion width = 0.44mm
; top infill extrusion width = 0.40mm
; support material extrusion width = 0.36mm
; first layer extrusion width = 0.42mm

M201 X500 Y500 Z100 E5000 ; sets maximum accelerations, mm/sec^2
M203 X500 Y500 Z10 E60 ; sets maximum feedrates, mm / sec
M204 S500 T1000 ; sets acceleration (S) and retract acceleration (R), mm/sec^2
M205 X8.00 Y8.00 Z0.40 E5.00 ; sets the jerk limits, mm/sec
M205 S0 T0 ; sets the minimum extruding and travel feed rate, mm/sec
;TYPE:Custom
G90 ; use absolute coordinates
M83 ; extruder relative mode
M104 S150 ; set temporary nozzle temp to prevent oozing during homing
M140 S60 ; set final bed temp
G4 S30 ; allow partial nozzle warmup
G28 ; home all axis and restore leveling
G1 Z50 F240
G1 X2.0 Y10 F3000
M104 S215 ; set final nozzle temp
M190 S60 ; wait for bed temp to stabilize
M109 S215 ; wait for nozzle temp to stabilize
G1 Z0.28 F240
G92 E0
G1 X2.0 Y140 E10 F1500 ; prime the nozzle
G1 X2.3 Y140 F5000
G92 E0
G1 X2.3 Y10 E10 F1200 ; prime the nozzle
G92 E0
G21 ; set units to millimeters
G90 ; use absolute coordinates
M83 ; use relative distances for extrusion
; Filament gcode
M107
;LAYER_CHANGE
;Z:0.2
;HEIGHT:0.2
;BEFORE_LAYER_CHANGE
G92 E0
;0.2


G1 E-.8 F1800
G1 Z.2 F9000
;AFTER_LAYER_CHANGE
;0.2
G1 X95.577 Y95.576
G1 E.8 F1800
M204 S500
;TYPE:Skirt/Brim
;WIDTH:0.42
G1 F1200
G1 X96.508 Y94.644 E.03511
G1 X97.911 Y93.527 E.04779
G1 X99.546 Y92.452 E.05215
G1 X101.128 Y91.608 E.04779
G1 X102.778 Y90.905 E.0478
G1 X104.483 Y90.349 E.0478
G1 X106.229 Y89.944 E.04777
G1 X111.182 Y89.099 E.13391
G1 X112.301 Y89.078 E.02983
G1 X113.21 Y89.198 E.02444
G1 X114.306 Y89.511 E.03038
G1 X119.019 Y91.681 E.13828
G1 X120.454 Y92.452 E.04341
G1 X125.202 Y95.252 E.1469
G1 X125.585 Y95.496 E.0121
G1 X126.528 Y96.365 E.03418
G1 X127.593 Y97.753 E.04663
G1 X128.188 Y98.888 E.03415
G1 X128.325 Y99.322 E.01213
G1 X129.907 Y105.028 E.15781
G1 X130.277 Y106.782 E.04777
G1 X130.458 Y108.155 E.03691
G1 X130.554 Y109.945 E.04777
G1 X130.494 Y111.737 E.04779
G1 X130.277 Y113.518 E.04782
G1 X129.907 Y115.272 E.04777
G1 X129.244 Y117.372 E.05869
G1 X128.542 Y119.022 E.04779
G1 X127.613 Y120.744 E.05215
G1 X125.979 Y123.077 E.07591
G1 X124.792 Y124.421 E.04779
G1 X123.368 Y125.764 E.05217
G1 X121.957 Y126.869 E.04776
G1 X120.454 Y127.848 E.0478
G1 X118.501 Y128.865 E.05868
G1 X116.838 Y129.534 E.04777
G1 X114.963 Y130.095 E.05216
G1 X112.158 Y130.59 E.07591
G1 X110.368 Y130.7 E.0478
G1 X108.412 Y130.643 E.05215
G1 X106.632 Y130.427 E.04779
G1 X104.878 Y130.056 E.04778
G1 X102.778 Y129.394 E.05868
G1 X101.128 Y128.692 E.04779
G1 X99.406 Y127.763 E.05215
G1 X97.073 Y126.129 E.07591
G1 X95.729 Y124.942 E.04779
G1 X94.386 Y123.518 E.05217
G1 X93.281 Y122.107 E.04776
G1 X92.302 Y120.604 E.0478
G1 X91.285 Y118.651 E.05868
G1 X90.616 Y116.988 E.04777
G1 X90.055 Y115.113 E.05216
G1 X89.56 Y112.308 E.07591
G1 X89.45 Y110.518 E.0478
G1 X89.506 Y108.562 E.05215
G1 X89.723 Y106.782 E.04779
G1 X90.093 Y105.028 E.04777
G1 X90.756 Y102.928 E.05869
G1 X91.458 Y101.278 E.04779
G1 X92.387 Y99.556 E.05215
G1 X93.281 Y98.193 E.04344
G1 X94.494 Y96.658 E.05214
G1 X95.534 Y95.618 E.0392
G1 X95.801 Y95.885 F9000
G1 F1200
G1 X96.763 Y94.922 E.03628
G1 X98.141 Y93.826 E.04692
G1 X99.734 Y92.778 E.05082
G1 X101.288 Y91.95 E.04693
G1 X102.907 Y91.26 E.0469
G1 X104.58 Y90.713 E.04691
G1 X106.295 Y90.315 E.04692
G1 X111.245 Y89.471 E.13383
G1 X112.252 Y89.452 E.02684
G1 X113.16 Y89.572 E.02441
G1 X114.149 Y89.853 E.0274
G1 X118.845 Y92.015 E.13778
G1 X125.01 Y95.577 E.18976
G1 X125.381 Y95.813 E.01172
G1 X126.229 Y96.594 E.03072
G1 X127.294 Y97.983 E.04665
G1 X127.829 Y99.004 E.03072
G1 X127.961 Y99.423 E.01171
G1 X129.542 Y105.125 E.1577
G1 X129.906 Y106.848 E.04693
G1 X130.082 Y108.188 E.03602
G1 X130.177 Y109.945 E.04689
G1 X130.118 Y111.705 E.04693
G1 X129.906 Y113.452 E.0469
G1 X129.542 Y115.174 E.04691
G1 X128.89 Y117.243 E.05781
G1 X128.2 Y118.862 E.0469
G1 X127.295 Y120.541 E.05083
G1 X125.68 Y122.848 E.07505
G1 X124.514 Y124.166 E.0469
G1 X123.126 Y125.475 E.05085
G1 X121.741 Y126.56 E.04689
G1 X120.044 Y127.649 E.05374
G1 X118.342 Y128.523 E.05099
G1 X116.709 Y129.18 E.04691
G1 X114.882 Y129.727 E.05083
G1 X112.109 Y130.216 E.07504
G1 X110.352 Y130.324 E.04691
G1 X108.445 Y130.268 E.05085
G1 X106.698 Y130.056 E.0469
G1 X104.975 Y129.692 E.04693
G1 X102.907 Y129.04 E.05779
G1 X101.287 Y128.35 E.04693
G1 X99.609 Y127.445 E.05081
G1 X97.302 Y125.83 E.07505
G1 X95.984 Y124.664 E.0469
G1 X94.675 Y123.276 E.05085
G1 X93.589 Y121.89 E.04693
G1 X92.629 Y120.415 E.0469
G1 X91.627 Y118.492 E.05779
G1 X90.97 Y116.859 E.04691
G1 X90.423 Y115.031 E.05085
G1 X89.934 Y112.259 E.07502
G1 X89.826 Y110.502 E.04691
G1 X89.882 Y108.595 E.05085
G1 X90.094 Y106.848 E.0469
G1 X90.458 Y105.125 E.04693
G1 X91.11 Y103.057 E.05779
G1 X91.8 Y101.437 E.04693
G1 X92.705 Y99.758 E.05083
G1 X93.589 Y98.409 E.04298
G1 X94.772 Y96.913 E.05083
G1 X95.758 Y95.927 E.03716
; printing object S-IVB-forward-skirt.stl id:0 copy 0
;WIPE_START
G1 F7200
G1 X96.763 Y94.922 E-.33756
G1 X98.141 Y93.826 E-.41817
G1 X98.297 Y93.724 E-.04427
;WIPE_END
G1 X110.001 Y95.113 F9000
G1 E.8 F1800
;TYPE:Support material
G1 F1200
G1 X110.738 Y95.131 E.01965
G1 X111.474 Y95.185 E.01967
G1 X112.206 Y95.275 E.01966
G1 X112.934 Y95.401 E.01969
G1 X113.654 Y95.563 E.01967
G1 X114.365 Y95.76 E.01966
G1 X115.066 Y95.992 E.01968
G1 X115.755 Y96.257 E.01967
G1 X116.429 Y96.556 E.01965
G1 X117.089 Y96.888 E.01969
G1 X117.731 Y97.252 E.01967
G1 X118.354 Y97.647 E.01966
G1 X118.958 Y98.072 E.01968
G1 X119.54 Y98.526 E.01967
G1 X120.098 Y99.008 E.01965
G1 X120.633 Y99.517 E.01968
G1 X120.871 Y99.766 E.00918
G1 X120.754 Y100.108 E.00963
G1 X120.742 Y100.199 E.00245
G1 X120.787 Y100.874 E.01803
G1 X120.81 Y100.961 E.0024
G1 X121.109 Y101.568 E.01803
G1 X121.165 Y101.64 E.00243
G1 X121.673 Y102.086 E.01802
G1 X121.752 Y102.132 E.00244
G1 X122.392 Y102.349 E.01801
G1 X122.483 Y102.361 E.00245
G1 X122.846 Y102.337 E.0097
G1 X123.262 Y103.061 E.02225
G1 X123.566 Y103.666 E.01805
G1 X123.454 Y104.075 E.0113
G1 X123.82 Y104.232 E.01061
G1 X123.893 Y104.395 E.00476
G1 X124.158 Y105.084 E.01967
G1 X124.39 Y105.785 E.01968
G1 X124.587 Y106.496 E.01966
G1 X124.748 Y107.216 E.01966
G1 X124.875 Y107.943 E.01967
G1 X124.965 Y108.676 E.01968
G1 X125.019 Y109.412 E.01967
G1 X125.037 Y110.15 E.01967
G1 X125.019 Y110.888 E.01967
G1 X124.965 Y111.624 E.01967
G1 X124.875 Y112.356 E.01966
G1 X124.748 Y113.084 E.0197
G1 X124.587 Y113.804 E.01966
G1 X124.39 Y114.515 E.01966
G1 X124.158 Y115.216 E.01968
G1 X123.893 Y115.904 E.01965
G1 X123.883 Y115.927 E.00067
G1 X123.365 Y116.148 E.01501
G1 X123.505 Y116.441 E.00865
G1 X123.561 Y116.643 E.00559
G1 X123.262 Y117.238 E.01775
G1 X122.898 Y117.881 E.01969
G1 X122.503 Y118.504 E.01966
G1 X122.078 Y119.108 E.01968
G1 X121.624 Y119.689 E.01965
G1 X121.142 Y120.248 E.01967
G1 X120.633 Y120.783 E.01968
G1 X120.098 Y121.292 E.01968
G1 X119.54 Y121.774 E.01965
G1 X118.958 Y122.228 E.01967
G1 X118.354 Y122.653 E.01968
G1 X117.731 Y123.048 E.01966
G1 X117.089 Y123.412 E.01967
G1 X116.429 Y123.743 E.01968
G1 X115.755 Y124.043 E.01966
G1 X115.066 Y124.308 E.01967
G1 X114.365 Y124.54 E.01968
G1 X113.654 Y124.737 E.01966
G1 X112.934 Y124.898 E.01966
G1 X112.206 Y125.024 E.01969
G1 X111.474 Y125.115 E.01966
G1 X110.738 Y125.169 E.01967
G1 X110 Y125.187 E.01967
G1 X109.262 Y125.169 E.01967
G1 X108.526 Y125.115 E.01967
G1 X107.794 Y125.024 E.01966
G1 X107.066 Y124.898 E.01969
G1 X106.346 Y124.737 E.01966
G1 X105.635 Y124.54 E.01966
G1 X104.934 Y124.308 E.01968
G1 X104.245 Y124.043 E.01967
G1 X103.656 Y123.781 E.01718
G1 X103.458 Y123.256 E.01495
G1 X103.252 Y122.133 E.03043
G1 X103.25 Y120.99 E.03046
G1 X103.455 Y119.853 E.03079
G1 X102.609 Y120.41 E.02699
G1 X101.56 Y120.857 E.03039
G1 X100.449 Y121.11 E.03037
G1 X99.744 Y121.142 E.01881
G1 X99.367 Y120.783 E.01387
G1 X99.129 Y120.533 E.0092
G1 X99.246 Y120.191 E.00963
G1 X99.258 Y120.101 E.00242
G1 X99.213 Y119.426 E.01803
G1 X99.19 Y119.338 E.00242
G1 X98.891 Y118.732 E.01801
G1 X98.742 Y118.578 E.00571
G1 X98.327 Y118.214 E.01471
G1 X98.248 Y118.168 E.00244
G1 X97.608 Y117.951 E.01801
G1 X97.517 Y117.939 E.00245
G1 X97.154 Y117.963 E.0097
G1 X96.738 Y117.238 E.02228
G1 X96.406 Y116.579 E.01967
G1 X96.107 Y115.904 E.01968
G1 X95.842 Y115.216 E.01965
G1 X95.61 Y114.515 E.01968
G1 X95.413 Y113.804 E.01966
G1 X95.252 Y113.083 E.01969
G1 X95.125 Y112.356 E.01967
G1 X95.035 Y111.624 E.01966
G1 X94.981 Y110.888 E.01967
G1 X94.97 Y110.455 E.01154
G1 X95.19 Y110.202 E.00894
G1 X96.083 Y109.489 E.03045
G1 X96.546 Y109.239 E.01402
G1 X95.901 Y108.723 E.02201
G1 X95.142 Y107.848 E.03087
G1 X95.252 Y107.216 E.0171
G1 X95.413 Y106.496 E.01966
G1 X95.61 Y105.785 E.01966
G1 X95.842 Y105.084 E.01968
G1 X96.107 Y104.395 E.01967
G1 X96.406 Y103.721 E.01965
G1 X96.738 Y103.061 E.01969
G1 X97.102 Y102.419 E.01967
G1 X97.497 Y101.796 E.01966
G1 X97.922 Y101.192 E.01968
G1 X98.376 Y100.61 E.01967
G1 X98.858 Y100.051 E.01967
G1 X99.367 Y99.517 E.01966
G1 X99.902 Y99.008 E.01968
G1 X100.46 Y98.526 E.01965
G1 X101.346 Y97.858 E.02957
G1 X102.267 Y98.067 E.02517
G1 X103.317 Y98.514 E.03041
G1 X103.885 Y98.888 E.01812
G1 X103.885 Y98.184 E.01876
G1 X104.09 Y97.06 E.03045
G1 X104.417 Y96.191 E.02475
G1 X104.934 Y95.992 E.01476
G1 X105.635 Y95.76 E.01968
G1 X106.346 Y95.563 E.01966
G1 X107.066 Y95.401 E.01967
G1 X107.794 Y95.275 E.01969
G1 X108.526 Y95.185 E.01966
G1 X109.262 Y95.131 E.01967
G1 X109.944 Y95.114 E.01818
;WIPE_START
G1 F7200
G1 X109.262 Y95.131 E-.16203
G1 X108.526 Y95.185 E-.17527
G1 X107.794 Y95.275 E-.17516
G1 X107.066 Y95.401 E-.17547
G1 X106.606 Y95.505 E-.11207
;WIPE_END
G1 X106.573 Y105.262 F9000
G1 E.8 F1800
G1 F1200
G1 X106.682 Y104.053 E.03235
G1 X107.727 Y104.615 E.03162
G1 X108.813 Y104.968 E.03043
G1 X109.946 Y105.121 E.03047
G1 X111.087 Y105.069 E.03044
G1 X111.605 Y104.95 E.01416
G1 X112.227 Y105.991 E.03232
G1 X112.978 Y106.851 E.03043
G1 X113.871 Y107.562 E.03042
G1 X114.877 Y108.103 E.03044
G1 X115.285 Y108.236 E.01144
G1 X115.052 Y109.525 E.03491
G1 X115.052 Y110.667 E.03044
G1 X115.257 Y111.791 E.03045
G1 X115.579 Y112.648 E.0244
G1 X115.041 Y112.822 E.01507
G1 X114.035 Y113.363 E.03044
G1 X113.143 Y114.075 E.03042
G1 X112.392 Y114.935 E.03043
G1 X111.956 Y115.664 E.02264
G1 X111.567 Y115.497 E.01128
G1 X110.452 Y115.242 E.03048
G1 X109.31 Y115.19 E.03047
G1 X108.177 Y115.343 E.03047
G1 X107.09 Y115.697 E.03047
G1 X105.726 Y116.431 E.04128
G1 X105.86 Y115.947 E.01338
G1 X105.964 Y114.81 E.03043
G1 X105.864 Y113.672 E.03045
G1 X105.562 Y112.571 E.03043
G1 X105.067 Y111.541 E.03046
G1 X104.397 Y110.615 E.03046
G1 X103.414 Y109.674 E.03627
G1 X104.274 Y109.108 E.02744
G1 X105.1 Y108.319 E.03044
G1 X105.773 Y107.394 E.03049
G1 X106.269 Y106.364 E.03047
G1 X106.558 Y105.317 E.02895
;WIPE_START
G1 F7200
G1 X106.269 Y106.364 E-.25796
G1 X105.773 Y107.394 E-.27151
G1 X105.103 Y108.315 E-.27053
;WIPE_END
G1 X119.23 Y121.8 F9000
G1 E.8 F1800
G1 F1200
G1 X123.069 Y116.317 E.17839
G1 X122.905 Y115.976 E.01008
G1 X123.481 Y115.73 E.01669
G1 X123.738 Y115.361 E.01198
G1 X124.065 Y114.416 E.02665
G1 X124.257 Y113.721 E.01922
G1 X124.395 Y113.109 E.01672
G1 X117.706 Y122.662 E.31081
G1 X116.929 Y123.112 E.02393
G1 X116.224 Y123.463 E.02099
G1 X124.638 Y111.447 E.39095
G1 X124.68 Y110.871 E.01539
G1 X124.695 Y110.05 E.02188
G1 X114.931 Y123.995 E.4537
G1 X114.267 Y124.215 E.01864
G1 X113.758 Y124.356 E.01408
G1 X124.635 Y108.821 E.50542
G1 X124.49 Y107.713 E.02978
G1 X112.666 Y124.6 E.54941
G1 X112.157 Y124.689 E.01377
G1 X111.639 Y124.753 E.01391
G1 X124.283 Y106.694 E.58753
G1 X124.022 Y105.753 E.02603
G1 X110.663 Y124.831 E.62071
G1 X109.735 Y124.841 E.02473
G1 X123.715 Y104.877 E.64955
G1 X123.564 Y104.492 E.01102
G1 X123.179 Y104.327 E.01116
G1 X108.845 Y124.798 E.66603
G1 X107.988 Y124.707 E.02297
G1 X122.992 Y103.28 E.69714
G1 X122.661 Y102.689 E.01805
G1 X122.476 Y102.701 E.00494
G1 X115.791 Y112.248 E.31061
G1 X115.585 Y111.7 E.0156
G1 X115.517 Y111.325 E.01016
G1 X121.713 Y102.477 E.28788
G1 X121.475 Y102.363 E.00703
G1 X121.101 Y102.035 E.01326
G1 X115.391 Y110.189 E.2653
G1 X115.391 Y109.555 E.0169
G1 X115.557 Y108.638 E.02484
G1 X120.639 Y101.381 E.23612
G1 X120.491 Y101.082 E.00889
G1 X120.45 Y100.929 E.00422
G1 X120.415 Y100.386 E.0145
G1 X115.189 Y107.848 E.24279
G1 X115.011 Y107.79 E.00499
G1 X114.501 Y107.516 E.01543
G1 X120.118 Y99.495 E.26097
G1 X119.553 Y98.986 E.02027
G1 X113.859 Y107.119 E.2646
G1 X113.268 Y106.648 E.02014
G1 X118.967 Y98.509 E.2648
G1 X118.358 Y98.064 E.0201
G1 X112.75 Y106.073 E.26057
G1 X112.502 Y105.79 E.01003
G1 X112.284 Y105.424 E.01135
G1 X117.726 Y97.651 E.25288
G1 X117.073 Y97.269 E.02016
G1 X111.86 Y104.715 E.24224
G1 X111.77 Y104.564 E.00468
G1 X111.041 Y104.731 E.01993
G1 X110.924 Y104.736 E.00312
G1 X116.397 Y96.92 E.2543
G1 X115.698 Y96.603 E.02046
G1 X109.973 Y104.78 E.26603
G1 X109.13 Y104.668 E.02266
G1 X114.975 Y96.32 E.2716
G1 X114.227 Y96.074 E.02099
G1 X108.354 Y104.462 E.2729
G1 X107.86 Y104.302 E.01384
G1 X107.632 Y104.179 E.0069
G1 X113.452 Y95.866 E.27045
G1 X112.65 Y95.697 E.02184
G1 X106.963 Y103.819 E.26425
G1 X106.39 Y103.511 E.01734
G1 X106.274 Y104.803 E.03457
G1 X97.324 Y117.584 E.41584
G1 X97.339 Y117.61 E.0008
G1 X97.528 Y117.598 E.00505
G1 X97.685 Y117.619 E.00422
G1 X98.118 Y117.766 E.01219
G1 X103.438 Y110.167 E.24722
G1 X103.989 Y110.695 E.02034
G1 X98.769 Y118.15 E.24255
G1 X99.084 Y118.426 E.01116
G1 X99.18 Y118.552 E.00422
G1 X99.275 Y118.743 E.00569
G1 X104.48 Y111.309 E.24186
G1 X104.774 Y111.715 E.01336
G1 X104.914 Y112.005 E.00858
G1 X99.567 Y119.64 E.24842
G1 X99.598 Y120.112 E.01261
G1 X99.578 Y120.269 E.00422
G1 X99.517 Y120.448 E.00504
G1 X99.756 Y120.685 E.00897
G1 X105.274 Y112.805 E.25638
G1 X105.53 Y113.754 E.0262
G1 X100.656 Y120.715 E.22647
G1 X101.455 Y120.533 E.02184
G1 X101.81 Y120.382 E.01028
G1 X105.61 Y114.954 E.17659
G1 X105.525 Y115.886 E.02494
G1 X105.293 Y116.723 E.02315
G1 X103.326 Y119.531 E.09137
G1 X103.929 Y119.134 E.01924
G1 X103.723 Y120.279 E.03101
G1 X106.403 Y116.452 E.12452
G1 X107.224 Y116.01 E.02485
G1 X107.754 Y115.837 E.01486
G1 X103.591 Y121.783 E.19345
G1 X103.591 Y122.101 E.00848
G1 X103.736 Y122.89 E.02138
G1 X108.844 Y115.595 E.23734
G1 X109.326 Y115.53 E.01296
G1 X109.795 Y115.552 E.01251
G1 X104.142 Y123.625 E.26266
G1 X104.859 Y123.916 E.02062
G1 X110.657 Y115.637 E.26937
G1 X111.45 Y115.818 E.02168
G1 X105.601 Y124.171 E.27177
G1 X106.368 Y124.391 E.02127
G1 X113.47 Y114.249 E.32998
G1 X114.223 Y113.648 E.02568
G1 X115.167 Y113.14 E.02857
G1 X107.057 Y124.722 E.37682
;WIPE_START
G1 F7200
G1 X108.989 Y121.963 E-.8
;WIPE_END
G1 X96.81 Y117.004 F9000
G1 E.8 F1800
G1 F1200
G1 X111.819 Y95.569 E.69739
G1 X110.956 Y95.487 E.0231
G1 X96.549 Y116.062 E.66941
G1 X96.211 Y115.23 E.02393
G1 X110.058 Y95.453 E.64343
G1 X109.118 Y95.482 E.02506
G1 X95.914 Y114.339 E.61352
G1 X95.666 Y113.379 E.02643
G1 X108.132 Y95.576 E.57922
G1 X107.094 Y95.743 E.02802
G1 X95.468 Y112.346 E.54019
G1 X95.373 Y111.59 E.02031
G1 X95.345 Y111.207 E.01023
G1 X96.397 Y109.705 E.04887
G1 X97.158 Y109.294 E.02305
G1 X96.854 Y109.051 E.01037
G1 X103.749 Y99.205 E.32035
G1 X103.114 Y98.797 E.02012
G1 X96.264 Y108.579 E.31827
G1 X96.136 Y108.477 E.00436
G1 X95.736 Y108.018 E.01623
G1 X102.405 Y98.495 E.30985
G1 X102.162 Y98.391 E.00704
G1 X101.64 Y98.273 E.01426
G1 X95.704 Y106.749 E.27578
G1 X95.935 Y105.883 E.02389
G1 X96.161 Y105.198 E.01922
G1 X96.559 Y104.214 E.02829
G1 X100.27 Y98.914 E.17243
G1 X104.055 Y98.768 F9000
G1 F1200
G1 X105.982 Y96.016 E.08954
G1 X105.048 Y96.311 E.0261
G1 X104.783 Y96.414 E.00758
G1 X104.239 Y97.19 E.02526
;WIPE_START
G1 F7200
G1 X104.783 Y96.414 E-.22508
G1 X105.048 Y96.311 E-.06752
G1 X105.982 Y96.016 E-.23263
G1 X105.318 Y96.964 E-.27477
;WIPE_END
G1 X97.941 Y119.403 F9000
