; generated by PrusaSlicer 2.6.1+win64 on 2024-01-27 at 09:31:41 UTC

; 

; external perimeters extrusion width = 0.42mm
; perimeters extrusion width = 0.44mm
; infill extrusion width = 0.44mm
; solid infill extrusion width = 0.44mm
; top infill extrusion width = 0.40mm
; support material extrusion width = 0.36mm
; first layer extrusion width = 0.42mm

M201 X500 Y500 Z100 E5000 ; sets maximum accelerations, mm/sec^2
M203 X500 Y500 Z10 E60 ; sets maximum feedrates, mm / sec
M204 S500 T1000 ; sets acceleration (S) and retract acceleration (R), mm/sec^2
M205 X8.00 Y8.00 Z0.40 E5.00 ; sets the jerk limits, mm/sec
M205 S0 T0 ; sets the minimum extruding and travel feed rate, mm/sec
;TYPE:Custom
G90 ; use absolute coordinates
M83 ; extruder relative mode
M104 S150 ; set temporary nozzle temp to prevent oozing during homing
M140 S60 ; set final bed temp
G4 S30 ; allow partial nozzle warmup
G28 ; home all axis and restore leveling
G1 Z50 F240
G1 X2.0 Y10 F3000
M104 S215 ; set final nozzle temp
M190 S60 ; wait for bed temp to stabilize
M109 S215 ; wait for nozzle temp to stabilize
G1 Z0.28 F240
G92 E0
G1 X2.0 Y140 E10 F1500 ; prime the nozzle
G1 X2.3 Y140 F5000
G92 E0
G1 X2.3 Y10 E10 F1200 ; prime the nozzle
G92 E0
G21 ; set units to millimeters
G90 ; use absolute coordinates
M83 ; use relative distances for extrusion
; Filament gcode
M107
;LAYER_CHANGE
;Z:0.2
;HEIGHT:0.2
;BEFORE_LAYER_CHANGE
G92 E0
;0.2


G1 E-.8 F1800
G1 Z.2 F9000
;AFTER_LAYER_CHANGE
;0.2
G1 X93.345 Y94.213
G1 E.8 F1800
M204 S500
;TYPE:Skirt/Brim
;WIDTH:0.42
G1 F1200
G1 X94.374 Y93.324 E.03624
G1 X95.746 Y92.709 E.04007
G1 X106.191 Y90.316 E.28558
G1 X108.329 Y90.028 E.05749
G1 X110.205 Y89.961 E.05003
G1 X112.886 Y90.163 E.07165
G1 X115.635 Y90.748 E.0749
G1 X129.289 Y95.467 E.38502
G1 X130.454 Y95.951 E.03362
G1 X131.233 Y96.397 E.02392
G1 X132.581 Y97.401 E.0448
G1 X133.625 Y98.597 E.04231
G1 X134.434 Y100.062 E.0446
G1 X134.9 Y101.739 E.04639
G1 X134.947 Y103.005 E.03376
G1 X134.842 Y104.034 E.02757
G1 X134.348 Y105.989 E.05374
G1 X127.694 Y125.156 E.54073
G1 X127.191 Y126.141 E.02948
G1 X126.655 Y126.816 E.02297
G1 X125.626 Y127.706 E.03626
G1 X124.254 Y128.32 E.04006
G1 X113.809 Y130.713 E.28558
G1 X111.671 Y131.001 E.05749
G1 X109.795 Y131.069 E.05003
G1 X107.114 Y130.866 E.07166
G1 X104.483 Y130.315 E.07164
G1 X90.433 Y125.796 E.39334
G1 X89.031 Y125.172 E.0409
G1 X88.135 Y124.582 E.02859
G1 X87.345 Y123.882 E.02813
G1 X86.326 Y122.634 E.04294
G1 X85.67 Y121.426 E.03664
G1 X85.411 Y120.73 E.01979
G1 X85.143 Y119.708 E.02816
G1 X85.022 Y118.615 E.02931
G1 X85.14 Y116.409 E.05888
G1 X85.617 Y114.068 E.06367
G1 X92.329 Y95.809 E.51846
G1 X92.809 Y94.888 E.02768
G1 X93.307 Y94.26 E.02136
G1 X93.608 Y94.484 F9000
G1 F1200
G1 X94.573 Y93.644 E.0341
G1 X95.831 Y93.076 E.03679
G1 X106.264 Y90.685 E.28526
G1 X108.366 Y90.403 E.05652
G1 X110.205 Y90.338 E.04904
G1 X112.836 Y90.537 E.07032
G1 X115.526 Y91.108 E.07329
G1 X129.37 Y95.902 E.39045
G1 X130.307 Y96.299 E.02712
G1 X131.007 Y96.7 E.0215
G1 X132.356 Y97.703 E.0448
G1 X133.295 Y98.779 E.03806
G1 X134.104 Y100.244 E.0446
G1 X134.523 Y101.753 E.04174
G1 X134.57 Y103.019 E.03376
G1 X134.476 Y103.944 E.02478
G1 X134.082 Y105.558 E.04428
G1 X127.338 Y125.033 E.54927
G1 X127.017 Y125.705 E.01985
G1 X126.389 Y126.55 E.02806
G1 X125.427 Y127.385 E.03395
G1 X124.169 Y127.953 E.03679
G1 X113.736 Y130.344 E.28526
G1 X111.634 Y130.626 E.05652
G1 X109.685 Y130.69 E.05197
G1 X107.164 Y130.492 E.06739
G1 X104.474 Y129.921 E.07329
G1 X90.548 Y125.437 E.38991
G1 X89.191 Y124.831 E.03961
G1 X88.385 Y124.3 E.02572
G1 X87.109 Y123.066 E.04731
G1 X86.63 Y122.411 E.02163
G1 X86.009 Y121.26 E.03486
G1 X85.507 Y119.612 E.04591
G1 X85.399 Y118.629 E.02636
G1 X85.511 Y116.476 E.05746
G1 X85.971 Y114.198 E.06194
G1 X92.683 Y95.939 E.51846
G1 X92.983 Y95.324 E.01824
G1 X93.572 Y94.532 E.0263
; printing object S-IVB-aft-skirt-3.0.stl id:0 copy 0
;WIPE_START
G1 F7200
G1 X94.573 Y93.644 E-.3178
G1 X95.831 Y93.076 E-.32782
G1 X96.465 Y92.931 E-.15438
;WIPE_END
G1 X111.474 Y95.55 F9000
G1 E.8 F1800
;TYPE:Support material
G1 F1200
G1 X112.098 Y95.627 E.01676
G1 X112.5 Y95.92 E.01326
G1 X112.598 Y95.962 E.00284
G1 X113.169 Y96.075 E.01551
G1 X113.276 Y96.074 E.00285
G1 X113.759 Y95.957 E.01324
G1 X114.365 Y96.125 E.01676
G1 X115.066 Y96.356 E.01967
G1 X115.755 Y96.622 E.01968
G1 X116.429 Y96.921 E.01965
G1 X117.089 Y97.253 E.01969
G1 X117.731 Y97.617 E.01967
G1 X118.354 Y98.011 E.01965
G1 X119.175 Y98.606 E.02702
G1 X118.563 Y99.352 E.02572
G1 X118.595 Y99.727 E.01003
G1 X119.258 Y100.299 E.02334
G1 X119.663 Y100.686 E.01493
G1 X120.425 Y101.488 E.02948
G1 X120.8 Y101.508 E.01001
G1 X121.531 Y100.867 E.02591
G1 X121.624 Y100.975 E.0038
G1 X122.011 Y101.471 E.01677
G1 X122.087 Y101.962 E.01324
G1 X122.127 Y102.061 E.00285
G1 X122.451 Y102.545 E.01552
G1 X122.527 Y102.62 E.00285
G1 X122.952 Y102.879 E.01326
G1 X123.262 Y103.426 E.01676
G1 X123.594 Y104.085 E.01967
G1 X123.893 Y104.76 E.01968
G1 X124.158 Y105.449 E.01967
G1 X124.39 Y106.149 E.01965
G1 X124.587 Y106.861 E.01969
G1 X124.748 Y107.581 E.01966
G1 X124.908 Y108.582 E.02702
G1 X123.948 Y108.677 E.02571
G1 X123.706 Y108.964 E.01001
G1 X123.77 Y109.837 E.02333
G1 X123.782 Y110.397 E.01493
G1 X123.754 Y111.503 E.02949
G1 X124.006 Y111.783 E.01004
G1 X124.975 Y111.846 E.02588
G1 X124.965 Y111.988 E.00379
G1 X124.888 Y112.613 E.01678
G1 X124.595 Y113.014 E.01324
G1 X124.553 Y113.112 E.00284
G1 X124.439 Y113.684 E.01554
G1 X124.44 Y113.79 E.00283
G1 X124.558 Y114.273 E.01325
G1 X124.39 Y114.88 E.01679
G1 X124.158 Y115.58 E.01965
G1 X123.893 Y116.269 E.01967
G1 X123.594 Y116.944 E.01968
G1 X123.262 Y117.603 E.01967
G1 X122.898 Y118.245 E.01967
G1 X122.503 Y118.869 E.01968
G1 X121.908 Y119.69 E.02702
G1 X121.162 Y119.078 E.02572
G1 X120.788 Y119.11 E.01
G1 X120.216 Y119.773 E.02334
G1 X119.829 Y120.177 E.01491
G1 X119.027 Y120.939 E.02948
G1 X119.007 Y121.315 E.01003
G1 X119.648 Y122.045 E.02589
G1 X119.54 Y122.139 E.00382
G1 X119.044 Y122.526 E.01677
G1 X118.553 Y122.602 E.01324
G1 X118.454 Y122.642 E.00285
G1 X117.969 Y122.966 E.01554
G1 X117.894 Y123.042 E.00285
G1 X117.636 Y123.466 E.01323
G1 X117.089 Y123.776 E.01676
G1 X116.429 Y124.108 E.01969
G1 X115.755 Y124.407 E.01965
G1 X115.066 Y124.673 E.01968
G1 X114.365 Y124.904 E.01967
G1 X113.654 Y125.101 E.01966
G1 X112.934 Y125.263 E.01967
G1 X111.933 Y125.423 E.02702
G1 X111.838 Y124.463 E.02571
G1 X111.55 Y124.22 E.01004
G1 X110.677 Y124.285 E.02333
G1 X110.117 Y124.297 E.01493
G1 X109.011 Y124.269 E.02949
G1 X108.732 Y124.52 E.01
G1 X108.669 Y125.49 E.02591
G1 X108.526 Y125.48 E.00382
G1 X107.902 Y125.402 E.01676
G1 X107.5 Y125.109 E.01326
G1 X107.402 Y125.068 E.00283
G1 X106.831 Y124.954 E.01552
G1 X106.724 Y124.955 E.00285
G1 X106.241 Y125.072 E.01324
G1 X105.635 Y124.904 E.01676
G1 X104.934 Y124.673 E.01967
G1 X104.245 Y124.407 E.01968
G1 X103.571 Y124.108 E.01965
G1 X102.911 Y123.776 E.01969
G1 X102.269 Y123.413 E.01966
G1 X101.646 Y123.018 E.01966
G1 X100.825 Y122.423 E.02702
G1 X101.437 Y121.677 E.02572
G1 X101.405 Y121.302 E.01003
G1 X100.742 Y120.731 E.02332
G1 X100.337 Y120.343 E.01495
G1 X99.575 Y119.541 E.02948
G1 X99.2 Y119.521 E.01001
G1 X98.469 Y120.162 E.02591
G1 X98.376 Y120.054 E.0038
G1 X97.989 Y119.558 E.01677
G1 X97.913 Y119.067 E.01324
G1 X97.873 Y118.968 E.00285
G1 X97.549 Y118.484 E.01552
G1 X97.473 Y118.409 E.00285
G1 X97.048 Y118.151 E.01325
G1 X96.738 Y117.603 E.01678
G1 X96.406 Y116.944 E.01967
G1 X96.107 Y116.269 E.01968
G1 X95.842 Y115.581 E.01965
G1 X95.61 Y114.88 E.01968
G1 X95.413 Y114.168 E.01969
G1 X95.252 Y113.448 E.01966
G1 X95.092 Y112.447 E.02702
G1 X96.052 Y112.353 E.02571
G1 X96.294 Y112.065 E.01003
G1 X96.23 Y111.192 E.02333
G1 X96.218 Y110.632 E.01493
G1 X96.246 Y109.526 E.02949
G1 X95.994 Y109.246 E.01004
G1 X95.025 Y109.183 E.02588
G1 X95.035 Y109.041 E.00379
G1 X95.112 Y108.416 E.01678
G1 X95.405 Y108.015 E.01324
G1 X95.447 Y107.917 E.00284
G1 X95.561 Y107.345 E.01554
G1 X95.56 Y107.239 E.00283
G1 X95.442 Y106.756 E.01325
G1 X95.61 Y106.149 E.01679
G1 X95.842 Y105.449 E.01965
G1 X96.107 Y104.76 E.01967
G1 X96.406 Y104.085 E.01968
G1 X96.738 Y103.426 E.01967
G1 X97.102 Y102.784 E.01967
G1 X97.497 Y102.16 E.01968
G1 X98.092 Y101.339 E.02702
G1 X98.838 Y101.951 E.02572
G1 X99.212 Y101.919 E.01
G1 X99.784 Y101.256 E.02334
G1 X100.171 Y100.852 E.01491
G1 X100.973 Y100.09 E.02948
G1 X100.993 Y99.714 E.01003
G1 X100.352 Y98.984 E.02589
G1 X100.46 Y98.891 E.0038
G1 X100.956 Y98.503 E.01678
G1 X101.447 Y98.427 E.01324
G1 X101.546 Y98.387 E.00285
G1 X102.031 Y98.063 E.01554
G1 X102.106 Y97.987 E.00285
G1 X102.364 Y97.563 E.01323
G1 X102.911 Y97.253 E.01676
G1 X103.571 Y96.921 E.01969
G1 X104.245 Y96.622 E.01965
G1 X104.934 Y96.356 E.01968
G1 X105.635 Y96.125 E.01967
G1 X106.346 Y95.928 E.01966
G1 X107.066 Y95.766 E.01967
G1 X108.067 Y95.606 E.02702
G1 X108.162 Y96.567 E.02574
G1 X108.45 Y96.809 E.01003
G1 X109.323 Y96.744 E.02333
G1 X109.883 Y96.732 E.01493
G1 X110.989 Y96.76 E.02949
G1 X111.268 Y96.509 E.01
G1 X111.331 Y95.539 E.02591
G1 X111.418 Y95.545 E.00232
;WIPE_START
G1 F7200
G1 X111.331 Y95.539 E-.02071
G1 X111.268 Y96.509 E-.23086
G1 X110.989 Y96.76 E-.08913
G1 X109.883 Y96.732 E-.26276
G1 X109.323 Y96.744 E-.13303
G1 X109.056 Y96.764 E-.06351
;WIPE_END
G1 X107.066 Y101.174 F9000
G1 E.8 F1800
G1 F1200
G1 X107.762 Y101 E.01912
G1 X108.274 Y101.407 E.01743
G1 X109.422 Y101.857 E.03286
G1 X110.649 Y101.95 E.03279
G1 X111.85 Y101.676 E.03283
G1 X112.431 Y101.341 E.01787
G1 X113.184 Y101.76 E.02297
G1 X114.282 Y102.013 E.03003
G1 X114.726 Y102.008 E.01183
G1 X115.061 Y103.075 E.02981
G1 X115.703 Y104.011 E.03025
G1 X115.94 Y104.211 E.00826
G1 X115.94 Y105.109 E.02393
G1 X116.186 Y106.236 E.03074
G1 X116.669 Y107.283 E.03073
G1 X117.367 Y108.203 E.03078
G1 X118.245 Y108.951 E.03074
G1 X118.647 Y109.165 E.01214
G1 X118.647 Y110.391 E.03267
G1 X119.007 Y111.556 E.0325
G1 X119.441 Y112.198 E.02065
G1 X119.279 Y112.32 E.0054
G1 X118.558 Y113.13 E.0289
G1 X118.053 Y114.126 E.02976
G1 X117.827 Y115.011 E.02434
G1 X117.805 Y115.612 E.01603
G1 X116.975 Y115.932 E.02371
G1 X116.01 Y116.693 E.03275
G1 X115.313 Y117.704 E.03273
G1 X115.025 Y118.621 E.02562
G1 X114.778 Y118.818 E.00842
G1 X114.419 Y119.231 E.01458
G1 X114.168 Y119.597 E.01183
G1 X113.595 Y119.625 E.01529
G1 X113.031 Y119.791 E.01567
G1 X112.774 Y119.891 E.00735
G1 X111.947 Y119.413 E.02546
G1 X110.748 Y119.137 E.03279
G1 X109.524 Y119.228 E.03271
G1 X108.381 Y119.677 E.03273
G1 X108.193 Y119.826 E.00639
G1 X107.56 Y119.353 E.02106
G1 X106.463 Y118.923 E.0314
G1 X105.288 Y118.801 E.03148
G1 X104.917 Y118.863 E.01002
G1 X104.717 Y118.744 E.0062
G1 X104.604 Y118.014 E.01969
G1 X104.025 Y116.914 E.03313
G1 X103.214 Y116.073 E.03114
G1 X102.884 Y115.883 E.01015
G1 X103.038 Y115.43 E.01275
G1 X103.165 Y114.285 E.0307
G1 X103.044 Y113.14 E.03069
G1 X102.678 Y112.042 E.03085
G1 X102.087 Y111.052 E.03073
G1 X101.28 Y110.196 E.03135
G1 X101.203 Y109.691 E.01361
G1 X100.917 Y109.1 E.0175
G1 X101.31 Y108.573 E.01752
G1 X101.746 Y107.488 E.03116
G1 X101.89 Y106.327 E.03118
G1 X101.877 Y106.232 E.00256
G1 X102.069 Y105.793 E.01277
G1 X103.092 Y105.213 E.03134
G1 X103.932 Y104.318 E.03271
G1 X104.47 Y103.214 E.03273
G1 X104.546 Y102.726 E.01316
G1 X104.736 Y102.612 E.00591
G1 X105.377 Y101.907 E.02539
G1 X105.536 Y101.868 E.00436
G1 X106.591 Y101.24 E.03272
G1 X106.669 Y101.154 E.00309
G1 X107.009 Y101.171 E.00907
;WIPE_START
G1 F7200
G1 X106.669 Y101.154 E-.08085
G1 X106.591 Y101.24 E-.02757
G1 X105.536 Y101.868 E-.29159
G1 X105.377 Y101.907 E-.03888
G1 X104.736 Y102.612 E-.2263
G1 X104.546 Y102.726 E-.05262
G1 X104.493 Y103.068 E-.08219
;WIPE_END
G1 X118.818 Y122.389 F9000
G1 E.8 F1800
G1 F1200
G1 X119.12 Y121.958 E.01403
G1 X118.661 Y121.435 E.01855
G1 X118.668 Y121.287 E.00395
G1 X117.271 Y123.283 E.06493
G1 X116.929 Y123.477 E.01048
G1 X116.284 Y123.801 E.01924
G1 X115.854 Y123.992 E.01254
G1 X124.158 Y112.133 E.38584
G1 X123.846 Y112.112 E.00833
G1 X123.512 Y111.741 E.0133
G1 X114.599 Y124.47 E.41414
G1 X114.267 Y124.58 E.00932
G1 X113.447 Y124.8 E.02263
G1 X123.444 Y110.522 E.46453
G1 X123.431 Y109.853 E.01783
G1 X123.389 Y109.286 E.01515
G1 X112.375 Y125.015 E.51175
G1 X112.236 Y125.04 E.00376
G1 X112.162 Y124.292 E.02003
G1 X112.036 Y124.186 E.00439
G1 X117.776 Y115.987 E.26674
G1 X117.145 Y116.23 E.01802
G1 X116.26 Y116.928 E.03004
G1 X115.622 Y117.854 E.02997
G1 X115.318 Y118.822 E.02704
G1 X115.013 Y119.064 E.01038
G1 X114.688 Y119.438 E.01321
G1 X114.353 Y119.928 E.01582
G1 X114.087 Y119.941 E.0071
G1 X111.317 Y123.897 E.12871
G1 X110.358 Y123.952 E.0256
G1 X113.011 Y120.163 E.12327
G1 X112.745 Y120.267 E.00761
G1 X112.227 Y119.967 E.01595
G1 X109.441 Y123.946 E.12946
G1 X108.887 Y123.924 E.01478
G1 X108.402 Y124.36 E.01738
G1 X108.353 Y125.116 E.02019
G1 X108.031 Y125.076 E.00865
G1 X107.831 Y124.931 E.00658
G1 X111.52 Y119.663 E.1714
G1 X110.727 Y119.481 E.02168
G1 X107.096 Y124.666 E.1687
G1 X106.867 Y124.614 E.00626
G1 X106.682 Y124.616 E.00493
G1 X106.247 Y124.722 E.01193
G1 X106.154 Y124.696 E.00257
G1 X109.757 Y119.551 E.1674
G1 X109.601 Y119.563 E.00417
G1 X108.524 Y119.997 E.03095
G1 X105.394 Y124.467 E.14543
G1 X104.658 Y124.203 E.02084
G1 X107.69 Y119.874 E.14086
G1 X107.394 Y119.652 E.00986
G1 X107.025 Y119.508 E.01056
G1 X103.947 Y123.904 E.14302
G1 X103.259 Y123.571 E.02037
G1 X106.288 Y119.246 E.14072
G1 X105.43 Y119.157 E.02299
G1 X102.594 Y123.206 E.13175
G1 X101.951 Y122.81 E.02013
G1 X104.579 Y119.057 E.12211
G1 X104.406 Y118.953 E.00538
G1 X104.284 Y118.164 E.02128
G1 X101.234 Y122.52 E.14172
G1 X121.243 Y118.925 F9000
G1 F1200
G1 X123.994 Y114.997 E.12781
G1 X124.207 Y114.268 E.02024
G1 X124.101 Y113.833 E.01193
G1 X124.1 Y113.648 E.00493
G1 X124.138 Y113.476 E.00469
G1 X119.16 Y120.586 E.23132
G1 X123.934 Y108.507 F9000
G1 F1200
G1 X124.44 Y107.786 E.02348
G1 X124.215 Y106.791 E.02719
G1 X118.151 Y115.453 E.2818
G1 X118.165 Y115.059 E.01051
G1 X118.372 Y114.246 E.02236
G1 X118.84 Y113.323 E.02758
G1 X119.51 Y112.571 E.02684
G1 X119.905 Y112.274 E.01317
G1 X119.683 Y111.95 E.01047
G1 X123.94 Y105.87 E.19781
G1 X123.624 Y105.006 E.02452
G1 X119.263 Y111.235 E.20265
G1 X118.986 Y110.315 E.02561
G1 X123.27 Y104.197 E.19905
G1 X122.879 Y103.44 E.02271
G1 X118.986 Y109 E.18089
G1 X118.986 Y108.961 E.00104
G1 X118.437 Y108.669 E.01657
G1 X118.35 Y108.594 E.00306
G1 X122.336 Y102.901 E.18522
G1 X122.185 Y102.76 E.00551
G1 X121.858 Y102.268 E.01574
G1 X117.773 Y108.103 E.18983
G1 X117.615 Y107.969 E.00552
G1 X117.267 Y107.51 E.01535
G1 X121.536 Y101.414 E.19834
G1 X121.49 Y101.354 E.00201
G1 X120.92 Y101.854 E.02021
G1 X120.329 Y101.823 E.01577
G1 X116.83 Y106.82 E.16258
G1 X116.51 Y106.127 E.02034
G1 X116.482 Y106.001 E.00344
G1 X119.781 Y101.291 E.15326
G1 X119.239 Y100.75 E.02041
G1 X116.279 Y104.977 E.13753
G1 X116.28 Y104.054 E.0246
G1 X116.107 Y103.908 E.00603
G1 X118.674 Y100.243 E.11925
G1 X118.269 Y99.894 E.01425
G1 X118.239 Y99.548 E.00926
G1 X115.619 Y103.289 E.12172
G1 X115.37 Y102.925 E.01175
G1 X115.241 Y102.515 E.01146
G1 X118.187 Y98.308 E.13688
G1 X118.166 Y98.294 E.00067
G1 X117.549 Y97.904 E.01945
G1 X114.914 Y101.667 E.12243
G1 X114.319 Y101.674 E.01586
G1 X114.035 Y101.608 E.00777
G1 X116.889 Y97.532 E.13261
G1 X116.206 Y97.193 E.02032
G1 X113.253 Y101.41 E.1372
G1 X112.59 Y101.041 E.02022
G1 X115.499 Y96.887 E.13516
G1 X114.769 Y96.615 E.02076
G1 X111.396 Y101.432 E.15672
G1 X110.623 Y101.608 E.02113
G1 X110.366 Y101.588 E.00687
G1 X114.013 Y96.379 E.16947
G1 X113.753 Y96.308 E.00718
G1 X113.318 Y96.413 E.01193
G1 X113.077 Y96.402 E.00643
G1 X109.493 Y101.521 E.16654
G1 X108.77 Y101.238 E.02069
G1 X112.301 Y96.195 E.16407
G1 X111.969 Y95.953 E.01095
G1 X111.647 Y95.913 E.00865
G1 X111.598 Y96.669 E.02019
G1 X111.113 Y97.105 E.01738
G1 X110.753 Y97.091 E.0096
G1 X108.12 Y100.851 E.12234
G1 X107.843 Y100.63 E.00944
G1 X107.251 Y100.778 E.01626
G1 X109.845 Y97.073 E.12054
G1 X108.894 Y97.116 E.02537
G1 X106.063 Y101.159 E.13154
G1 X105.406 Y101.551 E.02039
