; generated by PrusaSlicer 2.6.1+win64 on 2024-01-27 at 09:30:18 UTC

; 

; external perimeters extrusion width = 0.42mm
; perimeters extrusion width = 0.44mm
; infill extrusion width = 0.44mm
; solid infill extrusion width = 0.44mm
; top infill extrusion width = 0.40mm
; support material extrusion width = 0.36mm
; first layer extrusion width = 0.42mm

; external perimeters extrusion width = 0.42mm
; perimeters extrusion width = 0.44mm
; infill extrusion width = 0.44mm
; solid infill extrusion width = 0.44mm
; top infill extrusion width = 0.40mm
; support material extrusion width = 0.36mm
; first layer extrusion width = 0.42mm

M201 X500 Y500 Z100 E5000 ; sets maximum accelerations, mm/sec^2
M203 X500 Y500 Z10 E60 ; sets maximum feedrates, mm / sec
M204 S500 T1000 ; sets acceleration (S) and retract acceleration (R), mm/sec^2
M205 X8.00 Y8.00 Z0.40 E5.00 ; sets the jerk limits, mm/sec
M205 S0 T0 ; sets the minimum extruding and travel feed rate, mm/sec
;TYPE:Custom
G90 ; use absolute coordinates
M83 ; extruder relative mode
M104 S150 ; set temporary nozzle temp to prevent oozing during homing
M140 S60 ; set final bed temp
G4 S30 ; allow partial nozzle warmup
G28 ; home all axis and restore leveling
G1 Z50 F240
G1 X2.0 Y10 F3000
M104 S215 ; set final nozzle temp
M190 S60 ; wait for bed temp to stabilize
M109 S215 ; wait for nozzle temp to stabilize
G1 Z0.28 F240
G92 E0
G1 X2.0 Y140 E10 F1500 ; prime the nozzle
G1 X2.3 Y140 F5000
G92 E0
G1 X2.3 Y10 E10 F1200 ; prime the nozzle
G92 E0
G21 ; set units to millimeters
G90 ; use absolute coordinates
M83 ; use relative distances for extrusion
; Filament gcode
M107
;LAYER_CHANGE
;Z:0.2
;HEIGHT:0.2
;BEFORE_LAYER_CHANGE
G92 E0
;0.2


G1 E-.8 F1800
G1 Z.2 F9000
;AFTER_LAYER_CHANGE
;0.2
G1 X83.779 Y106.628
G1 E.8 F1800
M204 S500
;TYPE:Skirt/Brim
;WIDTH:0.42
G1 F1200
G1 X114.191 Y83.389 E1.02006
G1 X115.762 Y82.456 E.0487
G1 X117.265 Y81.746 E.0443
G1 X118.18 Y81.403 E.02604
G1 X120.55 Y80.722 E.06572
G1 X122.725 Y80.378 E.05869
G1 X125.3 Y80.315 E.06865
G1 X128.021 Y80.638 E.07303
G1 X129.956 Y81.122 E.05316
G1 X132.507 Y82.12 E.073
G1 X134.748 Y83.389 E.06864
G1 X136.915 Y85.065 E.07301
G1 X138.325 Y86.475 E.05314
G1 X140.001 Y88.642 E.07301
G1 X141.271 Y90.884 E.06867
G1 X142.034 Y92.725 E.05311
G1 X142.753 Y95.369 E.07302
G1 X143.068 Y97.925 E.06864
G1 X143.013 Y100.665 E.07304
G1 X142.557 Y103.366 E.073
G1 X141.978 Y105.274 E.05314
G1 X140.856 Y107.775 E.07305
G1 X139.479 Y109.95 E.06861
G1 X137.698 Y112.034 E.07306
G1 X135.63 Y113.833 E.07305
G1 X106.669 Y136.008 E.97212
G1 X105.178 Y137.011 E.04789
G1 X103.569 Y137.88 E.04874
G1 X101.018 Y138.878 E.073
G1 X99.083 Y139.362 E.05316
G1 X96.363 Y139.685 E.073
G1 X93.788 Y139.622 E.06865
G1 X91.086 Y139.166 E.07303
G1 X89.178 Y138.587 E.05314
G1 X86.678 Y137.465 E.07303
G1 X84.503 Y136.088 E.06861
G1 X83.084 Y134.934 E.04875
G1 X81.786 Y133.647 E.04872
G1 X80.044 Y131.404 E.07569
G1 X79.598 Y130.725 E.02165
G1 X78.729 Y129.117 E.04871
G1 X78.023 Y127.432 E.04869
G1 X77.484 Y125.685 E.04873
G1 X77.119 Y123.893 E.04874
G1 X76.932 Y122.075 E.04871
G1 X76.924 Y120.247 E.04872
G1 X77.095 Y118.427 E.04872
G1 X77.444 Y116.633 E.04871
G1 X77.966 Y114.881 E.04872
G1 X78.658 Y113.19 E.04869
G1 X79.513 Y111.574 E.04872
G1 X80.522 Y110.049 E.04873
G1 X81.786 Y108.508 E.05312
G1 X83.736 Y106.669 E.07144
; printing object S-IVB-lox-tank-3.0.stl id:0 copy 0
;WIPE_START
G1 F7200
G1 X86.412 Y104.623 E-.8
;WIPE_END
G1 X99.426 Y128.338 F9000
G1 E.8 F1800
;TYPE:Perimeter
G1 F1200
G1 X99.248 Y127.442 E.02435
G1 X99.449 Y126.429 E.02752
G1 X100.023 Y125.57 E.02753
G1 X100.882 Y124.996 E.02753
G1 X101.895 Y124.795 E.02752
G1 X102.908 Y124.996 E.02752
G1 X103.767 Y125.57 E.02753
G1 X104.341 Y126.429 E.02753
G1 X104.543 Y127.442 E.02753
G1 X104.341 Y128.455 E.02753
G1 X103.767 Y129.314 E.02753
G1 X102.908 Y129.888 E.02753
G1 X101.895 Y130.09 E.02753
G1 X100.882 Y129.888 E.02753
G1 X100.023 Y129.314 E.02753
G1 X99.449 Y128.455 E.02753
G1 X99.438 Y128.397 E.00157
G1 X99.792 Y128.244 F9000
G1 F1200
G1 X99.632 Y127.442 E.0218
G1 X99.804 Y126.576 E.02353
G1 X100.295 Y125.842 E.02354
G1 X101.029 Y125.351 E.02354
G1 X101.895 Y125.179 E.02353
G1 X102.761 Y125.351 E.02353
G1 X103.495 Y125.842 E.02354
G1 X103.986 Y126.576 E.02354
G1 X104.158 Y127.442 E.02353
G1 X103.986 Y128.308 E.02353
G1 X103.495 Y129.042 E.02354
G1 X102.761 Y129.533 E.02354
G1 X101.895 Y129.705 E.02353
G1 X101.029 Y129.533 E.02353
G1 X100.295 Y129.042 E.02354
G1 X99.803 Y128.303 E.02366
G1 X100.16 Y128.161 F9000
;TYPE:External perimeter
G1 F1200
G1 X100.017 Y127.442 E.01954
G1 X100.16 Y126.723 E.01954
G1 X100.567 Y126.114 E.01952
G1 X101.176 Y125.707 E.01952
G1 X101.895 Y125.564 E.01954
G1 X102.614 Y125.707 E.01954
G1 X103.224 Y126.114 E.01954
G1 X103.631 Y126.723 E.01952
G1 X103.774 Y127.442 E.01954
G1 X103.631 Y128.161 E.01954
G1 X103.224 Y128.77 E.01952
G1 X102.614 Y129.178 E.01956
G1 X101.895 Y129.321 E.01954
G1 X101.176 Y129.178 E.01954
G1 X100.567 Y128.77 E.01954
G1 X100.193 Y128.211 E.01792
G1 X99.763 Y128.109 F9000
;WIPE_START
G1 F7200
G1 X100.017 Y127.442 E-.18736
G1 X100.16 Y126.723 E-.17411
G1 X100.567 Y126.114 E-.17396
G1 X101.176 Y125.707 E-.17396
G1 X101.55 Y125.633 E-.09061
;WIPE_END
G1 X107.001 Y120.182 F9000
G1 E.8 F1800
;TYPE:Perimeter
G1 F1200
G1 X107.179 Y121.078 E.02435
G1 X106.977 Y122.091 E.02753
G1 X106.403 Y122.95 E.02753
G1 X105.544 Y123.524 E.02753
G1 X104.531 Y123.726 E.02753
G1 X103.518 Y123.524 E.02753
G1 X102.659 Y122.95 E.02753
G1 X102.085 Y122.091 E.02753
G1 X101.884 Y121.078 E.02752
G1 X102.085 Y120.065 E.02752
G1 X102.659 Y119.206 E.02753
G1 X103.518 Y118.632 E.02753
G1 X104.531 Y118.431 E.02752
G1 X105.544 Y118.632 E.02752
G1 X106.403 Y119.206 E.02753
G1 X106.977 Y120.065 E.02753
G1 X106.989 Y120.123 E.00158
G1 X106.635 Y120.276 F9000
G1 F1200
G1 X106.794 Y121.078 E.02179
G1 X106.622 Y121.944 E.02353
G1 X106.131 Y122.678 E.02354
G1 X105.397 Y123.169 E.02354
G1 X104.531 Y123.341 E.02353
G1 X103.665 Y123.169 E.02353
G1 X102.931 Y122.678 E.02354
G1 X102.441 Y121.944 E.02352
G1 X102.268 Y121.078 E.02354
G1 X102.441 Y120.212 E.02354
G1 X102.931 Y119.478 E.02352
G1 X103.665 Y118.987 E.02354
G1 X104.531 Y118.815 E.02353
G1 X105.397 Y118.987 E.02353
G1 X106.131 Y119.478 E.02354
G1 X106.623 Y120.217 E.02366
G1 X106.267 Y120.359 F9000
;TYPE:External perimeter
G1 F1200
G1 X106.41 Y121.078 E.01954
G1 X106.267 Y121.797 E.01954
G1 X105.86 Y122.407 E.01954
G1 X105.25 Y122.814 E.01954
G1 X104.531 Y122.957 E.01954
G1 X103.812 Y122.814 E.01954
G1 X103.203 Y122.407 E.01952
G1 X102.796 Y121.797 E.01954
G1 X102.653 Y121.078 E.01954
G1 X102.796 Y120.359 E.01954
G1 X103.203 Y119.75 E.01952
G1 X103.812 Y119.343 E.01952
G1 X104.531 Y119.2 E.01954
G1 X105.25 Y119.343 E.01954
G1 X105.86 Y119.75 E.01954
G1 X106.234 Y120.309 E.01792
G1 X106.663 Y120.411 F9000
;WIPE_START
G1 F7200
G1 X106.41 Y121.078 E-.18736
G1 X106.267 Y121.797 E-.17411
G1 X105.86 Y122.407 E-.17416
G1 X105.25 Y122.814 E-.17416
G1 X104.877 Y122.888 E-.09021
;WIPE_END
G1 X84.062 Y121.974 F9000
G1 E.8 F1800
;TYPE:Perimeter
G1 F1200
G1 X83.884 Y121.078 E.02435
G1 X84.085 Y120.065 E.02752
G1 X84.659 Y119.206 E.02753
G1 X85.518 Y118.632 E.02753
G1 X86.531 Y118.431 E.02752
G1 X87.544 Y118.632 E.02752
G1 X88.403 Y119.206 E.02753
G1 X88.977 Y120.065 E.02753
G1 X89.179 Y121.078 E.02753
G1 X88.977 Y122.091 E.02753
G1 X88.403 Y122.95 E.02753
G1 X87.544 Y123.524 E.02753
G1 X86.531 Y123.726 E.02753
G1 X85.518 Y123.524 E.02753
G1 X84.659 Y122.95 E.02753
G1 X84.085 Y122.091 E.02753
G1 X84.074 Y122.033 E.00157
G1 X84.428 Y121.88 F9000
G1 F1200
G1 X84.268 Y121.078 E.0218
G1 X84.441 Y120.212 E.02354
G1 X84.931 Y119.478 E.02352
G1 X85.665 Y118.987 E.02354
G1 X86.531 Y118.815 E.02353
G1 X87.397 Y118.987 E.02353
G1 X88.132 Y119.478 E.02356
G1 X88.622 Y120.212 E.02352
G1 X88.794 Y121.078 E.02353
G1 X88.622 Y121.944 E.02353
G1 X88.132 Y122.678 E.02352
G1 X87.397 Y123.169 E.02356
G1 X86.531 Y123.341 E.02353
G1 X85.665 Y123.169 E.02353
G1 X84.931 Y122.678 E.02354
G1 X84.439 Y121.939 E.02366
G1 X84.796 Y121.797 F9000
;TYPE:External perimeter
G1 F1200
G1 X84.653 Y121.078 E.01954
G1 X84.796 Y120.359 E.01954
G1 X85.203 Y119.75 E.01952
G1 X85.812 Y119.343 E.01952
G1 X86.531 Y119.2 E.01954
G1 X87.25 Y119.343 E.01954
G1 X87.86 Y119.75 E.01954
G1 X88.267 Y120.359 E.01952
G1 X88.41 Y121.078 E.01954
G1 X88.267 Y121.797 E.01954
G1 X87.86 Y122.407 E.01954
G1 X87.25 Y122.814 E.01954
G1 X86.531 Y122.957 E.01954
G1 X85.812 Y122.814 E.01954
G1 X85.203 Y122.407 E.01952
G1 X84.829 Y121.847 E.01795
G1 X84.399 Y121.745 F9000
;WIPE_START
G1 F7200
G1 X84.653 Y121.078 E-.18736
G1 X84.796 Y120.359 E-.17411
G1 X85.203 Y119.75 E-.17396
G1 X85.812 Y119.343 E-.17396
G1 X86.186 Y119.269 E-.09061
;WIPE_END
G1 X107.734 Y113.849 F9000
G1 E.8 F1800
;TYPE:Perimeter
G1 F1200
G1 X108.041 Y114.391 E.0166
G1 X108.355 Y115.013 E.01857
G1 X108.637 Y115.65 E.01857
G1 X108.887 Y116.299 E.01854
G1 X109.105 Y116.961 E.01858
G1 X109.291 Y117.632 E.01856
G1 X109.444 Y118.311 E.01855
G1 X109.563 Y118.997 E.01856
G1 X109.648 Y119.688 E.01855
G1 X109.699 Y120.382 E.01855
G1 X109.716 Y121.078 E.01855
G1 X109.699 Y121.774 E.01855
G1 X109.648 Y122.469 E.01857
G1 X109.563 Y123.159 E.01853
G1 X109.444 Y123.845 E.01856
G1 X109.291 Y124.525 E.01858
G1 X109.105 Y125.196 E.01856
G1 X108.887 Y125.857 E.01855
G1 X108.637 Y126.506 E.01854
G1 X108.354 Y127.143 E.01858
G1 X108.041 Y127.765 E.01856
G1 X107.698 Y128.37 E.01853
G1 X107.326 Y128.959 E.01857
G1 X106.925 Y129.528 E.01855
G1 X106.496 Y130.077 E.01857
G1 X106.042 Y130.604 E.01854
G1 X105.562 Y131.108 E.01855
G1 X105.057 Y131.588 E.01857
G1 X104.53 Y132.044 E.01857
G1 X103.981 Y132.472 E.01855
G1 X103.412 Y132.873 E.01855
G1 X102.824 Y133.245 E.01854
G1 X102.218 Y133.588 E.01856
G1 X101.596 Y133.901 E.01856
G1 X100.96 Y134.184 E.01855
G1 X100.31 Y134.434 E.01856
G1 X99.649 Y134.653 E.01856
G1 X98.978 Y134.838 E.01855
G1 X98.299 Y134.991 E.01855
G1 X97.613 Y135.11 E.01856
G1 X96.922 Y135.195 E.01855
G1 X96.227 Y135.246 E.01857
G1 X95.531 Y135.263 E.01855
G1 X94.835 Y135.246 E.01855
G1 X94.141 Y135.195 E.01855
G1 X93.45 Y135.11 E.01855
G1 X92.764 Y134.991 E.01856
G1 X92.085 Y134.838 E.01855
G1 X91.414 Y134.652 E.01856
G1 X90.752 Y134.434 E.01858
G1 X90.103 Y134.184 E.01854
G1 X89.466 Y133.901 E.01858
G1 X88.844 Y133.588 E.01856
G1 X88.239 Y133.245 E.01853
G1 X87.65 Y132.873 E.01857
G1 X87.081 Y132.472 E.01855
G1 X86.533 Y132.044 E.01853
G1 X86.005 Y131.589 E.01858
G1 X85.39 Y130.992 E.02284
G1 X85.335 Y130.149 E.02251
G1 X84.888 Y129.245 E.02688
G1 X84.13 Y128.58 E.02687
G1 X83.329 Y128.308 E.02254
G1 X83.021 Y127.765 E.01664
G1 X82.708 Y127.143 E.01856
G1 X82.426 Y126.507 E.01854
G1 X82.175 Y125.857 E.01857
G1 X81.957 Y125.196 E.01855
G1 X81.771 Y124.525 E.01856
G1 X81.619 Y123.846 E.01854
G1 X81.5 Y123.159 E.01858
G1 X81.414 Y122.469 E.01853
G1 X81.363 Y121.774 E.01857
G1 X81.346 Y121.078 E.01855
G1 X81.363 Y120.382 E.01855
G1 X81.414 Y119.688 E.01855
G1 X81.5 Y118.997 E.01856
G1 X81.619 Y118.311 E.01856
G1 X81.771 Y117.631 E.01857
G1 X81.957 Y116.96 E.01856
G1 X82.175 Y116.299 E.01855
G1 X82.426 Y115.65 E.01855
G1 X82.708 Y115.013 E.01857
G1 X83.021 Y114.391 E.01856
G1 X83.364 Y113.786 E.01853
G1 X83.737 Y113.197 E.01858
G1 X84.138 Y112.628 E.01855
G1 X84.566 Y112.079 E.01855
G1 X85.021 Y111.552 E.01856
G1 X85.501 Y111.048 E.01855
G1 X86.005 Y110.568 E.01855
G1 X86.532 Y110.113 E.01856
G1 X87.081 Y109.685 E.01855
G1 X87.65 Y109.284 E.01855
G1 X88.239 Y108.911 E.01858
G1 X88.844 Y108.568 E.01853
G1 X89.466 Y108.255 E.01856
G1 X90.103 Y107.973 E.01857
G1 X90.752 Y107.722 E.01855
G1 X91.414 Y107.504 E.01858
G1 X92.085 Y107.318 E.01856
G1 X92.764 Y107.166 E.01854
G1 X93.45 Y107.047 E.01856
G1 X94.141 Y106.961 E.01856
G1 X94.833 Y106.91 E.01849
G1 X95.593 Y106.895 E.02026
G1 X96.227 Y106.91 E.0169
G1 X96.922 Y106.962 E.01857
G1 X97.613 Y107.047 E.01855
G1 X98.299 Y107.166 E.01856
G1 X98.978 Y107.318 E.01854
G1 X99.649 Y107.504 E.01856
G1 X100.31 Y107.722 E.01855
G1 X100.96 Y107.973 E.01857
G1 X101.596 Y108.255 E.01854
G1 X102.218 Y108.568 E.01856
G1 X102.824 Y108.911 E.01856
G1 X103.412 Y109.284 E.01856
G1 X103.981 Y109.685 E.01855
G1 X104.53 Y110.113 E.01855
G1 X105.057 Y110.568 E.01856
G1 X105.673 Y111.165 E.02286
G1 X105.728 Y112.007 E.02249
G1 X106.174 Y112.912 E.02689
G1 X106.932 Y113.577 E.02687
G1 X107.677 Y113.83 E.02097
G1 X107.975 Y113.517 F9000
G1 F1200
G1 X108.374 Y114.214 E.0214
G1 X108.695 Y114.852 E.01903
G1 X108.985 Y115.505 E.01904
G1 X109.242 Y116.172 E.01905
G1 X109.466 Y116.851 E.01906
G1 X109.657 Y117.54 E.01906
G1 X109.814 Y118.237 E.01904
G1 X109.936 Y118.941 E.01904
G1 X110.023 Y119.651 E.01906
G1 X110.076 Y120.364 E.01905
G1 X110.094 Y121.078 E.01903
G1 X110.076 Y121.793 E.01906
G1 X110.023 Y122.506 E.01905
G1 X109.936 Y123.215 E.01904
G1 X109.814 Y123.919 E.01904
G1 X109.657 Y124.616 E.01904
G1 X109.466 Y125.305 E.01906
G1 X109.242 Y125.984 E.01906
G1 X108.985 Y126.651 E.01905
G1 X108.695 Y127.304 E.01904
G1 X108.374 Y127.943 E.01906
G1 X108.022 Y128.564 E.01902
G1 X107.639 Y129.168 E.01906
G1 X107.228 Y129.753 E.01905
G1 X106.788 Y130.317 E.01906
G1 X106.321 Y130.858 E.01905
G1 X105.829 Y131.375 E.01902
G1 X105.311 Y131.868 E.01906
G1 X104.769 Y132.335 E.01907
G1 X104.206 Y132.775 E.01904
G1 X103.622 Y133.186 E.01903
G1 X103.018 Y133.569 E.01906
G1 X102.396 Y133.921 E.01905
G1 X101.757 Y134.242 E.01906
G1 X101.104 Y134.532 E.01904
G1 X100.437 Y134.789 E.01905
G1 X99.758 Y135.014 E.01906
G1 X99.07 Y135.204 E.01902
G1 X98.372 Y135.361 E.01907
G1 X97.668 Y135.483 E.01904
G1 X96.959 Y135.57 E.01904
G1 X96.246 Y135.623 E.01905
G1 X95.531 Y135.64 E.01906
G1 X94.817 Y135.623 E.01903
G1 X94.104 Y135.57 E.01905
G1 X93.395 Y135.483 E.01904
G1 X92.69 Y135.361 E.01907
G1 X91.993 Y135.204 E.01904
G1 X91.304 Y135.013 E.01906
G1 X90.625 Y134.789 E.01906
G1 X89.959 Y134.532 E.01903
G1 X89.305 Y134.242 E.01907
G1 X88.667 Y133.921 E.01903
G1 X88.045 Y133.569 E.01905
G1 X87.441 Y133.186 E.01906
G1 X86.857 Y132.775 E.01903
G1 X86.293 Y132.335 E.01906
G1 X85.752 Y131.868 E.01905
G1 X85.008 Y131.138 E.02778
G1 X85.019 Y131.106 E.0009
G1 X84.963 Y130.249 E.02289
G1 X84.583 Y129.479 E.02288
G1 X83.938 Y128.913 E.02287
G1 X83.125 Y128.637 E.02288
G1 X83.088 Y128.639 E.00099
G1 X83.041 Y128.564 E.00236
G1 X82.688 Y127.943 E.01904
G1 X82.367 Y127.305 E.01903
G1 X82.078 Y126.651 E.01906
G1 X81.82 Y125.984 E.01906
G1 X81.596 Y125.305 E.01906
G1 X81.405 Y124.616 E.01906
G1 X81.249 Y123.919 E.01904
G1 X81.127 Y123.215 E.01904
G1 X81.039 Y122.506 E.01904
G1 X80.986 Y121.793 E.01905
G1 X80.969 Y121.078 E.01906
G1 X80.986 Y120.364 E.01903
G1 X81.039 Y119.651 E.01905
G1 X81.127 Y118.941 E.01907
G1 X81.249 Y118.237 E.01904
G1 X81.405 Y117.54 E.01904
G1 X81.596 Y116.851 E.01906
G1 X81.82 Y116.172 E.01906
G1 X82.077 Y115.505 E.01905
G1 X82.367 Y114.852 E.01904
G1 X82.688 Y114.214 E.01903
G1 X83.041 Y113.592 E.01906
G1 X83.423 Y112.988 E.01905
G1 X83.835 Y112.403 E.01907
G1 X84.274 Y111.84 E.01903
G1 X84.741 Y111.299 E.01905
G1 X85.234 Y110.781 E.01906
G1 X85.752 Y110.288 E.01906
G1 X86.293 Y109.821 E.01905
G1 X86.856 Y109.382 E.01903
G1 X87.441 Y108.97 E.01907
G1 X88.045 Y108.588 E.01905
G1 X88.667 Y108.235 E.01906
G1 X89.305 Y107.914 E.01903
G1 X89.959 Y107.624 E.01907
G1 X90.625 Y107.367 E.01903
G1 X91.304 Y107.143 E.01906
G1 X91.993 Y106.952 E.01906
G1 X92.69 Y106.796 E.01904
G1 X93.395 Y106.673 E.01907
G1 X94.104 Y106.586 E.01904
G1 X94.816 Y106.533 E.01903
G1 X95.593 Y106.517 E.02071
G1 X96.246 Y106.533 E.01741
G1 X96.959 Y106.586 E.01905
G1 X97.668 Y106.673 E.01904
G1 X98.372 Y106.796 E.01905
G1 X99.07 Y106.952 E.01906
G1 X99.759 Y107.143 E.01906
G1 X100.437 Y107.367 E.01903
G1 X101.104 Y107.624 E.01905
G1 X101.757 Y107.914 E.01904
G1 X102.396 Y108.235 E.01906
G1 X103.018 Y108.588 E.01906
G1 X103.622 Y108.97 E.01905
G1 X104.206 Y109.382 E.01905
G1 X104.77 Y109.821 E.01905
G1 X105.311 Y110.288 E.01905
G1 X106.054 Y111.018 E.02776
G1 X106.043 Y111.051 E.00093
G1 X106.099 Y111.908 E.02289
G1 X106.479 Y112.678 E.02288
