; generated by PrusaSlicer 2.6.1+win64 on 2024-01-27 at 16:59:38 UTC

; 

; external perimeters extrusion width = 0.42mm
; perimeters extrusion width = 0.44mm
; infill extrusion width = 0.44mm
; solid infill extrusion width = 0.44mm
; top infill extrusion width = 0.40mm
; support material extrusion width = 0.36mm
; first layer extrusion width = 0.42mm

M201 X500 Y500 Z100 E5000 ; sets maximum accelerations, mm/sec^2
M203 X500 Y500 Z10 E60 ; sets maximum feedrates, mm / sec
M204 S500 T1000 ; sets acceleration (S) and retract acceleration (R), mm/sec^2
M205 X8.00 Y8.00 Z0.40 E5.00 ; sets the jerk limits, mm/sec
M205 S0 T0 ; sets the minimum extruding and travel feed rate, mm/sec
;TYPE:Custom
G90 ; use absolute coordinates
M83 ; extruder relative mode
M104 S150 ; set temporary nozzle temp to prevent oozing during homing
M140 S60 ; set final bed temp
G4 S30 ; allow partial nozzle warmup
G28 ; home all axis and restore leveling
G1 Z50 F240
G1 X2.0 Y10 F3000
M104 S215 ; set final nozzle temp
M190 S60 ; wait for bed temp to stabilize
M109 S215 ; wait for nozzle temp to stabilize
G1 Z0.28 F240
G92 E0
G1 X2.0 Y140 E10 F1500 ; prime the nozzle
G1 X2.3 Y140 F5000
G92 E0
G1 X2.3 Y10 E10 F1200 ; prime the nozzle
G92 E0
G21 ; set units to millimeters
G90 ; use absolute coordinates
M83 ; use relative distances for extrusion
; Filament gcode
M107
;LAYER_CHANGE
;Z:0.2
;HEIGHT:0.2
;BEFORE_LAYER_CHANGE
G92 E0
;0.2


G1 E-.8 F1800
G1 Z.2 F9000
;AFTER_LAYER_CHANGE
;0.2
G1 X88.672 Y94.105
G1 E.8 F1800
M204 S500
;TYPE:Skirt/Brim
;WIDTH:0.42
G1 F1200
G1 X89.604 Y93.324 E.03241
G1 X90.785 Y92.587 E.0371
G1 X104.009 Y85.704 E.39732
G1 X105.35 Y85.136 E.03881
G1 X106.364 Y84.876 E.0279
G1 X107.799 Y84.731 E.03844
G1 X112.057 Y84.693 E.11349
G1 X113.53 Y84.958 E.03989
G1 X114.427 Y85.272 E.02533
G1 X115.442 Y85.781 E.03026
G1 X116.321 Y86.392 E.02853
G1 X117.184 Y87.196 E.03143
G1 X126.293 Y98.263 E.38201
G1 X133.063 Y107.71 E.30975
G1 X133.953 Y109.053 E.04294
G1 X134.486 Y110.311 E.03641
G1 X135.414 Y114.515 E.11474
G1 X135.628 Y115.969 E.03917
G1 X135.631 Y116.976 E.02684
G1 X135.477 Y118.14 E.03129
G1 X135.222 Y119.09 E.02621
G1 X134.718 Y120.271 E.03422
G1 X134.224 Y121.093 E.02556
G1 X133.499 Y122.007 E.03109
G1 X132.771 Y122.707 E.02692
G1 X131.84 Y123.387 E.03073
G1 X131.034 Y123.836 E.02459
G1 X116.91 Y129.331 E.40391
G1 X115.791 Y129.7 E.0314
G1 X113.861 Y130.174 E.05297
G1 X111.893 Y130.457 E.05299
G1 X110.092 Y130.546 E.04806
G1 X108.107 Y130.457 E.05296
G1 X106.192 Y130.184 E.05155
G1 X104.99 Y129.916 E.03282
G1 X103.09 Y129.331 E.05298
G1 X101.258 Y128.562 E.05295
G1 X99.509 Y127.617 E.05298
G1 X97.861 Y126.505 E.05298
G1 X96.331 Y125.237 E.05296
G1 X94.932 Y123.825 E.05297
G1 X86.502 Y113.349 E.35837
G1 X85.935 Y112.364 E.03029
G1 X85.253 Y110.485 E.05327
G1 X84.345 Y106.29 E.11439
G1 X84.186 Y104.839 E.0389
G1 X84.202 Y104.015 E.02196
G1 X84.522 Y102.293 E.04668
G1 X84.982 Y101.064 E.03497
G1 X86.866 Y96.715 E.12631
G1 X87.39 Y95.703 E.03037
G1 X87.944 Y94.907 E.02585
G1 X88.632 Y94.149 E.02728
G1 X88.911 Y94.403 F9000
G1 F1200
G1 X89.829 Y93.626 E.03205
G1 X90.959 Y92.921 E.0355
G1 X104.184 Y86.038 E.39734
G1 X105.493 Y85.485 E.03787
G1 X106.405 Y85.251 E.02509
G1 X107.807 Y85.108 E.03756
G1 X112.002 Y85.066 E.11181
G1 X113.451 Y85.326 E.03923
G1 X114.258 Y85.61 E.0228
G1 X115.273 Y86.118 E.03025
G1 X116.064 Y86.668 E.02568
G1 X116.926 Y87.472 E.03142
G1 X125.998 Y98.497 E.38052
G1 X132.757 Y107.93 E.30927
G1 X133.638 Y109.26 E.04252
G1 X134.117 Y110.393 E.03278
G1 X135.046 Y114.596 E.11472
G1 X135.254 Y116.021 E.03838
G1 X135.257 Y116.927 E.02415
G1 X135.103 Y118.09 E.03127
G1 X134.873 Y118.945 E.0236
G1 X134.373 Y120.119 E.03401
G1 X133.928 Y120.859 E.02301
G1 X133.204 Y121.773 E.03108
G1 X132.549 Y122.403 E.02422
G1 X131.617 Y123.083 E.03075
G1 X130.892 Y123.486 E.02211
G1 X116.774 Y128.979 E.40374
G1 X115.69 Y129.337 E.03042
G1 X113.959 Y129.771 E.04756
G1 X112.031 Y130.065 E.05198
G1 X110.083 Y130.169 E.05199
G1 X108.134 Y130.081 E.052
G1 X106.257 Y129.812 E.05054
G1 X105.09 Y129.553 E.03186
G1 X103.226 Y128.979 E.05198
G1 X101.427 Y128.225 E.05199
G1 X99.711 Y127.298 E.05198
G1 X98.093 Y126.208 E.05199
G1 X96.591 Y124.964 E.05198
G1 X95.217 Y123.579 E.05199
G1 X86.797 Y113.113 E.35799
G1 X86.286 Y112.228 E.02724
G1 X85.622 Y110.405 E.05171
G1 X84.714 Y106.21 E.11439
G1 X84.561 Y104.805 E.03767
G1 X84.576 Y104.063 E.01978
G1 X84.875 Y102.424 E.0444
G1 X85.329 Y101.213 E.03447
G1 X87.2 Y96.888 E.12559
G1 X87.725 Y95.877 E.03036
G1 X88.223 Y95.16 E.02327
G1 X88.871 Y94.447 E.02568
; printing object S-IVB-instrument-unit-3.0.stl id:0 copy 0
;WIPE_START
G1 F7200
G1 X89.829 Y93.626 E-.29965
G1 X90.959 Y92.921 E-.31632
G1 X91.646 Y92.563 E-.18403
;WIPE_END
G1 X95.253 Y95.575 F9000
G1 E.8 F1800
;TYPE:Support material
G1 F1200
G1 X95.909 Y95.712 E.01786
G1 X96.932 Y96.197 E.03017
G1 X97.819 Y96.94 E.03084
G1 X98.472 Y97.855 E.02996
G1 X98.002 Y98.303 E.0173
G1 X97.436 Y98.898 E.02189
G1 X96.892 Y99.528 E.02218
G1 X96.38 Y100.184 E.02218
G1 X95.894 Y100.874 E.02249
G1 X95.448 Y101.578 E.02221
G1 X95.038 Y102.302 E.02217
G1 X94.669 Y103.036 E.02189
G1 X94.332 Y103.797 E.02218
G1 X94.031 Y104.574 E.02221
G1 X93.77 Y105.364 E.02217
G1 X93.545 Y106.177 E.02248
G1 X93.359 Y107.013 E.02283
G1 X93.221 Y107.81 E.02156
G1 X93.12 Y108.625 E.02189
G1 X93.059 Y109.455 E.02218
G1 X93.038 Y110.298 E.02247
G1 X93.059 Y111.131 E.02221
G1 X93.119 Y111.95 E.02189
G1 X93.194 Y112.557 E.0163
G1 X92.86 Y112.65 E.00924
G1 X91.56 Y112.537 E.03478
G1 X90.381 Y111.978 E.03477
G1 X89.433 Y111.003 E.03624
G1 X88.922 Y109.691 E.03752
G1 X88.935 Y108.35 E.03574
G1 X89.166 Y107.719 E.01791
G1 X88.466 Y106.741 E.03205
G1 X88.177 Y106.056 E.01981
G1 X88.015 Y105.496 E.01554
G1 X87.924 Y104.5 E.02666
G1 X88.042 Y103.598 E.02424
G1 X88.431 Y102.549 E.02982
G1 X89.069 Y101.661 E.02914
G1 X89.489 Y101.279 E.01513
G1 X90.007 Y100.886 E.01733
G1 X89.934 Y100.388 E.01341
G1 X89.958 Y99.394 E.0265
G1 X90.199 Y98.442 E.02617
G1 X90.723 Y97.431 E.03035
G1 X91.451 Y96.629 E.02887
G1 X91.847 Y96.334 E.01316
G1 X92.518 Y95.917 E.02105
G1 X93.595 Y95.56 E.03024
G1 X94.712 Y95.487 E.02983
G1 X95.197 Y95.566 E.0131
G1 X92.627 Y112.459 F9000
G1 F1200
G1 X92.808 Y112.2 E.00842
G1 X92.716 Y111.017 E.03162
G1 X91.871 Y112.223 E.03925
G1 X91.65 Y112.204 E.00591
G1 X91.135 Y111.96 E.01519
G1 X92.713 Y109.707 E.07331
G1 X92.781 Y108.607 E.02937
G1 X92.827 Y108.228 E.01017
G1 X90.475 Y111.588 E.10931
G1 X89.94 Y111.037 E.02047
G1 X93.129 Y106.483 E.14817
G1 X93.22 Y106.079 E.01104
G1 X93.441 Y105.28 E.02209
G1 X93.818 Y104.184 E.03089
G1 X89.528 Y110.311 E.19934
G1 X89.262 Y109.629 E.01951
G1 X89.265 Y109.372 E.00685
G1 X97.689 Y97.341 E.39143
G1 X97.568 Y97.172 E.00554
G1 X97.138 Y96.812 E.01495
G1 X89.542 Y107.661 E.35296
G1 X89.077 Y107.011 E.0213
G1 X96.522 Y96.378 E.34594
G1 X95.83 Y96.05 E.02041
G1 X88.65 Y106.305 E.33364
G1 X88.498 Y105.942 E.01049
G1 X88.349 Y105.421 E.01444
G1 X95.028 Y95.882 E.31035
G1 X94.695 Y95.828 E.00899
G1 X94.118 Y95.866 E.01541
G1 X88.311 Y104.16 E.26984
G1 X88.374 Y103.68 E.0129
G1 X88.733 Y102.71 E.02757
G1 X89.323 Y101.888 E.02697
G1 X89.706 Y101.54 E.01379
G1 X90.372 Y101.035 E.02228
G1 X90.274 Y100.367 E.01799
G1 X90.282 Y100.03 E.00898
G1 X93.031 Y96.105 E.12771
G1 X92.663 Y96.226 E.01032
G1 X92.038 Y96.615 E.01962
G1 X91.68 Y96.881 E.01189
G1 X91.181 Y97.431 E.01979
G1 X90.317 Y98.665 E.04015
;WIPE_START
G1 F7200
G1 X91.181 Y97.431 E-.35777
G1 X91.68 Y96.881 E-.17637
G1 X92.038 Y96.615 E-.10593
G1 X92.61 Y96.259 E-.15993
;WIPE_END
G1 X110.681 Y95.272 F9000
G1 E.8 F1800
G1 F1200
G1 X111.474 Y95.328 E.02119
G1 X112.206 Y95.418 E.01966
G1 X112.934 Y95.544 E.01969
G1 X113.653 Y95.706 E.01964
G1 X114.365 Y95.903 E.01969
G1 X115.066 Y96.134 E.01967
G1 X115.755 Y96.4 E.01968
G1 X116.429 Y96.699 E.01965
G1 X117.089 Y97.031 E.01969
G1 X117.731 Y97.395 E.01967
G1 X118.354 Y97.79 E.01966
G1 X118.958 Y98.215 E.01968
G1 X119.54 Y98.669 E.01967
G1 X120.098 Y99.151 E.01965
G1 X120.633 Y99.66 E.01968
G1 X121.142 Y100.194 E.01966
G1 X121.624 Y100.753 E.01967
G1 X122.078 Y101.335 E.01967
G1 X122.503 Y101.938 E.01966
G1 X122.898 Y102.562 E.01968
G1 X123.262 Y103.204 E.01967
G1 X123.594 Y103.864 E.01969
G1 X123.893 Y104.538 E.01965
G1 X124.158 Y105.227 E.01967
G1 X124.39 Y105.928 E.01968
G1 X124.587 Y106.639 E.01966
G1 X124.748 Y107.359 E.01966
G1 X124.875 Y108.086 E.01967
G1 X124.965 Y108.819 E.01968
G1 X125.019 Y109.555 E.01967
G1 X125.037 Y110.293 E.01967
G1 X125.019 Y111.031 E.01967
G1 X124.965 Y111.767 E.01967
G1 X124.875 Y112.499 E.01966
G1 X124.748 Y113.226 E.01967
G1 X124.587 Y113.947 E.01969
G1 X124.39 Y114.658 E.01966
G1 X124.158 Y115.359 E.01968
G1 X123.893 Y116.047 E.01965
G1 X123.594 Y116.722 E.01968
G1 X123.262 Y117.381 E.01967
G1 X122.898 Y118.024 E.01969
G1 X122.503 Y118.647 E.01966
G1 X122.078 Y119.251 E.01968
G1 X121.624 Y119.832 E.01965
G1 X121.142 Y120.391 E.01967
G1 X120.633 Y120.926 E.01968
G1 X120.098 Y121.435 E.01968
G1 X119.54 Y121.917 E.01965
G1 X118.958 Y122.371 E.01967
G1 X118.354 Y122.796 E.01968
G1 X117.731 Y123.191 E.01966
G1 X117.089 Y123.555 E.01967
G1 X116.429 Y123.886 E.01968
G1 X115.755 Y124.186 E.01966
G1 X115.066 Y124.451 E.01967
G1 X114.365 Y124.683 E.01968
G1 X113.654 Y124.879 E.01966
G1 X112.934 Y125.041 E.01967
G1 X112.206 Y125.167 E.01969
G1 X111.474 Y125.258 E.01966
G1 X110.738 Y125.312 E.01967
G1 X110 Y125.33 E.01967
G1 X109.262 Y125.312 E.01967
G1 X108.526 Y125.258 E.01967
G1 X107.794 Y125.167 E.01966
G1 X107.066 Y125.041 E.01969
G1 X106.346 Y124.879 E.01967
G1 X105.635 Y124.683 E.01966
G1 X104.934 Y124.451 E.01968
G1 X104.245 Y124.185 E.01968
G1 X103.571 Y123.886 E.01965
G1 X102.911 Y123.555 E.01968
G1 X102.269 Y123.191 E.01967
G1 X101.646 Y122.796 E.01966
G1 X101.042 Y122.371 E.01968
G1 X100.46 Y121.917 E.01967
G1 X99.902 Y121.435 E.01965
G1 X99.367 Y120.926 E.01968
G1 X98.858 Y120.391 E.01968
G1 X98.376 Y119.832 E.01967
G1 X97.922 Y119.251 E.01965
G1 X97.497 Y118.647 E.01968
G1 X97.102 Y118.024 E.01966
G1 X96.738 Y117.381 E.01969
G1 X96.406 Y116.722 E.01967
G1 X96.107 Y116.047 E.01968
G1 X95.842 Y115.359 E.01965
G1 X95.61 Y114.658 E.01968
G1 X95.413 Y113.947 E.01966
G1 X95.252 Y113.226 E.01969
G1 X95.125 Y112.499 E.01967
G1 X95.035 Y111.767 E.01966
G1 X94.981 Y111.031 E.01967
G1 X94.963 Y110.293 E.01967
G1 X94.981 Y109.555 E.01967
G1 X95.035 Y108.819 E.01967
G1 X95.125 Y108.086 E.01968
G1 X95.252 Y107.359 E.01967
G1 X95.413 Y106.639 E.01966
G1 X95.61 Y105.927 E.01969
G1 X95.842 Y105.227 E.01965
G1 X96.107 Y104.538 E.01967
G1 X96.406 Y103.864 E.01965
G1 X96.738 Y103.204 E.01969
G1 X97.102 Y102.562 E.01967
G1 X97.497 Y101.938 E.01968
G1 X97.922 Y101.335 E.01966
G1 X98.376 Y100.753 E.01967
G1 X98.858 Y100.194 E.01967
G1 X99.367 Y99.66 E.01966
G1 X99.902 Y99.151 E.01968
G1 X100.46 Y98.669 E.01965
G1 X101.042 Y98.215 E.01967
G1 X101.646 Y97.79 E.01968
G1 X102.269 Y97.395 E.01966
G1 X102.911 Y97.031 E.01967
G1 X103.571 Y96.699 E.01969
G1 X104.245 Y96.4 E.01965
G1 X104.934 Y96.134 E.01968
G1 X105.635 Y95.903 E.01967
G1 X106.346 Y95.706 E.01966
G1 X107.066 Y95.544 E.01967
G1 X107.794 Y95.418 E.01969
G1 X108.526 Y95.328 E.01966
G1 X109.262 Y95.274 E.01967
G1 X110 Y95.255 E.01968
G1 X110.625 Y95.271 E.01666
G1 X110.341 Y104.667 F9000
G1 F1200
G1 X111.142 Y104.488 E.02187
G1 X111.439 Y104.714 E.00995
G1 X111.97 Y104.997 E.01604
G1 X112.545 Y105.259 E.01684
G1 X113.421 Y105.496 E.02419
G1 X113.689 Y105.95 E.01405
G1 X114.076 Y106.421 E.01625
G1 X114.518 Y106.884 E.01706
G1 X115.076 Y107.309 E.01869
G1 X115.094 Y107.486 E.00474
G1 X115.206 Y108.068 E.0158
G1 X115.368 Y108.599 E.0148
G1 X115.588 Y109.148 E.01576
G1 X115.72 Y109.393 E.00742
G1 X115.644 Y109.784 E.01062
G1 X115.589 Y110.332 E.01468
G1 X115.588 Y110.889 E.01484
G1 X115.611 Y111.229 E.00908
G1 X115.473 Y111.573 E.00988
G1 X115.311 Y112.109 E.01492
G1 X115.201 Y112.685 E.01563
G1 X115.15 Y113.206 E.01395
G1 X114.84 Y113.441 E.01037
G1 X114.081 Y114.293 E.03041
G1 X113.639 Y115.043 E.0232
G1 X112.899 Y115.242 E.02042
G1 X112.308 Y115.512 E.01732
G1 X111.799 Y115.785 E.01539
G1 X111.31 Y116.158 E.01639
G1 X110.135 Y116.012 E.03156
G1 X109 Y116.091 E.03032
G1 X108.703 Y116.172 E.0082
G1 X108.411 Y115.923 E.01023
G1 X107.378 Y115.347 E.03152
G1 X106.32 Y115.001 E.02967
G1 X106.122 Y114.622 E.0114
G1 X105.411 Y113.733 E.03034
G1 X104.735 Y113.162 E.02358
G1 X104.67 Y112.479 E.01828
G1 X104.346 Y111.388 E.03033
G1 X104.094 Y110.909 E.01442
G1 X104.402 Y109.885 E.0285
G1 X104.513 Y108.742 E.03061
G1 X104.474 Y108.337 E.01084
G1 X105.148 Y107.501 E.02862
G1 X105.684 Y106.482 E.03069
G1 X105.746 Y106.274 E.00578
G1 X106.815 Y105.68 E.03259
G1 X107.693 Y104.94 E.0306
G1 X107.852 Y104.741 E.00679
G1 X108.401 Y104.828 E.01481
G1 X109.438 Y104.761 E.02769
G1 X109.713 Y104.705 E.00748
G1 X110.285 Y104.67 E.01527
;WIPE_START
G1 F7200
G1 X109.713 Y104.705 E-.1361
G1 X109.438 Y104.761 E-.06665
G1 X108.401 Y104.828 E-.2468
G1 X107.852 Y104.741 E-.13201
G1 X107.693 Y104.94 E-.0605
G1 X107.185 Y105.369 E-.15794
;WIPE_END
G1 X119.009 Y122.116 F9000
G1 E.8 F1800
G1 F1200
G1 X123.855 Y115.195 E.22517
G1 X124.065 Y114.559 E.01785
G1 X124.257 Y113.864 E.01922
G1 X124.434 Y113.053 E.02212
G1 X117.528 Y122.915 E.32087
G1 X116.929 Y123.255 E.01836
G1 X116.079 Y123.67 E.02521
G1 X124.649 Y111.431 E.3982
G1 X124.68 Y111.014 E.01114
G1 X124.692 Y110.055 E.02556
G1 X114.801 Y124.181 E.45959
G1 X114.267 Y124.358 E.01499
G1 X113.634 Y124.533 E.0175
G1 X124.625 Y108.836 E.5107
G1 X124.539 Y108.136 E.0188
G1 X124.47 Y107.742 E.01066
G1 X112.552 Y124.763 E.55378
G1 X111.529 Y124.909 E.02754
G1 X124.259 Y106.729 E.59149
G1 X123.99 Y105.799 E.0258
G1 X110.561 Y124.977 E.62396
G1 X109.637 Y124.982 E.02463
G1 X123.679 Y104.927 E.65248
G1 X123.331 Y104.109 E.02369
G1 X108.75 Y124.934 E.67753
G1 X107.896 Y124.838 E.0229
G1 X122.949 Y103.341 E.69942
G1 X122.533 Y102.62 E.02218
G1 X115.569 Y112.565 E.32357
G1 X115.641 Y112.19 E.01018
G1 X115.794 Y111.686 E.01404
G1 X115.955 Y111.283 E.01157
G1 X115.928 Y110.738 E.01454
G1 X122.089 Y101.939 E.28627
G1 X121.618 Y101.297 E.02122
G1 X116.037 Y109.267 E.25931
G1 X115.896 Y109.004 E.00795
G1 X115.68 Y108.462 E.01555
G1 X121.122 Y100.691 E.25284
G1 X120.601 Y100.119 E.02062
G1 X115.44 Y107.49 E.23981
G1 X115.4 Y107.128 E.00971
G1 X114.991 Y106.817 E.01369
G1 X120.058 Y99.581 E.23543
G1 X119.491 Y99.075 E.02025
G1 X114.431 Y106.302 E.23512
G1 X113.934 Y105.697 E.02087
G1 X118.902 Y98.602 E.23084
G1 X118.291 Y98.16 E.0201
G1 X113.403 Y105.14 E.2271
G1 X112.632 Y104.926 E.02132
G1 X117.657 Y97.75 E.23348
G1 X117.001 Y97.372 E.02018
G1 X111.942 Y104.597 E.23507
G1 X111.623 Y104.428 E.00962
G1 X111.308 Y104.187 E.01057
G1 X116.323 Y97.026 E.233
G1 X115.621 Y96.712 E.0205
G1 X110.288 Y104.33 E.24783
G1 X109.669 Y104.368 E.01653
G1 X109.297 Y104.43 E.01005
G1 X114.895 Y96.435 E.26012
G1 X114.143 Y96.194 E.02105
G1 X108.344 Y104.475 E.26943
G1 X107.711 Y104.375 E.01708
G1 X107.449 Y104.702 E.01117
G1 X107 Y105.08 E.01564
G1 X113.366 Y95.989 E.29578
G1 X112.561 Y95.824 E.0219
G1 X97.279 Y117.648 E.71006
G1 X97.71 Y118.349 E.02193
G1 X104.13 Y109.18 E.29831
G1 X104.067 Y109.819 E.01711
G1 X103.729 Y110.944 E.03131
G1 X103.766 Y111.014 E.00211
G1 X98.167 Y119.01 E.26015
G1 X98.652 Y119.633 E.02104
G1 X104.121 Y111.822 E.25413
G1 X104.336 Y112.544 E.02008
G1 X104.36 Y112.796 E.00675
G1 X99.162 Y120.219 E.24151
G1 X99.696 Y120.771 E.02047
G1 X104.721 Y113.595 E.23348
G1 X105.167 Y113.971 E.01555
G1 X105.279 Y114.112 E.0048
G1 X100.253 Y121.29 E.23354
G1 X100.833 Y121.777 E.02018
G1 X105.771 Y114.725 E.22944
G1 X105.837 Y114.808 E.00283
G1 X106.083 Y115.281 E.01421
G1 X106.261 Y115.339 E.00499
G1 X101.435 Y122.232 E.22426
G1 X102.059 Y122.656 E.02011
G1 X107.011 Y115.584 E.23009
G1 X107.245 Y115.66 E.00656
G1 X107.705 Y115.907 E.01392
G1 X102.705 Y123.048 E.23233
G1 X103.374 Y123.407 E.02023
G1 X108.343 Y116.311 E.23087
G1 X108.62 Y116.546 E.00968
G1 X109.056 Y116.428 E.01204
G1 X109.188 Y116.418 E.00353
G1 X104.066 Y123.735 E.23804
