; generated by PrusaSlicer 2.6.1+win64 on 2024-01-25 at 16:05:30 UTC

; 

; external perimeters extrusion width = 0.42mm
; perimeters extrusion width = 0.44mm
; infill extrusion width = 0.44mm
; solid infill extrusion width = 0.44mm
; top infill extrusion width = 0.40mm
; support material extrusion width = 0.36mm
; first layer extrusion width = 0.42mm

; external perimeters extrusion width = 0.42mm
; perimeters extrusion width = 0.44mm
; infill extrusion width = 0.44mm
; solid infill extrusion width = 0.44mm
; top infill extrusion width = 0.40mm
; support material extrusion width = 0.36mm
; first layer extrusion width = 0.42mm

M201 X500 Y500 Z100 E5000 ; sets maximum accelerations, mm/sec^2
M203 X500 Y500 Z10 E60 ; sets maximum feedrates, mm / sec
M204 S500 T1000 ; sets acceleration (S) and retract acceleration (R), mm/sec^2
M205 X8.00 Y8.00 Z0.40 E5.00 ; sets the jerk limits, mm/sec
M205 S0 T0 ; sets the minimum extruding and travel feed rate, mm/sec
;TYPE:Custom
G90 ; use absolute coordinates
M83 ; extruder relative mode
M104 S150 ; set temporary nozzle temp to prevent oozing during homing
M140 S60 ; set final bed temp
G4 S30 ; allow partial nozzle warmup
G28 ; home all axis and restore leveling
G1 Z50 F240
G1 X2.0 Y10 F3000
M104 S215 ; set final nozzle temp
M190 S60 ; wait for bed temp to stabilize
M109 S215 ; wait for nozzle temp to stabilize
G1 Z0.28 F240
G92 E0
G1 X2.0 Y140 E10 F1500 ; prime the nozzle
G1 X2.3 Y140 F5000
G92 E0
G1 X2.3 Y10 E10 F1200 ; prime the nozzle
G92 E0
G21 ; set units to millimeters
G90 ; use absolute coordinates
M83 ; use relative distances for extrusion
; Filament gcode
M107
;LAYER_CHANGE
;Z:0.2
;HEIGHT:0.2
;BEFORE_LAYER_CHANGE
G92 E0
;0.2


G1 E-.8 F1800
G1 Z.2 F9000
;AFTER_LAYER_CHANGE
;0.2
G1 X74.149 Y69.575
G1 E.8 F1800
M204 S500
;TYPE:Skirt/Brim
;WIDTH:0.42
G1 F1200
G1 X75.074 Y68.601 E.0358
G1 X76.935 Y66.899 E.06721
G1 X79.311 Y65.128 E.07898
G1 X81.375 Y63.885 E.06421
G1 X82.57 Y63.272 E.03579
G1 X85.201 Y62.169 E.07603
G1 X87.718 Y61.399 E.07015
G1 X89.036 Y61.099 E.03602
G1 X91.738 Y60.692 E.07282
G1 X93.173 Y60.588 E.03834
G1 X95.599 Y60.58 E.06466
G1 X98.385 Y60.84 E.07457
G1 X100.92 Y61.33 E.06881
G1 X103.489 Y62.089 E.07139
G1 X105.979 Y63.099 E.07161
G1 X108.454 Y64.405 E.07458
G1 X110.608 Y65.828 E.0688
G1 X112.815 Y67.623 E.07582
G1 X114.717 Y69.521 E.07161
G1 X116.495 Y71.691 E.07477
G1 X148.259 Y116.79 E1.47014
G1 X149.647 Y119.09 E.07159
G1 X150.849 Y121.626 E.07479
G1 X151.764 Y124.201 E.07283
G1 X152.409 Y126.809 E.0716
G1 X152.795 Y129.475 E.07179
G1 X152.919 Y132.105 E.07017
G1 X152.778 Y134.834 E.07283
G1 X152.376 Y137.49 E.07159
G1 X151.713 Y140.101 E.07179
G1 X150.821 Y142.578 E.07016
G1 X149.647 Y145.046 E.07284
G1 X148.259 Y147.346 E.07159
G1 X146.647 Y149.505 E.07181
G1 X144.875 Y151.451 E.07014
G1 X142.846 Y153.282 E.07284
G1 X140.683 Y154.876 E.07161
G1 X138.368 Y156.253 E.07179
G1 X135.985 Y157.374 E.07019
G1 X134.687 Y157.871 E.03704
G1 X132.275 Y158.603 E.06718
G1 X130.802 Y158.934 E.04024
G1 X128.309 Y159.304 E.06717
G1 X126.684 Y159.42 E.04342
G1 X124.275 Y159.414 E.0642
G1 X122.777 Y159.304 E.04003
G1 X120.284 Y158.934 E.06717
G1 X117.51 Y158.238 E.07622
G1 X116.13 Y157.775 E.03879
G1 X113.764 Y156.78 E.06841
G1 X111.54 Y155.591 E.06721
G1 X110.265 Y154.784 E.04021
G1 X108.24 Y153.282 E.06719
G1 X107.137 Y152.332 E.0388
G1 X105.203 Y150.391 E.07303
G1 X103.505 Y148.309 E.0716
G1 X71.742 Y103.21 E1.47012
G1 X70.332 Y100.869 E.07283
G1 X69.18 Y98.442 E.0716
G1 X68.32 Y96.072 E.06719
G1 X67.925 Y94.671 E.03879
G1 X67.384 Y91.985 E.07302
G1 X67.19 Y90.301 E.04518
G1 X67.083 Y88.134 E.05782
G1 X67.211 Y85.278 E.07619
G1 X67.39 Y83.833 E.03881
G1 X67.855 Y81.47 E.06418
G1 X68.67 Y78.744 E.07583
G1 X69.152 Y77.49 E.0358
G1 X70.22 Y75.206 E.0672
G1 X71.737 Y72.66 E.07899
G1 X73.168 Y70.722 E.0642
G1 X74.11 Y69.62 E.03864
; printing object test-stagejoiner6F.stl id:0 copy 0
;WIPE_START
G1 F7200
G1 X75.074 Y68.601 E-.33315
G1 X76.525 Y67.274 E-.46685
;WIPE_END
G1 X124.721 Y155.122 F9000
G1 E.8 F1800
;TYPE:External perimeter
G1 F1200
G1 X123.283 Y155.016 E.03843
G1 X122.159 Y154.878 E.03018
G1 X120.739 Y154.631 E.03841
G1 X120.839 Y154.126 E.01372
G1 X120.062 Y153.951 E.02123
G1 X118.994 Y153.656 E.02953
G1 X117.943 Y153.308 E.02951
G1 X116.91 Y152.91 E.0295
G1 X116.181 Y152.587 E.02125
G1 X115.961 Y153.053 E.01373
G1 X114.673 Y152.404 E.03844
G1 X113.688 Y151.847 E.03016
G1 X112.47 Y151.075 E.03843
G1 X112.756 Y150.647 E.01372
G1 X112.105 Y150.188 E.02123
G1 X111.232 Y149.506 E.02952
G1 X110.393 Y148.783 E.02952
G1 X109.591 Y148.02 E.0295
G1 X109.042 Y147.442 E.02125
G1 X108.66 Y147.788 E.01374
G1 X107.718 Y146.697 E.03842
G1 X107.022 Y145.804 E.03017
G1 X106.192 Y144.625 E.03843
G1 X106.62 Y144.339 E.01372
G1 X106.194 Y143.666 E.02123
G1 X105.648 Y142.702 E.02953
G1 X105.15 Y141.713 E.02951
G1 X104.701 Y140.701 E.02951
G1 X104.414 Y139.957 E.02125
G1 X103.929 Y140.131 E.01373
G1 X103.477 Y138.762 E.03842
G1 X103.175 Y137.671 E.03017
G1 X102.859 Y136.264 E.03843
G1 X103.364 Y136.164 E.01372
G1 X103.228 Y135.378 E.02126
G1 X103.093 Y134.279 E.02951
G1 X103.011 Y133.175 E.0295
G1 X102.984 Y132.068 E.02951
G1 X103.004 Y131.271 E.02125
G1 X102.489 Y131.246 E.01374
G1 X102.595 Y129.808 E.03843
G1 X102.733 Y128.685 E.03015
G1 X102.98 Y127.264 E.03844
G1 X103.485 Y127.365 E.01373
G1 X103.66 Y126.587 E.02125
G1 X103.955 Y125.52 E.0295
G1 X104.303 Y124.468 E.02953
G1 X104.701 Y123.435 E.0295
G1 X105.024 Y122.706 E.02125
G1 X104.559 Y122.486 E.01371
G1 X105.207 Y121.198 E.03843
G1 X105.765 Y120.213 E.03017
G1 X106.536 Y118.995 E.03842
G1 X106.964 Y119.281 E.01372
G1 X107.423 Y118.63 E.02123
G1 X108.105 Y117.757 E.02952
G1 X108.828 Y116.918 E.02952
G1 X109.591 Y116.117 E.02948
G1 X110.169 Y115.567 E.02126
G1 X109.823 Y115.185 E.01374
G1 X110.914 Y114.243 E.03842
G1 X111.807 Y113.547 E.03017
G1 X112.986 Y112.717 E.03843
G1 X113.272 Y113.145 E.01372
G1 X113.945 Y112.719 E.02123
G1 X114.909 Y112.173 E.02953
G1 X115.898 Y111.675 E.02951
G1 X116.91 Y111.226 E.02951
G1 X117.654 Y110.939 E.02125
G1 X117.48 Y110.454 E.01373
G1 X118.849 Y110.002 E.03842
G1 X119.94 Y109.7 E.03017
G1 X121.347 Y109.384 E.03843
G1 X121.447 Y109.89 E.01375
G1 X122.233 Y109.753 E.02126
G1 X123.332 Y109.618 E.02951
G1 X124.436 Y109.536 E.0295
G1 X125.543 Y109.509 E.02951
G1 X126.34 Y109.529 E.02125
G1 X126.365 Y109.014 E.01374
G1 X127.803 Y109.12 E.03843
G1 X128.927 Y109.259 E.03018
G1 X130.347 Y109.505 E.03841
G1 X130.247 Y110.011 E.01375
G1 X131.024 Y110.185 E.02122
G1 X132.092 Y110.481 E.02954
G1 X133.143 Y110.828 E.0295
G1 X134.176 Y111.226 E.0295
G1 X134.905 Y111.549 E.02125
G1 X135.125 Y111.084 E.01371
G1 X136.413 Y111.732 E.03843
G1 X137.398 Y112.29 E.03017
G1 X138.616 Y113.061 E.03842
G1 X138.33 Y113.49 E.01374
G1 X138.981 Y113.949 E.02123
G1 X139.854 Y114.63 E.02951
G1 X140.693 Y115.353 E.02952
G1 X141.495 Y116.117 E.02952
G1 X142.044 Y116.694 E.02123
G1 X142.427 Y116.347 E.01377
G1 X143.438 Y117.53 E.04147
G1 X144.064 Y118.332 E.02711
G1 X144.894 Y119.511 E.03843
G1 X144.466 Y119.797 E.01372
G1 X144.892 Y120.471 E.02125
G1 X145.438 Y121.434 E.0295
G1 X145.936 Y122.423 E.02951
G1 X146.385 Y123.435 E.02951
G1 X146.672 Y124.179 E.02125
G1 X147.157 Y124.005 E.01373
G1 X147.609 Y125.374 E.03842
G1 X147.911 Y126.465 E.03017
G1 X148.227 Y127.872 E.03843
G1 X147.721 Y127.973 E.01375
G1 X147.858 Y128.758 E.02124
G1 X147.993 Y129.857 E.02951
G1 X148.075 Y130.961 E.0295
G1 X148.102 Y132.068 E.02951
G1 X148.082 Y132.865 E.02125
G1 X148.597 Y132.89 E.01374
G1 X148.491 Y134.328 E.03843
G1 X148.352 Y135.452 E.03018
G1 X148.106 Y136.872 E.03841
G1 X147.601 Y136.772 E.01372
G1 X147.426 Y137.549 E.02123
G1 X147.131 Y138.617 E.02953
G1 X146.783 Y139.668 E.02951
G1 X146.385 Y140.701 E.0295
G1 X146.062 Y141.43 E.02125
G1 X146.527 Y141.65 E.01371
G1 X145.879 Y142.938 E.03843
G1 X145.321 Y143.923 E.03017
G1 X144.55 Y145.141 E.03842
G1 X144.121 Y144.855 E.01374
G1 X143.662 Y145.506 E.02123
G1 X142.981 Y146.379 E.02951
G1 X142.258 Y147.218 E.02952
G1 X141.495 Y148.02 E.0295
G1 X140.917 Y148.569 E.02125
G1 X141.263 Y148.951 E.01374
G1 X140.172 Y149.893 E.03842
G1 X139.279 Y150.589 E.03017
G1 X138.1 Y151.419 E.03843
G1 X137.814 Y150.991 E.01372
G1 X137.141 Y151.418 E.02124
G1 X136.177 Y151.963 E.02951
G1 X135.188 Y152.461 E.02951
G1 X134.176 Y152.91 E.02951
G1 X133.432 Y153.197 E.02125
G1 X133.606 Y153.682 E.01373
G1 X132.237 Y154.134 E.03842
G1 X131.146 Y154.436 E.03017
G1 X129.739 Y154.752 E.03843
G1 X129.638 Y154.247 E.01373
G1 X128.853 Y154.383 E.02123
G1 X127.754 Y154.518 E.02951
G1 X126.65 Y154.6 E.0295
G1 X125.543 Y154.627 E.02951
G1 X124.746 Y154.607 E.02125
G1 X124.724 Y155.062 E.01214
G1 X124.568 Y155.492 F9000
;WIPE_START
G1 F7200
G1 X123.283 Y155.016 E-.34241
G1 X122.159 Y154.878 E-.26895
G1 X121.376 Y154.742 E-.18864
;WIPE_END
G1 X125.981 Y109.143 F9000
G1 E.8 F1800
;TYPE:Perimeter
G1 F1200
G1 X125.543 Y109.132 E.01168
G1 X124.418 Y109.16 E.02999
G1 X123.295 Y109.242 E.03001
G1 X122.178 Y109.38 E.03
G1 X121.746 Y109.455 E.01169
G1 X121.672 Y109.086 E.01003
G1 X122.122 Y109.008 E.01217
G1 X123.257 Y108.868 E.03048
G1 X124.5 Y108.779 E.03321
G1 X125.749 Y108.759 E.03329
G1 X126 Y108.766 E.00669
G1 X125.984 Y109.083 E.00846
;WIPE_START
G1 F7200
G1 X125.543 Y109.132 E-.10538
G1 X124.418 Y109.16 E-.26727
G1 X123.295 Y109.242 E-.26742
G1 X122.627 Y109.325 E-.15993
;WIPE_END
G1 X134.721 Y111.056 F9000
G1 E.8 F1800
G1 F1200
G1 X134.32 Y110.878 E.01169
G1 X133.27 Y110.473 E.02999
G1 X132.201 Y110.12 E.03
G1 X131.116 Y109.819 E.03001
G1 X130.688 Y109.723 E.01169
G1 X130.762 Y109.355 E.01
G1 X131.207 Y109.455 E.01216
G1 X132.309 Y109.76 E.03047
G1 X133.493 Y110.154 E.03326
G1 X134.559 Y110.57 E.0305
G1 X134.883 Y110.714 E.00945
G1 X134.747 Y111.001 E.00846
;WIPE_START
G1 F7200
G1 X134.32 Y110.878 E-.10554
G1 X133.27 Y110.473 E-.26728
G1 X132.201 Y110.12 E-.26737
G1 X131.553 Y109.94 E-.15981
;WIPE_END
G1 X142.064 Y116.167 F9000
G1 E.8 F1800
G1 F1200
G1 X141.761 Y115.85 E.01169
G1 X140.946 Y115.074 E.02999
G1 X140.094 Y114.338 E.03001
G1 X139.206 Y113.646 E.03
G1 X138.848 Y113.393 E.01168
G1 X139.056 Y113.081 E.00999
G1 X139.43 Y113.344 E.01219
G1 X140.331 Y114.047 E.03046
G1 X141.274 Y114.864 E.03325
G1 X142.099 Y115.657 E.0305
G1 X142.343 Y115.914 E.00944
G1 X142.108 Y116.127 E.00845
;WIPE_START
G1 F7200
G1 X141.761 Y115.85 E-.10545
G1 X140.946 Y115.074 E-.26727
G1 X140.094 Y114.338 E-.2674
G1 X139.563 Y113.924 E-.15988
;WIPE_END
G1 X146.891 Y123.7 F9000
G1 E.8 F1800
G1 F1200
G1 X146.733 Y123.291 E.01169
G1 X146.277 Y122.262 E.03
G1 X145.771 Y121.256 E.03001
G1 X145.216 Y120.277 E.02999
G1 X144.981 Y119.906 E.0117
G1 X145.294 Y119.697 E.01003
G1 X145.538 Y120.083 E.01217
G1 X146.102 Y121.078 E.03048
G1 X146.66 Y122.194 E.03325
G1 X147.12 Y123.242 E.0305
G1 X147.246 Y123.573 E.00944
G1 X146.947 Y123.68 E.00846
;WIPE_START
G1 F7200
G1 X146.733 Y123.291 E-.10544
G1 X146.277 Y122.262 E-.26731
G1 X145.771 Y121.256 E-.26745
G1 X145.439 Y120.671 E-.1598
;WIPE_END
G1 X148.468 Y132.506 F9000
G1 E.8 F1800
G1 F1200
G1 X148.479 Y132.068 E.01168
G1 X148.451 Y130.943 E.02999
G1 X148.369 Y129.82 E.03001
G1 X148.231 Y128.703 E.03
G1 X148.156 Y128.271 E.01169
G1 X148.525 Y128.197 E.01003
G1 X148.603 Y128.648 E.0122
G1 X148.743 Y129.782 E.03045
G1 X148.832 Y131.027 E.03327
G1 X148.855 Y132.171 E.0305
G1 X148.845 Y132.525 E.00944
G1 X148.528 Y132.509 E.00846
;WIPE_START
G1 F7200
G1 X148.479 Y132.068 E-.10538
G1 X148.451 Y130.943 E-.26727
G1 X148.369 Y129.82 E-.26742
G1 X148.286 Y129.152 E-.15993
;WIPE_END
G1 X146.555 Y141.246 F9000
G1 E.8 F1800
G1 F1200
G1 X146.733 Y140.845 E.01169
G1 X147.138 Y139.795 E.02999
G1 X147.491 Y138.726 E.03
G1 X147.792 Y137.641 E.03001
G1 X147.888 Y137.213 E.01169
G1 X148.257 Y137.287 E.01003
G1 X148.156 Y137.732 E.01216
G1 X147.851 Y138.835 E.0305
G1 X147.458 Y140.018 E.03322
G1 X147.041 Y141.084 E.03051
G1 X146.897 Y141.408 E.00945
G1 X146.61 Y141.272 E.00846
;WIPE_START
G1 F7200
G1 X146.733 Y140.845 E-.10554
G1 X147.138 Y139.795 E-.26728
G1 X147.491 Y138.726 E-.26737
G1 X147.671 Y138.078 E-.15981
;WIPE_END
G1 X141.752 Y148.816 F9000
G1 E.8 F1800
G1 F1200
G1 X141.697 Y148.868 E.00202
G1 X141.444 Y148.589 E.01004
G1 X141.761 Y148.286 E.01169
G1 X142.538 Y147.471 E.03001
G1 X143.273 Y146.619 E.02999
G1 X143.965 Y145.731 E.03
G1 X144.218 Y145.373 E.01168
G1 X144.53 Y145.582 E.01001
G1 X144.267 Y145.955 E.01216
G1 X143.564 Y146.857 E.03048
G1 X142.747 Y147.799 E.03323
G1 X141.796 Y148.775 E.03632
;WIPE_START
G1 F7200
G1 X141.697 Y148.868 E-.03226
G1 X141.444 Y148.589 E-.08945
G1 X141.761 Y148.286 E-.10415
G1 X142.538 Y147.471 E-.26743
G1 X143.273 Y146.619 E-.26724
G1 X143.375 Y146.488 E-.03947
;WIPE_END
G1 X137.914 Y151.819 F9000
G1 E.8 F1800
G1 F1200
G1 X137.528 Y152.064 E.01218
G1 X136.533 Y152.627 E.03047
G1 X135.417 Y153.186 E.03327
G1 X134.369 Y153.645 E.03049
G1 X134.038 Y153.772 E.00945
G1 X133.911 Y153.416 E.01007
G1 X134.32 Y153.258 E.01169
G1 X135.349 Y152.802 E.03
G1 X136.355 Y152.296 E.03001
G1 X137.334 Y151.741 E.02999
G1 X137.705 Y151.507 E.01169
G1 X137.88 Y151.769 E.0084
;WIPE_START
G1 F7200
G1 X137.528 Y152.064 E-.10908
G1 X136.533 Y152.627 E-.27152
G1 X135.417 Y153.186 E-.29644
G1 X134.943 Y153.394 E-.12296
;WIPE_END
G1 X129.34 Y154.681 F9000
G1 E.8 F1800
G1 F1200
G1 X129.414 Y155.05 E.01003
G1 X128.964 Y155.128 E.01217
G1 X127.829 Y155.268 E.03048
G1 X126.584 Y155.357 E.03327
G1 X125.44 Y155.38 E.0305
G1 X125.086 Y155.371 E.00944
G1 X125.105 Y154.993 E.01009
G1 X125.543 Y155.004 E.01168
G1 X126.668 Y154.977 E.02999
G1 X127.791 Y154.894 E.03001
G1 X128.908 Y154.756 E.03
G1 X129.281 Y154.691 E.01009
;WIPE_START
G1 F7200
G1 X129.414 Y155.05 E-.09093
G1 X128.964 Y155.128 E-.10847
G1 X127.829 Y155.268 E-.27161
G1 X126.584 Y155.357 E-.29644
G1 X126.447 Y155.36 E-.03255
;WIPE_END
G1 X120.324 Y154.782 F9000
G1 E.8 F1800
G1 F1200
G1 X119.879 Y154.682 E.01216
G1 X118.777 Y154.377 E.03047
G1 X117.593 Y153.983 E.03326
G1 X116.527 Y153.566 E.03051
G1 X116.203 Y153.422 E.00945
G1 X116.365 Y153.081 E.01006
G1 X116.766 Y153.258 E.01168
G1 X117.816 Y153.663 E.02999
G1 X118.885 Y154.017 E.03001
G1 X119.97 Y154.317 E.03
G1 X120.398 Y154.413 E.01169
G1 X120.336 Y154.723 E.00843
;WIPE_START
G1 F7200
G1 X119.879 Y154.682 E-.10897
G1 X118.777 Y154.377 E-.27156
G1 X117.593 Y153.983 E-.29636
G1 X117.11 Y153.794 E-.12311
;WIPE_END
G1 X112.03 Y151.056 F9000
G1 E.8 F1800
G1 F1200
G1 X111.656 Y150.793 E.01219
G1 X110.755 Y150.089 E.03047
G1 X109.812 Y149.272 E.03325
G1 X108.987 Y148.48 E.03048
G1 X108.743 Y148.222 E.00946
G1 X109.022 Y147.969 E.01004
G1 X109.325 Y148.286 E.01169
G1 X110.14 Y149.063 E.03001
G1 X110.992 Y149.798 E.02999
G1 X111.88 Y150.491 E.03002
G1 X112.238 Y150.743 E.01167
G1 X112.063 Y151.006 E.00842
;WIPE_START
G1 F7200
G1 X111.656 Y150.793 E-.1091
G1 X110.755 Y150.089 E-.27156
G1 X109.812 Y149.272 E-.29633
G1 X109.438 Y148.913 E-.12301
;WIPE_END
G1 X106.105 Y144.23 F9000
G1 E.8 F1800
G1 F1200
G1 X105.792 Y144.439 E.01003
G1 X105.548 Y144.053 E.01217
G1 X104.984 Y143.058 E.03048
G1 X104.426 Y141.943 E.03323
G1 X103.966 Y140.894 E.03053
G1 X103.84 Y140.563 E.00944
G1 X104.195 Y140.436 E.01005
G1 X104.353 Y140.845 E.01169
G1 X104.809 Y141.875 E.03002
G1 X105.315 Y142.88 E.02999
G1 X105.87 Y143.86 E.03002
G1 X106.072 Y144.179 E.01006
;WIPE_START
G1 F7200
G1 X105.792 Y144.439 E-.09075
G1 X105.548 Y144.053 E-.10846
G1 X104.984 Y143.058 E-.27164
G1 X104.426 Y141.943 E-.29612
G1 X104.37 Y141.816 E-.03303
;WIPE_END
G1 X102.93 Y135.866 F9000
G1 E.8 F1800
G1 F1200
G1 X102.561 Y135.939 E.01002
G1 X102.483 Y135.489 E.01217
G1 X102.343 Y134.354 E.03048
G1 X102.254 Y133.11 E.03324
G1 X102.231 Y131.966 E.0305
G1 X102.241 Y131.611 E.00946
G1 X102.618 Y131.63 E.01006
G1 X102.607 Y132.068 E.01168
G1 X102.634 Y133.194 E.03002
G1 X102.717 Y134.316 E.02998
G1 X102.855 Y135.434 E.03002
G1 X102.92 Y135.806 E.01006
;WIPE_START
G1 F7200
G1 X102.561 Y135.939 E-.09093
G1 X102.483 Y135.489 E-.10847
G1 X102.343 Y134.354 E-.27161
G1 X102.254 Y133.11 E-.29621
G1 X102.251 Y132.972 E-.03278
;WIPE_END
