; generated by PrusaSlicer 2.6.1+win64 on 2024-01-24 at 19:56:25 UTC

; 

; external perimeters extrusion width = 0.42mm
; perimeters extrusion width = 0.44mm
; infill extrusion width = 0.44mm
; solid infill extrusion width = 0.44mm
; top infill extrusion width = 0.40mm
; support material extrusion width = 0.36mm
; first layer extrusion width = 0.42mm

M201 X500 Y500 Z100 E5000 ; sets maximum accelerations, mm/sec^2
M203 X500 Y500 Z10 E60 ; sets maximum feedrates, mm / sec
M204 S500 T1000 ; sets acceleration (S) and retract acceleration (R), mm/sec^2
M205 X8.00 Y8.00 Z0.40 E5.00 ; sets the jerk limits, mm/sec
M205 S0 T0 ; sets the minimum extruding and travel feed rate, mm/sec
;TYPE:Custom
G90 ; use absolute coordinates
M83 ; extruder relative mode
M104 S150 ; set temporary nozzle temp to prevent oozing during homing
M140 S60 ; set final bed temp
G4 S30 ; allow partial nozzle warmup
G28 ; home all axis and restore leveling
G1 Z50 F240
G1 X2.0 Y10 F3000
M104 S215 ; set final nozzle temp
M190 S60 ; wait for bed temp to stabilize
M109 S215 ; wait for nozzle temp to stabilize
G1 Z0.28 F240
G92 E0
G1 X2.0 Y140 E10 F1500 ; prime the nozzle
G1 X2.3 Y140 F5000
G92 E0
G1 X2.3 Y10 E10 F1200 ; prime the nozzle
G92 E0
G21 ; set units to millimeters
G90 ; use absolute coordinates
M83 ; use relative distances for extrusion
; Filament gcode
M107
;LAYER_CHANGE
;Z:0.2
;HEIGHT:0.2
;BEFORE_LAYER_CHANGE
G92 E0
;0.2


G1 E-.8 F1800
G1 Z.2 F9000
;AFTER_LAYER_CHANGE
;0.2
G1 X90.701 Y90.584
G1 E.8 F1800
M204 S500
;TYPE:Skirt/Brim
;WIDTH:0.42
G1 F1200
G1 X92.697 Y88.786 E.0716
G1 X94.86 Y87.192 E.07161
G1 X97.168 Y85.818 E.07159
G1 X99.6 Y84.677 E.07159
G1 X102.133 Y83.779 E.07162
G1 X104.741 Y83.134 E.0716
G1 X107.399 Y82.748 E.07158
G1 X110.201 Y82.627 E.07475
G1 X112.766 Y82.765 E.06846
G1 X115.422 Y83.167 E.07159
G1 X118.026 Y83.827 E.07159
G1 X120.553 Y84.74 E.07161
G1 X122.978 Y85.896 E.0716
G1 X125.278 Y87.284 E.07159
G1 X127.431 Y88.891 E.0716
G1 X129.416 Y90.701 E.07159
G1 X131.214 Y92.697 E.0716
G1 X132.808 Y94.86 E.07161
G1 X134.182 Y97.168 E.07159
G1 X135.323 Y99.6 E.07159
G1 X136.221 Y102.133 E.07162
G1 X136.866 Y104.741 E.0716
G1 X137.252 Y107.399 E.07158
G1 X137.375 Y110.083 E.07161
G1 X137.235 Y112.766 E.0716
G1 X136.833 Y115.422 E.07159
G1 X136.173 Y118.026 E.07159
G1 X135.26 Y120.553 E.07161
G1 X134.104 Y122.978 E.0716
G1 X132.716 Y125.278 E.07159
G1 X131.109 Y127.431 E.0716
G1 X129.299 Y129.416 E.07159
G1 X127.303 Y131.214 E.0716
G1 X125.14 Y132.808 E.07161
G1 X122.832 Y134.182 E.07159
G1 X120.4 Y135.323 E.07159
G1 X117.867 Y136.221 E.07162
G1 X115.259 Y136.866 E.0716
G1 X112.601 Y137.252 E.07158
G1 X109.917 Y137.375 E.07161
G1 X107.234 Y137.235 E.0716
G1 X104.578 Y136.833 E.07159
G1 X101.974 Y136.173 E.07159
G1 X99.447 Y135.26 E.07161
G1 X97.022 Y134.104 E.0716
G1 X94.722 Y132.716 E.07159
G1 X92.569 Y131.109 E.0716
G1 X90.584 Y129.299 E.07159
G1 X88.786 Y127.303 E.0716
G1 X87.192 Y125.14 E.07161
G1 X85.818 Y122.832 E.07159
G1 X84.677 Y120.4 E.07159
G1 X83.779 Y117.867 E.07162
G1 X83.134 Y115.259 E.0716
G1 X82.748 Y112.601 E.07158
G1 X82.625 Y109.917 E.07161
G1 X82.765 Y107.234 E.0716
G1 X83.167 Y104.578 E.07159
G1 X83.827 Y101.974 E.07159
G1 X84.74 Y99.447 E.07161
G1 X85.896 Y97.022 E.0716
G1 X87.284 Y94.722 E.07159
G1 X88.891 Y92.569 E.0716
G1 X90.661 Y90.628 E.07001
; printing object test-stagejoiner4F4.stl id:0 copy 0
;WIPE_START
G1 F7200
G1 X92.697 Y88.786 E-.65208
G1 X93.198 Y88.417 E-.14792
;WIPE_END
G1 X94.516 Y92.913 F9000
G1 E.8 F1800
;TYPE:External perimeter
G1 F1200
G1 X95.371 Y92.175 E.0301
G1 X96.264 Y91.479 E.03017
G1 X97.293 Y90.754 E.03355
G1 X98.002 Y90.904 E.01931
G1 X98.402 Y90.651 E.01261
G1 X99.366 Y90.105 E.02953
G1 X100.355 Y89.607 E.02951
G1 X101.367 Y89.158 E.02951
G1 X101.809 Y88.988 E.01262
G1 X102.111 Y88.329 E.01932
G1 X103.306 Y87.934 E.03354
G1 X104.397 Y87.632 E.03017
G1 X105.626 Y87.356 E.03357
G1 X106.223 Y87.766 E.0193
G1 X106.69 Y87.685 E.01263
G1 X107.789 Y87.55 E.02951
G1 X108.893 Y87.468 E.0295
G1 X110 Y87.441 E.02951
G1 X110.473 Y87.453 E.01261
G1 X111.004 Y86.959 E.01933
G1 X112.26 Y87.052 E.03357
G1 X113.384 Y87.191 E.03018
G1 X114.624 Y87.406 E.03354
G1 X115.019 Y88.013 E.0193
G1 X115.481 Y88.117 E.01262
G1 X116.549 Y88.412 E.02953
G1 X117.6 Y88.76 E.02951
G1 X118.633 Y89.158 E.0295
G1 X119.066 Y89.35 E.01262
G1 X119.745 Y89.098 E.0193
G1 X120.87 Y89.664 E.03356
G1 X121.855 Y90.222 E.03017
G1 X122.919 Y90.895 E.03355
G1 X123.051 Y91.608 E.01933
G1 X123.438 Y91.881 E.01262
G1 X124.311 Y92.562 E.02951
G1 X125.15 Y93.285 E.02952
G1 X125.952 Y94.048 E.0295
G1 X126.278 Y94.391 E.01261
G1 X127.002 Y94.418 E.01931
G1 X127.825 Y95.371 E.03356
G1 X128.521 Y96.264 E.03017
G1 X129.246 Y97.293 E.03355
G1 X129.096 Y98.002 E.01931
G1 X129.349 Y98.402 E.01261
G1 X129.895 Y99.366 E.02953
G1 X130.393 Y100.355 E.02951
G1 X130.842 Y101.367 E.02951
G1 X131.012 Y101.809 E.01262
G1 X131.671 Y102.111 E.01932
G1 X132.066 Y103.306 E.03354
G1 X132.368 Y104.397 E.03017
G1 X132.644 Y105.626 E.03357
G1 X132.234 Y106.223 E.0193
G1 X132.315 Y106.69 E.01263
G1 X132.45 Y107.789 E.02951
G1 X132.532 Y108.893 E.0295
G1 X132.559 Y110 E.02951
G1 X132.547 Y110.473 E.01261
G1 X133.041 Y111.004 E.01933
G1 X132.948 Y112.26 E.03357
G1 X132.81 Y113.384 E.03018
G1 X132.594 Y114.624 E.03355
G1 X131.987 Y115.019 E.0193
G1 X131.883 Y115.481 E.01262
G1 X131.588 Y116.549 E.02953
G1 X131.24 Y117.6 E.02951
G1 X130.842 Y118.633 E.0295
G1 X130.65 Y119.066 E.01262
G1 X130.902 Y119.745 E.0193
G1 X130.336 Y120.87 E.03356
G1 X129.778 Y121.855 E.03017
G1 X129.105 Y122.919 E.03355
G1 X128.392 Y123.051 E.01933
G1 X128.119 Y123.438 E.01262
G1 X127.438 Y124.311 E.02951
G1 X126.715 Y125.15 E.02952
G1 X125.952 Y125.952 E.0295
G1 X125.609 Y126.278 E.01261
G1 X125.582 Y127.002 E.01931
G1 X124.629 Y127.825 E.03356
G1 X123.736 Y128.521 E.03017
G1 X122.707 Y129.246 E.03355
G1 X121.998 Y129.096 E.01931
G1 X121.598 Y129.349 E.01261
G1 X120.634 Y129.895 E.02953
G1 X119.645 Y130.393 E.02951
G1 X118.633 Y130.842 E.02951
G1 X118.191 Y131.012 E.01262
G1 X117.889 Y131.671 E.01932
G1 X116.694 Y132.066 E.03354
G1 X115.603 Y132.368 E.03017
G1 X114.374 Y132.644 E.03357
G1 X113.777 Y132.234 E.0193
G1 X113.31 Y132.315 E.01263
G1 X112.211 Y132.45 E.02951
G1 X111.107 Y132.532 E.0295
G1 X110 Y132.559 E.02951
G1 X109.527 Y132.547 E.01261
G1 X108.996 Y133.041 E.01933
G1 X107.74 Y132.948 E.03357
G1 X106.616 Y132.81 E.03018
G1 X105.376 Y132.594 E.03355
G1 X104.981 Y131.987 E.0193
G1 X104.519 Y131.883 E.01262
G1 X103.451 Y131.588 E.02953
G1 X102.4 Y131.24 E.02951
G1 X101.367 Y130.842 E.0295
G1 X100.934 Y130.65 E.01262
G1 X100.255 Y130.902 E.0193
G1 X99.13 Y130.336 E.03356
G1 X98.145 Y129.778 E.03017
G1 X97.081 Y129.105 E.03355
G1 X96.949 Y128.392 E.01933
G1 X96.562 Y128.119 E.01262
G1 X95.689 Y127.438 E.02951
G1 X94.85 Y126.715 E.02952
G1 X94.048 Y125.952 E.0295
G1 X93.722 Y125.609 E.01261
G1 X92.997 Y125.582 E.01934
G1 X92.105 Y124.538 E.0366
G1 X91.479 Y123.736 E.02711
G1 X90.754 Y122.707 E.03355
G1 X90.904 Y121.998 E.01931
G1 X90.651 Y121.598 E.01261
G1 X90.105 Y120.634 E.02953
G1 X89.607 Y119.645 E.02951
G1 X89.158 Y118.633 E.02951
G1 X88.988 Y118.191 E.01262
G1 X88.329 Y117.889 E.01932
G1 X87.934 Y116.694 E.03354
G1 X87.632 Y115.603 E.03017
G1 X87.356 Y114.374 E.03357
G1 X87.766 Y113.777 E.0193
G1 X87.685 Y113.31 E.01263
G1 X87.55 Y112.211 E.02951
G1 X87.468 Y111.107 E.0295
G1 X87.441 Y110 E.02951
G1 X87.453 Y109.527 E.01261
G1 X86.959 Y108.996 E.01933
G1 X87.052 Y107.74 E.03357
G1 X87.191 Y106.616 E.03018
G1 X87.406 Y105.376 E.03354
G1 X88.013 Y104.981 E.0193
G1 X88.117 Y104.519 E.01262
G1 X88.412 Y103.451 E.02953
G1 X88.76 Y102.4 E.02951
G1 X89.158 Y101.367 E.0295
G1 X89.35 Y100.934 E.01262
G1 X89.098 Y100.255 E.0193
G1 X89.664 Y99.13 E.03356
G1 X90.222 Y98.145 E.03017
G1 X90.895 Y97.081 E.03355
G1 X91.608 Y96.949 E.01933
G1 X91.881 Y96.562 E.01262
G1 X92.562 Y95.689 E.02951
G1 X93.285 Y94.85 E.02952
G1 X94.048 Y94.048 E.0295
G1 X94.391 Y93.722 E.01261
G1 X94.418 Y92.998 E.01931
G1 X94.471 Y92.952 E.00187
G1 X94.352 Y92.548 F9000
;WIPE_START
G1 F7200
G1 X95.371 Y92.175 E-.28239
G1 X96.264 Y91.479 E-.2689
G1 X97.12 Y90.876 E-.24871
;WIPE_END
G1 X105.866 Y87.064 F9000
G1 E.8 F1800
;TYPE:Perimeter
G1 F1200
G1 X106.579 Y86.94 E.01929
G1 X107.715 Y86.8 E.0305
G1 X108.855 Y86.716 E.03046
G1 X110.114 Y86.691 E.03356
G1 X110.723 Y86.706 E.01624
G1 X110.329 Y87.072 E.01433
G1 X110 Y87.064 E.00877
G1 X108.875 Y87.091 E.02999
G1 X107.752 Y87.174 E.03001
G1 X106.635 Y87.312 E.03
G1 X106.31 Y87.368 E.00879
G1 X105.916 Y87.098 E.01273
;WIPE_START
G1 F7200
G1 X106.579 Y86.94 E-.16187
G1 X107.715 Y86.8 E-.27184
G1 X108.855 Y86.716 E-.27148
G1 X109.254 Y86.708 E-.09481
;WIPE_END
G1 X119.583 Y88.756 F9000
G1 E.8 F1800
G1 F1200
G1 X119.078 Y88.943 E.01435
G1 X118.777 Y88.81 E.00877
G1 X117.727 Y88.405 E.02999
G1 X116.658 Y88.052 E.03
G1 X115.573 Y87.751 E.03001
G1 X115.252 Y87.679 E.00877
G1 X114.958 Y87.228 E.01435
G1 X115.664 Y87.387 E.01929
G1 X116.767 Y87.692 E.0305
G1 X117.854 Y88.051 E.03051
G1 X118.921 Y88.462 E.03047
G1 X119.528 Y88.731 E.01769
;WIPE_START
G1 F7200
G1 X119.078 Y88.943 E-.11814
G1 X118.777 Y88.81 E-.07816
G1 X117.727 Y88.405 E-.26728
G1 X116.658 Y88.052 E-.26737
G1 X116.378 Y87.974 E-.06905
;WIPE_END
G1 X126.983 Y94.04 F9000
G1 E.8 F1800
G1 F1200
G1 X126.445 Y94.02 E.01435
G1 X125.403 Y93.005 E.03877
G1 X124.551 Y92.27 E.02999
G1 X123.663 Y91.578 E.03
G1 X123.394 Y91.388 E.00878
G1 X123.295 Y90.859 E.01434
G1 X123.887 Y91.276 E.0193
G1 X124.789 Y91.98 E.03049
G1 X125.655 Y92.727 E.03048
G1 X126.484 Y93.516 E.0305
G1 X126.942 Y93.997 E.0177
;WIPE_START
G1 F7200
G1 X126.445 Y94.02 E-.11816
G1 X125.403 Y93.005 E-.34548
G1 X124.551 Y92.27 E-.26724
G1 X124.321 Y92.091 E-.06912
;WIPE_END
G1 X131.798 Y101.754 F9000
G1 E.8 F1800
G1 F1200
G1 X131.309 Y101.53 E.01433
G1 X131.19 Y101.223 E.00878
G1 X130.734 Y100.194 E.03
G1 X130.228 Y99.188 E.03001
G1 X129.497 Y97.93 E.03878
G1 X129.608 Y97.404 E.01433
G1 X129.995 Y98.015 E.01928
G1 X130.559 Y99.011 E.0305
G1 X131.074 Y100.033 E.0305
G1 X131.538 Y101.079 E.0305
G1 X131.776 Y101.698 E.01767
;WIPE_START
G1 F7200
G1 X131.309 Y101.53 E-.11787
G1 X131.19 Y101.223 E-.0782
G1 X130.734 Y100.194 E-.26731
G1 X130.228 Y99.188 E-.26745
G1 X130.082 Y98.936 E-.06917
;WIPE_END
G1 X133.294 Y110.723 F9000
G1 E.8 F1800
G1 F1200
G1 X132.928 Y110.329 E.01433
G1 X132.909 Y108.875 E.03875
G1 X132.826 Y107.752 E.03001
G1 X132.688 Y106.635 E.03
G1 X132.632 Y106.31 E.00879
G1 X132.936 Y105.866 E.01434
G1 X133.06 Y106.579 E.01929
G1 X133.2 Y107.715 E.0305
G1 X133.284 Y108.856 E.03049
G1 X133.312 Y110 E.0305
G1 X133.296 Y110.663 E.01767
;WIPE_START
G1 F7200
G1 X132.928 Y110.329 E-.11803
G1 X132.909 Y108.875 E-.34535
G1 X132.826 Y107.752 E-.26744
G1 X132.79 Y107.463 E-.06918
;WIPE_END
G1 X131.412 Y119.205 F9000
G1 E.8 F1800
G1 F1200
G1 X131.244 Y119.583 E.01102
G1 X131.057 Y119.078 E.01435
G1 X131.19 Y118.777 E.00877
G1 X131.595 Y117.727 E.02999
G1 X131.948 Y116.658 E.03
G1 X132.249 Y115.573 E.03001
G1 X132.321 Y115.252 E.00877
G1 X132.772 Y114.958 E.01435
G1 X132.613 Y115.664 E.01929
G1 X132.308 Y116.767 E.0305
G1 X131.949 Y117.854 E.03051
G1 X131.436 Y119.15 E.03715
;WIPE_START
G1 F7200
G1 X131.244 Y119.583 E-.11249
G1 X131.057 Y119.078 E-.1279
G1 X131.19 Y118.777 E-.07816
G1 X131.595 Y117.727 E-.26728
G1 X131.878 Y116.871 E-.21417
;WIPE_END
G1 X129.141 Y123.295 F9000
G1 E.8 F1800
G1 F1200
G1 X128.724 Y123.887 E.0193
G1 X128.02 Y124.789 E.03049
G1 X127.273 Y125.655 E.03048
G1 X126.484 Y126.484 E.0305
G1 X125.96 Y126.983 E.01928
G1 X125.98 Y126.445 E.01435
G1 X126.995 Y125.403 E.03877
G1 X127.73 Y124.551 E.02999
G1 X128.422 Y123.663 E.03
G1 X128.612 Y123.394 E.00878
G1 X129.082 Y123.306 E.01274
;WIPE_START
G1 F7200
G1 X128.724 Y123.887 E-.16208
G1 X128.02 Y124.789 E-.27175
G1 X127.273 Y125.655 E-.27162
G1 X126.999 Y125.943 E-.09455
;WIPE_END
G1 X122.596 Y129.608 F9000
G1 E.8 F1800
G1 F1200
G1 X121.985 Y129.995 E.01928
G1 X120.989 Y130.559 E.0305
G1 X119.967 Y131.074 E.0305
G1 X118.921 Y131.538 E.0305
G1 X118.246 Y131.798 E.01928
G1 X118.47 Y131.309 E.01433
G1 X118.777 Y131.19 E.00878
G1 X119.806 Y130.734 E.03
G1 X120.812 Y130.228 E.03001
G1 X121.791 Y129.673 E.02999
G1 X122.07 Y129.497 E.00879
G1 X122.537 Y129.596 E.01272
;WIPE_START
G1 F7200
G1 X121.985 Y129.995 E-.16176
G1 X120.989 Y130.559 E-.27184
G1 X119.967 Y131.074 E-.2718
G1 X119.603 Y131.236 E-.0946
;WIPE_END
G1 X114.134 Y132.936 F9000
G1 E.8 F1800
G1 F1200
G1 X113.421 Y133.06 E.01929
G1 X112.285 Y133.2 E.0305
G1 X111.144 Y133.284 E.03049
G1 X110 Y133.312 E.0305
G1 X109.277 Y133.294 E.01927
G1 X109.671 Y132.928 E.01433
G1 X110 Y132.936 E.00877
G1 X111.125 Y132.909 E.02999
G1 X112.248 Y132.826 E.03001
G1 X113.365 Y132.688 E.03
G1 X113.69 Y132.632 E.00879
G1 X114.084 Y132.902 E.01273
;WIPE_START
G1 F7200
G1 X113.421 Y133.06 E-.16187
G1 X112.285 Y133.2 E-.27184
G1 X111.144 Y133.284 E-.27172
G1 X110.746 Y133.294 E-.09457
;WIPE_END
G1 X100.417 Y131.244 F9000
G1 E.8 F1800
G1 F1200
G1 X100.922 Y131.057 E.01435
G1 X101.223 Y131.19 E.00877
G1 X102.273 Y131.595 E.02999
G1 X103.342 Y131.948 E.03
G1 X104.427 Y132.249 E.03001
G1 X104.748 Y132.321 E.00877
G1 X105.042 Y132.772 E.01435
G1 X104.336 Y132.613 E.01929
G1 X103.233 Y132.308 E.0305
G1 X102.146 Y131.949 E.03051
G1 X101.079 Y131.538 E.03047
G1 X100.472 Y131.269 E.01769
;WIPE_START
G1 F7200
G1 X100.922 Y131.057 E-.11814
G1 X101.223 Y131.19 E-.07816
G1 X102.273 Y131.595 E-.26728
G1 X103.342 Y131.948 E-.26737
G1 X103.622 Y132.026 E-.06905
;WIPE_END
G1 X93.017 Y125.96 F9000
G1 E.8 F1800
G1 F1200
G1 X93.555 Y125.98 E.01435
G1 X94.597 Y126.995 E.03877
G1 X95.449 Y127.73 E.02999
G1 X96.337 Y128.422 E.03
G1 X96.606 Y128.612 E.00878
G1 X96.705 Y129.141 E.01434
G1 X96.113 Y128.724 E.0193
G1 X95.211 Y128.02 E.03049
G1 X94.345 Y127.273 E.03048
G1 X93.516 Y126.484 E.0305
G1 X93.058 Y126.003 E.0177
;WIPE_START
G1 F7200
G1 X93.555 Y125.98 E-.11816
G1 X94.597 Y126.995 E-.34548
G1 X95.449 Y127.73 E-.26724
G1 X95.679 Y127.909 E-.06912
;WIPE_END
G1 X88.202 Y118.246 F9000
G1 E.8 F1800
G1 F1200
G1 X88.691 Y118.47 E.01433
G1 X88.81 Y118.777 E.00878
G1 X89.266 Y119.806 E.03
G1 X89.772 Y120.812 E.03001
G1 X90.327 Y121.792 E.03002
G1 X90.503 Y122.07 E.00877
G1 X90.392 Y122.596 E.01433
G1 X90.005 Y121.985 E.01928
G1 X89.441 Y120.989 E.0305
G1 X88.926 Y119.967 E.0305
G1 X88.462 Y118.921 E.0305
G1 X88.224 Y118.302 E.01767
;WIPE_START
G1 F7200
G1 X88.691 Y118.47 E-.11787
G1 X88.81 Y118.777 E-.0782
G1 X89.266 Y119.806 E-.26731
G1 X89.772 Y120.812 E-.26745
G1 X89.916 Y121.065 E-.06917
;WIPE_END
G1 X86.706 Y109.277 F9000
G1 E.8 F1800
G1 F1200
G1 X87.072 Y109.671 E.01433
G1 X87.064 Y110 E.00877
G1 X87.091 Y111.125 E.02999
G1 X87.174 Y112.248 E.03001
G1 X87.312 Y113.365 E.03
G1 X87.368 Y113.69 E.00879
G1 X87.064 Y114.134 E.01434
G1 X86.94 Y113.421 E.01929
G1 X86.8 Y112.285 E.0305
G1 X86.716 Y111.144 E.03049
G1 X86.688 Y110 E.0305
G1 X86.704 Y109.337 E.01767
;WIPE_START
G1 F7200
G1 X87.072 Y109.671 E-.11803
G1 X87.064 Y110 E-.07816
G1 X87.091 Y111.125 E-.26726
G1 X87.174 Y112.248 E-.26744
G1 X87.21 Y112.537 E-.06911
;WIPE_END
G1 X88.756 Y100.417 F9000
G1 E.8 F1800
G1 F1200
G1 X88.943 Y100.922 E.01435
G1 X88.81 Y101.223 E.00877
G1 X88.405 Y102.273 E.02999
G1 X88.052 Y103.342 E.03
G1 X87.751 Y104.427 E.03001
G1 X87.679 Y104.748 E.00877
G1 X87.228 Y105.042 E.01435
G1 X87.387 Y104.336 E.01929
G1 X87.692 Y103.233 E.0305
G1 X88.051 Y102.146 E.03051
G1 X88.462 Y101.079 E.03047
G1 X88.731 Y100.472 E.01769
;WIPE_START
G1 F7200
G1 X88.943 Y100.922 E-.11814
G1 X88.81 Y101.223 E-.07816
G1 X88.405 Y102.273 E-.26728
G1 X88.052 Y103.342 E-.26737
G1 X87.974 Y103.622 E-.06905
;WIPE_END
G1 X94.04 Y93.017 F9000
G1 E.8 F1800
G1 F1200
G1 X94.02 Y93.555 E.01435
G1 X93.005 Y94.597 E.03877
G1 X92.27 Y95.449 E.02999
G1 X91.388 Y96.606 E.03877
G1 X90.859 Y96.705 E.01434
G1 X91.276 Y96.113 E.0193
G1 X91.98 Y95.211 E.03049
G1 X92.727 Y94.345 E.03048
G1 X93.516 Y93.516 E.0305
G1 X93.997 Y93.058 E.0177
;WIPE_START
G1 F7200
G1 X94.02 Y93.555 E-.11816
G1 X93.005 Y94.597 E-.34548
