; generated by PrusaSlicer 2.6.1+win64 on 2024-01-25 at 15:00:41 UTC

; 

; external perimeters extrusion width = 0.42mm
; perimeters extrusion width = 0.44mm
; infill extrusion width = 0.44mm
; solid infill extrusion width = 0.44mm
; top infill extrusion width = 0.40mm
; support material extrusion width = 0.36mm
; first layer extrusion width = 0.42mm

; external perimeters extrusion width = 0.42mm
; perimeters extrusion width = 0.44mm
; infill extrusion width = 0.44mm
; solid infill extrusion width = 0.44mm
; top infill extrusion width = 0.40mm
; support material extrusion width = 0.36mm
; first layer extrusion width = 0.42mm

M201 X500 Y500 Z100 E5000 ; sets maximum accelerations, mm/sec^2
M203 X500 Y500 Z10 E60 ; sets maximum feedrates, mm / sec
M204 S500 T1000 ; sets acceleration (S) and retract acceleration (R), mm/sec^2
M205 X8.00 Y8.00 Z0.40 E5.00 ; sets the jerk limits, mm/sec
M205 S0 T0 ; sets the minimum extruding and travel feed rate, mm/sec
;TYPE:Custom
G90 ; use absolute coordinates
M83 ; extruder relative mode
M104 S150 ; set temporary nozzle temp to prevent oozing during homing
M140 S60 ; set final bed temp
G4 S30 ; allow partial nozzle warmup
G28 ; home all axis and restore leveling
G1 Z50 F240
G1 X2.0 Y10 F3000
M104 S215 ; set final nozzle temp
M190 S60 ; wait for bed temp to stabilize
M109 S215 ; wait for nozzle temp to stabilize
G1 Z0.28 F240
G92 E0
G1 X2.0 Y140 E10 F1500 ; prime the nozzle
G1 X2.3 Y140 F5000
G92 E0
G1 X2.3 Y10 E10 F1200 ; prime the nozzle
G92 E0
G21 ; set units to millimeters
G90 ; use absolute coordinates
M83 ; use relative distances for extrusion
; Filament gcode
M107
;LAYER_CHANGE
;Z:0.2
;HEIGHT:0.2
;BEFORE_LAYER_CHANGE
G92 E0
;0.2


G1 E-.8 F1800
G1 Z.2 F9000
;AFTER_LAYER_CHANGE
;0.2
G1 X66.817 Y73.877
G1 E.8 F1800
M204 S500
;TYPE:Skirt/Brim
;WIDTH:0.42
G1 F1200
G1 X67.961 Y72.881 E.04043
G1 X69.11 Y71.987 E.0388
G1 X71.245 Y70.562 E.06841
G1 X73.463 Y69.364 E.06718
G1 X74.841 Y68.746 E.04025
G1 X77.21 Y67.887 E.06716
G1 X78.611 Y67.491 E.0388
G1 X80.084 Y67.16 E.04024
G1 X82.466 Y66.801 E.0642
G1 X83.971 Y66.683 E.04023
G1 X86.492 Y66.672 E.06719
G1 X89.449 Y66.957 E.07917
G1 X90.765 Y67.189 E.03561
G1 X93.103 Y67.769 E.0642
G1 X95.793 Y68.718 E.07602
G1 X98.229 Y69.867 E.07178
G1 X147.823 Y98.821 E1.5305
G1 X150.215 Y100.43 E.07683
G1 X152.403 Y102.233 E.07556
G1 X153.563 Y103.346 E.04284
G1 X155.41 Y105.404 E.0737
G1 X157.121 Y107.724 E.07683
G1 X158.6 Y110.209 E.07707
G1 X159.806 Y112.774 E.07554
G1 X160.784 Y115.527 E.07786
G1 X161.477 Y118.326 E.07685
G1 X161.893 Y121.188 E.07708
G1 X162.025 Y124.019 E.07553
G1 X161.876 Y126.937 E.07787
G1 X161.445 Y129.788 E.07685
G1 X160.733 Y132.591 E.07708
G1 X159.773 Y135.257 E.07552
G1 X158.517 Y137.896 E.07789
G1 X157.028 Y140.365 E.07684
G1 X155.298 Y142.683 E.07709
G1 X153.391 Y144.778 E.0755
G1 X151.221 Y146.736 E.0779
G1 X150.082 Y147.62 E.03843
G1 X147.823 Y149.13 E.07242
G1 X145.02 Y150.62 E.0846
G1 X142.615 Y151.61 E.06931
G1 X141.097 Y152.111 E.0426
G1 X138.461 Y152.771 E.07242
G1 X136.878 Y153.046 E.04282
G1 X135.437 Y153.219 E.03868
G1 X132.606 Y153.352 E.07553
G1 X131.123 Y153.312 E.03954
G1 X128.421 Y153.046 E.07236
G1 X125.431 Y152.451 E.08125
G1 X124.033 Y152.06 E.03869
G1 X121.368 Y151.099 E.0755
G1 X118.728 Y149.844 E.0779
G1 X116.297 Y148.38 E.07563
G1 X70.079 Y116.744 E1.49269
G1 X68.141 Y115.314 E.06419
G1 X66.993 Y114.333 E.04024
G1 X65.203 Y112.558 E.06718
G1 X64.208 Y111.414 E.04041
G1 X63.313 Y110.265 E.03882
G1 X61.889 Y108.129 E.06842
G1 X60.691 Y105.911 E.06718
G1 X60.073 Y104.534 E.04023
G1 X59.213 Y102.164 E.06719
G1 X58.818 Y100.763 E.03879
G1 X58.486 Y99.291 E.04022
G1 X58.11 Y96.744 E.06862
G1 X57.976 Y94.227 E.06718
G1 X58.006 Y92.718 E.04022
G1 X58.104 Y91.37 E.03602
G1 X58.485 Y88.765 E.07016
G1 X58.787 Y87.408 E.03705
G1 X59.508 Y84.992 E.0672
G1 X60.045 Y83.582 E.04021
G1 X61.113 Y81.298 E.0672
G1 X62.631 Y78.752 E.079
G1 X64.061 Y76.814 E.06419
G1 X65.042 Y75.667 E.04022
G1 X66.775 Y73.919 E.0656
; printing object test-stagejoiner5F.stl id:0 copy 0
;WIPE_START
G1 F7200
G1 X67.961 Y72.881 E-.37432
G1 X69.11 Y71.987 E-.34576
G1 X69.39 Y71.8 E-.07992
;WIPE_END
G1 X116.321 Y106.755 F9000
G1 E.8 F1800
;TYPE:Perimeter
G1 F1200
G1 X116.326 Y106.617 E.00368
G1 X117.542 Y105.567 E.04282
G1 X118.464 Y104.848 E.03116
G1 X119.777 Y103.923 E.0428
G1 X120.508 Y104.078 E.01992
G1 X121.659 Y103.415 E.0354
G1 X122.682 Y102.9 E.03052
G1 X123.9 Y102.37 E.0354
G1 X124.211 Y101.692 E.01988
G1 X125.736 Y101.187 E.04281
G1 X126.863 Y100.876 E.03116
G1 X128.431 Y100.524 E.04283
G1 X129.046 Y100.946 E.01988
G1 X130.364 Y100.774 E.03542
G1 X131.505 Y100.69 E.03049
G1 X132.834 Y100.667 E.03542
G1 X133.381 Y100.159 E.0199
G1 X134.983 Y100.277 E.04281
G1 X136.143 Y100.42 E.03115
G1 X137.726 Y100.695 E.04282
G1 X138.133 Y101.32 E.01988
G1 X139.417 Y101.666 E.03544
G1 X140.503 Y102.025 E.03048
G1 X141.74 Y102.512 E.03543
G1 X142.44 Y102.252 E.0199
G1 X143.875 Y102.974 E.04281
G1 X144.892 Y103.55 E.03115
G1 X146.249 Y104.41 E.04282
G1 X146.386 Y105.144 E.0199
G1 X147.439 Y105.954 E.03541
G1 X148.305 Y106.701 E.03048
G1 X149.262 Y107.624 E.03543
G1 X150.008 Y107.652 E.0199
G1 X151.057 Y108.868 E.0428
G1 X151.776 Y109.79 E.03116
G1 X152.701 Y111.104 E.04283
G1 X152.547 Y111.834 E.01988
G1 X153.21 Y112.986 E.03542
G1 X153.724 Y114.008 E.03049
G1 X154.255 Y115.226 E.03541
G1 X154.933 Y115.537 E.01988
G1 X155.437 Y117.063 E.04283
G1 X155.749 Y118.189 E.03114
G1 X156.101 Y119.757 E.04283
G1 X155.679 Y120.372 E.01988
G1 X155.85 Y121.69 E.03542
G1 X155.934 Y122.832 E.03052
G1 X155.958 Y124.16 E.0354
G1 X156.466 Y124.707 E.0199
G1 X156.348 Y126.31 E.04284
G1 X156.205 Y127.47 E.03115
G1 X155.93 Y129.053 E.04282
G1 X155.304 Y129.46 E.0199
G1 X154.959 Y130.743 E.03541
G1 X154.6 Y131.829 E.03048
G1 X154.113 Y133.066 E.03543
G1 X154.373 Y133.766 E.0199
G1 X153.651 Y135.201 E.04281
G1 X153.075 Y136.218 E.03115
G1 X152.215 Y137.575 E.04282
G1 X151.481 Y137.712 E.0199
G1 X150.671 Y138.765 E.03541
G1 X149.923 Y139.632 E.03052
G1 X149 Y140.588 E.03542
G1 X148.973 Y141.334 E.01989
G1 X147.756 Y142.383 E.04282
G1 X146.835 Y143.103 E.03116
G1 X145.521 Y144.028 E.04283
G1 X144.791 Y143.873 E.01989
G1 X143.639 Y144.536 E.03542
G1 X142.617 Y145.05 E.03049
G1 X141.398 Y145.581 E.03544
G1 X141.087 Y146.259 E.01988
G1 X139.562 Y146.763 E.04281
G1 X138.435 Y147.075 E.03117
G1 X136.868 Y147.427 E.0428
G1 X136.252 Y147.005 E.0199
G1 X134.934 Y147.176 E.03542
G1 X133.793 Y147.261 E.03049
G1 X132.464 Y147.284 E.03542
G1 X131.917 Y147.792 E.0199
G1 X130.315 Y147.674 E.04281
G1 X129.155 Y147.531 E.03115
G1 X127.572 Y147.256 E.04282
G1 X127.165 Y146.631 E.01988
G1 X125.882 Y146.285 E.03542
G1 X124.795 Y145.926 E.03051
G1 X123.558 Y145.439 E.03543
G1 X122.859 Y145.699 E.01988
G1 X121.424 Y144.977 E.04281
G1 X120.407 Y144.401 E.03115
G1 X119.049 Y143.541 E.04284
G1 X118.913 Y142.807 E.01989
G1 X117.859 Y141.997 E.03543
G1 X116.993 Y141.249 E.0305
G1 X116.037 Y140.326 E.03542
G1 X115.291 Y140.299 E.01989
G1 X114.241 Y139.083 E.04282
G1 X113.522 Y138.161 E.03116
G1 X112.597 Y136.847 E.04283
G1 X112.752 Y136.117 E.01989
G1 X112.089 Y134.965 E.03542
G1 X111.574 Y133.943 E.0305
G1 X111.044 Y132.724 E.03543
G1 X110.365 Y132.414 E.01989
G1 X109.861 Y130.888 E.04283
G1 X109.549 Y129.762 E.03114
G1 X109.198 Y128.194 E.04282
G1 X109.62 Y127.578 E.0199
G1 X109.448 Y126.261 E.0354
G1 X109.364 Y125.119 E.03052
G1 X109.34 Y123.79 E.03543
G1 X108.832 Y123.244 E.01988
G1 X108.95 Y121.641 E.04284
G1 X109.094 Y120.481 E.03115
G1 X109.368 Y118.898 E.04282
G1 X109.994 Y118.491 E.0199
G1 X110.34 Y117.208 E.03542
G1 X110.699 Y116.121 E.03051
G1 X111.186 Y114.885 E.03541
G1 X110.925 Y114.185 E.01991
G1 X111.648 Y112.75 E.04282
G1 X112.224 Y111.733 E.03115
G1 X113.083 Y110.376 E.0428
G1 X113.817 Y110.239 E.0199
G1 X114.628 Y109.186 E.03542
G1 X115.375 Y108.319 E.0305
G1 X116.298 Y107.363 E.03542
G1 X116.318 Y106.815 E.01461
G1 X116.694 Y106.862 F9000
G1 F1200
G1 X116.696 Y106.795 E.00179
G1 X117.781 Y105.859 E.03819
G1 X118.688 Y105.151 E.03067
G1 X119.86 Y104.326 E.0382
G1 X120.58 Y104.479 E.01962
G1 X121.837 Y103.748 E.03875
G1 X122.843 Y103.241 E.03002
G1 X123.872 Y102.785 E.03
G1 X124.179 Y102.667 E.00877
G1 X124.485 Y101.998 E.01961
G1 X125.846 Y101.548 E.0382
G1 X126.955 Y101.242 E.03066
G1 X128.353 Y100.928 E.03819
G1 X128.959 Y101.344 E.01959
G1 X129.284 Y101.288 E.00879
G1 X130.401 Y101.15 E.03
G1 X131.524 Y101.067 E.03001
G1 X132.649 Y101.039 E.02999
G1 X132.978 Y101.047 E.00877
G1 X133.517 Y100.547 E.01959
G1 X134.946 Y100.652 E.03819
G1 X136.088 Y100.793 E.03067
G1 X137.5 Y101.038 E.03819
G1 X137.901 Y101.655 E.01961
G1 X138.222 Y101.727 E.00877
G1 X139.307 Y102.027 E.03
G1 X140.376 Y102.38 E.03
G1 X141.727 Y102.919 E.03877
G1 X142.417 Y102.662 E.01962
G1 X143.697 Y103.306 E.03819
G1 X144.698 Y103.874 E.03067
G1 X145.908 Y104.64 E.03817
G1 X146.043 Y105.363 E.0196
G1 X147.2 Y106.246 E.03879
G1 X148.052 Y106.981 E.02999
G1 X149.095 Y107.996 E.03879
G1 X149.83 Y108.023 E.0196
G1 X150.766 Y109.108 E.03819
G1 X151.473 Y110.015 E.03065
G1 X152.298 Y111.186 E.03818
G1 X152.146 Y111.906 E.01961
G1 X152.877 Y113.163 E.03875
G1 X153.383 Y114.169 E.03001
G1 X153.839 Y115.198 E.03
G1 X153.958 Y115.505 E.00878
G1 X154.627 Y115.812 E.01962
G1 X155.076 Y117.172 E.03817
G1 X155.383 Y118.281 E.03067
G1 X155.697 Y119.679 E.03819
G1 X155.281 Y120.286 E.01961
G1 X155.337 Y120.61 E.00876
G1 X155.475 Y121.727 E.03
G1 X155.558 Y122.85 E.03001
G1 X155.585 Y123.975 E.02999
G1 X155.577 Y124.305 E.0088
G1 X156.078 Y124.843 E.01959
G1 X155.973 Y126.273 E.03821
G1 X155.832 Y127.414 E.03064
G1 X155.587 Y128.826 E.03819
G1 X154.97 Y129.227 E.01961
G1 X154.598 Y130.633 E.03876
G1 X154.245 Y131.702 E.03
G1 X153.706 Y133.054 E.03879
G1 X153.962 Y133.743 E.01959
G1 X153.318 Y135.023 E.03819
G1 X152.751 Y136.024 E.03066
G1 X151.984 Y137.235 E.0382
G1 X151.261 Y137.369 E.0196
G1 X151.072 Y137.639 E.00878
G1 X150.379 Y138.526 E.03
G1 X149.644 Y139.378 E.02999
G1 X148.867 Y140.194 E.03003
G1 X148.629 Y140.421 E.00877
G1 X148.602 Y141.156 E.0196
G1 X147.517 Y142.092 E.03819
G1 X146.61 Y142.8 E.03067
G1 X145.438 Y143.625 E.0382
G1 X144.719 Y143.472 E.01959
G1 X144.441 Y143.648 E.00877
G1 X143.461 Y144.203 E.03002
G1 X142.456 Y144.709 E.02999
G1 X141.426 Y145.166 E.03003
G1 X141.119 Y145.284 E.00877
G1 X140.813 Y145.953 E.01961
G1 X139.452 Y146.403 E.0382
G1 X138.344 Y146.709 E.03063
G1 X136.946 Y147.023 E.03819
G1 X136.339 Y146.607 E.01961
G1 X136.015 Y146.663 E.00876
G1 X134.897 Y146.801 E.03002
G1 X133.775 Y146.884 E.02998
G1 X132.649 Y146.912 E.03002
G1 X132.32 Y146.903 E.00877
G1 X131.781 Y147.404 E.01961
G1 X130.352 Y147.299 E.03819
G1 X129.21 Y147.158 E.03067
G1 X127.798 Y146.913 E.03819
G1 X127.397 Y146.296 E.01961
G1 X125.991 Y145.924 E.03876
G1 X124.922 Y145.571 E.03
G1 X123.571 Y145.032 E.03877
G1 X122.881 Y145.289 E.01962
G1 X121.601 Y144.644 E.0382
G1 X120.601 Y144.077 E.03064
G1 X119.39 Y143.311 E.03819
G1 X119.255 Y142.587 E.01963
G1 X118.986 Y142.398 E.00876
G1 X118.099 Y141.705 E.03
G1 X117.246 Y140.97 E.03001
G1 X116.204 Y139.955 E.03877
G1 X115.469 Y139.928 E.0196
G1 X114.533 Y138.843 E.03819
G1 X113.825 Y137.936 E.03067
G1 X113 Y136.765 E.03818
G1 X113.152 Y136.045 E.01961
G1 X112.421 Y134.787 E.03878
G1 X111.915 Y133.782 E.02999
G1 X111.459 Y132.753 E.03
G1 X111.341 Y132.446 E.00877
G1 X110.672 Y132.139 E.01962
G1 X110.222 Y130.779 E.03818
G1 X109.915 Y129.67 E.03067
G1 X109.602 Y128.272 E.03818
G1 X110.018 Y127.665 E.01961
G1 X109.961 Y127.341 E.00877
G1 X109.824 Y126.224 E.02999
G1 X109.741 Y125.101 E.03001
G1 X109.713 Y123.975 E.03002
G1 X109.721 Y123.646 E.00877
G1 X109.221 Y123.107 E.01959
G1 X109.326 Y121.678 E.03819
G1 X109.467 Y120.537 E.03064
G1 X109.712 Y119.125 E.03819
G1 X110.328 Y118.724 E.01959
G1 X110.701 Y117.317 E.03879
G1 X111.054 Y116.248 E.03
G1 X111.592 Y114.897 E.03876
G1 X111.336 Y114.208 E.01959
G1 X111.98 Y112.928 E.03819
G1 X112.547 Y111.927 E.03066
G1 X113.314 Y110.716 E.0382
G1 X114.037 Y110.582 E.0196
G1 X114.919 Y109.425 E.03877
G1 X115.655 Y108.572 E.03003
G1 X116.669 Y107.53 E.03875
G1 X116.692 Y106.922 E.01622
G1 X117.148 Y106.904 F9000
;TYPE:External perimeter
G1 F1200
G1 X118.021 Y106.151 E.03073
G1 X118.913 Y105.454 E.03017
G1 X119.943 Y104.729 E.03357
G1 X120.652 Y104.879 E.01931
G1 X121.052 Y104.626 E.01261
G1 X122.015 Y104.08 E.0295
G1 X123.004 Y103.582 E.02951
G1 X124.016 Y103.134 E.0295
G1 X124.458 Y102.963 E.01263
G1 X124.76 Y102.304 E.01932
G1 X125.956 Y101.909 E.03357
G1 X127.046 Y101.607 E.03014
G1 X128.275 Y101.332 E.03356
G1 X128.873 Y101.742 E.01932
G1 X129.339 Y101.661 E.01261
G1 X130.438 Y101.525 E.02951
G1 X131.542 Y101.444 E.0295
G1 X132.649 Y101.417 E.02951
G1 X133.123 Y101.428 E.01264
G1 X133.653 Y100.935 E.01929
G1 X134.909 Y101.027 E.03356
G1 X136.033 Y101.166 E.03018
G1 X137.273 Y101.381 E.03354
G1 X137.669 Y101.989 E.01934
G1 X138.131 Y102.093 E.01262
G1 X139.198 Y102.388 E.0295
G1 X140.249 Y102.735 E.0295
G1 X141.282 Y103.134 E.02951
G1 X141.715 Y103.326 E.01262
G1 X142.394 Y103.073 E.01931
G1 X143.519 Y103.639 E.03356
G1 X144.504 Y104.197 E.03017
G1 X145.568 Y104.871 E.03357
G1 X145.7 Y105.583 E.0193
G1 X146.088 Y105.856 E.01264
G1 X146.96 Y106.537 E.02949
G1 X147.799 Y107.26 E.02952
G1 X148.601 Y108.024 E.02952
G1 X148.927 Y108.367 E.01261
G1 X149.651 Y108.393 E.01931
G1 X150.474 Y109.347 E.03358
G1 X151.17 Y110.239 E.03015
G1 X151.895 Y111.269 E.03357
G1 X151.745 Y111.978 E.01931
G1 X151.999 Y112.378 E.01263
G1 X152.544 Y113.341 E.02949
G1 X153.042 Y114.33 E.02951
G1 X153.491 Y115.343 E.02953
G1 X153.661 Y115.784 E.0126
G1 X154.32 Y116.086 E.01932
G1 X154.715 Y117.282 E.03357
G1 X155.017 Y118.373 E.03017
G1 X155.293 Y119.601 E.03354
G1 X154.883 Y120.199 E.01932
G1 X154.964 Y120.665 E.01261
G1 X155.1 Y121.764 E.02951
G1 X155.181 Y122.869 E.02953
G1 X155.208 Y123.975 E.02948
G1 X155.197 Y124.449 E.01264
G1 X155.69 Y124.98 E.01931
G1 X155.597 Y126.236 E.03357
G1 X155.459 Y127.359 E.03015
G1 X155.243 Y128.6 E.03357
G1 X154.636 Y128.995 E.0193
G1 X154.532 Y129.457 E.01262
G1 X154.237 Y130.524 E.0295
G1 X153.889 Y131.575 E.02951
G1 X153.491 Y132.608 E.0295
G1 X153.299 Y133.041 E.01262
G1 X153.552 Y133.721 E.01934
G1 X152.986 Y134.845 E.03354
G1 X152.428 Y135.83 E.03017
G1 X151.754 Y136.894 E.03357
G1 X151.041 Y137.027 E.01933
G1 X150.769 Y137.414 E.01261
G1 X150.087 Y138.287 E.02952
G1 X149.364 Y139.125 E.0295
G1 X148.601 Y139.927 E.0295
G1 X148.258 Y140.253 E.01261
G1 X148.231 Y140.978 E.01934
G1 X147.278 Y141.8 E.03354
G1 X146.385 Y142.497 E.03019
G1 X145.356 Y143.222 E.03355
G1 X144.647 Y143.072 E.01931
G1 X144.247 Y143.325 E.01261
G1 X143.283 Y143.871 E.02953
G1 X142.294 Y144.368 E.0295
G1 X141.282 Y144.817 E.02951
G1 X140.84 Y144.988 E.01263
G1 X140.539 Y145.646 E.01928
G1 X139.343 Y146.042 E.03358
G1 X138.252 Y146.343 E.03016
G1 X137.023 Y146.619 E.03357
G1 X136.426 Y146.209 E.0193
G1 X135.959 Y146.29 E.01263
G1 X134.86 Y146.426 E.02951
G1 X133.756 Y146.507 E.0295
G1 X132.649 Y146.534 E.02951
G1 X132.176 Y146.523 E.01261
G1 X131.645 Y147.016 E.01931
G1 X130.389 Y146.923 E.03357
G1 X129.266 Y146.785 E.03015
G1 X128.025 Y146.569 E.03357
G1 X127.63 Y145.962 E.0193
G1 X127.168 Y145.858 E.01262
G1 X126.101 Y145.563 E.0295
G1 X125.049 Y145.216 E.02952
G1 X124.016 Y144.817 E.02951
G1 X123.583 Y144.625 E.01262
G1 X122.904 Y144.878 E.01931
G1 X121.779 Y144.312 E.03356
G1 X120.794 Y143.754 E.03017
G1 X119.731 Y143.08 E.03354
G1 X119.598 Y142.368 E.0193
G1 X119.211 Y142.095 E.01262
G1 X118.338 Y141.414 E.02951
G1 X117.5 Y140.691 E.0295
G1 X116.698 Y139.927 E.02952
G1 X116.371 Y139.584 E.01263
G1 X115.647 Y139.557 E.01931
G1 X114.824 Y138.604 E.03356
G1 X114.128 Y137.712 E.03015
G1 X113.403 Y136.682 E.03357
G1 X113.553 Y135.973 E.01931
G1 X113.3 Y135.573 E.01261
G1 X112.754 Y134.61 E.0295
G1 X112.256 Y133.621 E.02951
G1 X111.807 Y132.608 E.02953
G1 X111.637 Y132.167 E.0126
G1 X110.978 Y131.865 E.01932
G1 X110.583 Y130.669 E.03357
G1 X110.281 Y129.578 E.03017
G1 X110.005 Y128.35 E.03354
G1 X110.415 Y127.752 E.01932
