; generated by PrusaSlicer 2.6.1+win64 on 2024-01-24 at 17:25:07 UTC

; 

; external perimeters extrusion width = 0.42mm
; perimeters extrusion width = 0.44mm
; infill extrusion width = 0.44mm
; solid infill extrusion width = 0.44mm
; top infill extrusion width = 0.40mm
; support material extrusion width = 0.36mm
; first layer extrusion width = 0.42mm

; external perimeters extrusion width = 0.42mm
; perimeters extrusion width = 0.44mm
; infill extrusion width = 0.44mm
; solid infill extrusion width = 0.44mm
; top infill extrusion width = 0.40mm
; support material extrusion width = 0.36mm
; first layer extrusion width = 0.42mm

M201 X500 Y500 Z100 E5000 ; sets maximum accelerations, mm/sec^2
M203 X500 Y500 Z10 E60 ; sets maximum feedrates, mm / sec
M204 S500 T1000 ; sets acceleration (S) and retract acceleration (R), mm/sec^2
M205 X8.00 Y8.00 Z0.40 E5.00 ; sets the jerk limits, mm/sec
M205 S0 T0 ; sets the minimum extruding and travel feed rate, mm/sec
;TYPE:Custom
G90 ; use absolute coordinates
M83 ; extruder relative mode
M104 S150 ; set temporary nozzle temp to prevent oozing during homing
M140 S60 ; set final bed temp
G4 S30 ; allow partial nozzle warmup
G28 ; home all axis and restore leveling
G1 Z50 F240
G1 X2.0 Y10 F3000
M104 S215 ; set final nozzle temp
M190 S60 ; wait for bed temp to stabilize
M109 S215 ; wait for nozzle temp to stabilize
G1 Z0.28 F240
G92 E0
G1 X2.0 Y140 E10 F1500 ; prime the nozzle
G1 X2.3 Y140 F5000
G92 E0
G1 X2.3 Y10 E10 F1200 ; prime the nozzle
G92 E0
G21 ; set units to millimeters
G90 ; use absolute coordinates
M83 ; use relative distances for extrusion
; Filament gcode
M107
;LAYER_CHANGE
;Z:0.2
;HEIGHT:0.2
;BEFORE_LAYER_CHANGE
G92 E0
;0.2


G1 E-.8 F1800
G1 Z.2 F9000
;AFTER_LAYER_CHANGE
;0.2
G1 X66.683 Y81.587
G1 E.8 F1800
M204 S500
;TYPE:Skirt/Brim
;WIDTH:0.42
G1 F1200
G1 X68.708 Y80.085 E.06719
G1 X69.983 Y79.277 E.04023
G1 X72.206 Y78.089 E.06718
G1 X73.586 Y77.477 E.04023
G1 X76.118 Y76.58 E.07159
G1 X78.564 Y75.968 E.0672
G1 X80.051 Y75.709 E.04023
G1 X82.56 Y75.462 E.06719
G1 X84.069 Y75.425 E.04023
G1 X86.587 Y75.549 E.06719
G1 X87.921 Y75.71 E.03581
G1 X90.718 Y76.266 E.076
G1 X143.882 Y90.979 E1.47014
G1 X146.414 Y91.876 E.07159
G1 X148.846 Y93.017 E.07159
G1 X151.154 Y94.391 E.07159
G1 X153.317 Y95.985 E.07161
G1 X155.313 Y97.783 E.0716
G1 X157.123 Y99.768 E.07159
G1 X158.73 Y101.921 E.0716
G1 X160.118 Y104.221 E.07159
G1 X161.274 Y106.647 E.07162
G1 X162.187 Y109.173 E.07158
G1 X162.848 Y111.777 E.0716
G1 X163.25 Y114.434 E.07162
G1 X163.39 Y117.116 E.07158
G1 X163.266 Y119.8 E.07161
G1 X162.88 Y122.459 E.07161
G1 X162.235 Y125.067 E.0716
G1 X161.338 Y127.599 E.07159
G1 X160.196 Y130.031 E.07161
G1 X158.822 Y132.339 E.07159
G1 X157.228 Y134.502 E.07161
G1 X155.313 Y136.615 E.076
G1 X153.445 Y138.308 E.06719
G1 X152.388 Y139.138 E.03582
G1 X150.017 Y140.723 E.07601
G1 X147.794 Y141.911 E.06718
G1 X146.567 Y142.459 E.03581
G1 X143.882 Y143.42 E.076
G1 X141.436 Y144.032 E.0672
G1 X140.113 Y144.266 E.03581
G1 X137.275 Y144.546 E.076
G1 X134.754 Y144.546 E.06719
G1 X133.249 Y144.435 E.04022
G1 X130.755 Y144.065 E.0672
G1 X129.282 Y143.734 E.04024
G1 X75.96 Y128.973 E1.47454
G1 X73.586 Y128.124 E.06719
G1 X71.154 Y126.983 E.07159
G1 X68.845 Y125.609 E.07161
G1 X66.683 Y124.015 E.07159
G1 X65.54 Y123.029 E.04023
G1 X63.757 Y121.246 E.0672
G1 X62.772 Y120.103 E.04021
G1 X61.178 Y117.941 E.07159
G1 X59.882 Y115.778 E.0672
G1 X58.726 Y113.353 E.0716
G1 X58.183 Y111.945 E.04022
G1 X57.451 Y109.533 E.06718
G1 X57.12 Y108.06 E.04024
G1 X56.75 Y105.566 E.0672
G1 X56.639 Y104.061 E.04022
G1 X56.639 Y101.54 E.06719
G1 X56.894 Y98.866 E.07159
G1 X57.152 Y97.379 E.04022
G1 X57.765 Y94.933 E.0672
G1 X58.238 Y93.5 E.04022
G1 X59.203 Y91.171 E.06719
G1 X59.882 Y89.823 E.04023
G1 X61.178 Y87.661 E.06718
G1 X62.047 Y86.427 E.04022
G1 X63.646 Y84.478 E.06719
G1 X64.687 Y83.385 E.04023
G1 X66.638 Y81.627 E.06999
; printing object test-stagejoiner.stl id:0 copy 0
;WIPE_START
G1 F7200
G1 X68.708 Y80.085 E-.61304
G1 X69.373 Y79.664 E-.18696
;WIPE_END
G1 X114.377 Y108.546 F9000
G1 E.8 F1800
;TYPE:External perimeter
G1 F1200
G1 X114.943 Y107.233 E.03811
G1 X115.458 Y106.211 E.0305
G1 X116.021 Y105.216 E.03047
G1 X116.634 Y104.249 E.03051
G1 X117.292 Y103.314 E.03047
G1 X117.996 Y102.412 E.03049
G1 X118.743 Y101.546 E.03048
G1 X119.532 Y100.717 E.0305
G1 X120.361 Y99.928 E.0305
G1 X121.227 Y99.181 E.03048
G1 X122.129 Y98.477 E.03049
G1 X123.065 Y97.818 E.03051
G1 X124.031 Y97.206 E.03048
G1 X125.027 Y96.642 E.0305
G1 X126.048 Y96.128 E.03046
G1 X127.094 Y95.664 E.0305
G1 X128.162 Y95.253 E.0305
G1 X129.248 Y94.894 E.03048
G1 X130.351 Y94.589 E.0305
G1 X131.467 Y94.338 E.03049
G1 X132.594 Y94.142 E.03049
G1 X133.73 Y94.002 E.0305
G1 X134.871 Y93.918 E.03049
G1 X135.899 Y93.893 E.02741
G1 X137.158 Y93.918 E.03356
G1 X138.299 Y94.002 E.03049
G1 X139.435 Y94.142 E.0305
G1 X140.562 Y94.338 E.03049
G1 X141.678 Y94.589 E.03049
G1 X142.781 Y94.894 E.0305
G1 X143.867 Y95.253 E.03048
G1 X144.934 Y95.664 E.03047
G1 X145.98 Y96.128 E.0305
G1 X147.002 Y96.642 E.03049
G1 X147.998 Y97.206 E.0305
G1 X148.964 Y97.818 E.03048
G1 X149.9 Y98.477 E.03051
G1 X150.802 Y99.181 E.03049
G1 X151.668 Y99.928 E.03048
G1 X152.496 Y100.717 E.03048
G1 X153.285 Y101.546 E.0305
G1 X154.033 Y102.412 E.0305
G1 X154.736 Y103.314 E.03048
G1 X155.395 Y104.249 E.03049
G1 X156.007 Y105.216 E.0305
G1 X156.571 Y106.211 E.03048
G1 X157.086 Y107.233 E.0305
G1 X157.549 Y108.279 E.03049
G1 X157.961 Y109.347 E.03051
G1 X158.32 Y110.433 E.03048
G1 X158.625 Y111.536 E.0305
G1 X158.876 Y112.652 E.03049
G1 X159.071 Y113.779 E.03048
G1 X159.211 Y114.915 E.0305
G1 X159.295 Y116.056 E.03049
G1 X159.324 Y117.199 E.03047
G1 X159.295 Y118.343 E.0305
G1 X159.211 Y119.484 E.03049
G1 X159.071 Y120.619 E.03048
G1 X158.876 Y121.747 E.03051
G1 X158.625 Y122.863 E.03049
G1 X158.32 Y123.966 E.0305
G1 X157.961 Y125.052 E.03048
G1 X157.549 Y126.119 E.03048
G1 X157.086 Y127.165 E.03049
G1 X156.571 Y128.187 E.0305
G1 X156.007 Y129.183 E.0305
G1 X155.395 Y130.149 E.03048
G1 X154.736 Y131.084 E.03049
G1 X154.033 Y131.986 E.03048
G1 X153.285 Y132.853 E.03052
G1 X152.496 Y133.681 E.03048
G1 X151.668 Y134.47 E.03048
G1 X150.802 Y135.217 E.03048
G1 X149.9 Y135.921 E.03049
G1 X148.964 Y136.58 E.03051
G1 X147.998 Y137.192 E.03048
G1 X147.002 Y137.756 E.0305
G1 X145.98 Y138.27 E.03049
G1 X144.934 Y138.734 E.0305
G1 X143.867 Y139.146 E.03048
G1 X142.781 Y139.505 E.03048
G1 X141.678 Y139.81 E.0305
G1 X140.562 Y140.06 E.03048
G1 X139.434 Y140.256 E.03051
G1 X138.299 Y140.396 E.03048
G1 X137.158 Y140.48 E.03049
G1 X136.014 Y140.508 E.0305
G1 X134.871 Y140.48 E.03047
G1 X133.73 Y140.396 E.03049
G1 X132.594 Y140.256 E.0305
G1 X131.467 Y140.06 E.03049
G1 X130.351 Y139.81 E.03048
G1 X129.248 Y139.505 E.0305
G1 X128.162 Y139.146 E.03048
G1 X127.094 Y138.734 E.03051
G1 X126.048 Y138.27 E.0305
G1 X125.026 Y137.756 E.03049
G1 X124.031 Y137.192 E.03048
G1 X123.064 Y136.58 E.0305
G1 X122.129 Y135.921 E.03049
G1 X121.227 Y135.217 E.03049
G1 X120.361 Y134.47 E.03048
G1 X119.532 Y133.681 E.0305
G1 X118.743 Y132.853 E.03048
G1 X117.996 Y131.986 E.0305
G1 X117.292 Y131.084 E.03049
G1 X116.633 Y130.149 E.03049
G1 X116.021 Y129.182 E.0305
G1 X115.458 Y128.187 E.03047
G1 X114.943 Y127.165 E.0305
G1 X114.479 Y126.119 E.0305
G1 X114.068 Y125.052 E.03047
G1 X113.709 Y123.965 E.03051
G1 X113.404 Y122.863 E.03047
G1 X113.153 Y121.747 E.03049
G1 X112.957 Y120.619 E.03051
G1 X112.817 Y119.484 E.03048
G1 X112.733 Y118.343 E.03049
G1 X112.705 Y117.199 E.0305
G1 X112.733 Y116.055 E.0305
G1 X112.817 Y114.915 E.03046
G1 X112.957 Y113.779 E.0305
G1 X113.153 Y112.652 E.03049
G1 X113.404 Y111.536 E.03049
G1 X113.709 Y110.433 E.0305
G1 X114.068 Y109.347 E.03048
G1 X114.355 Y108.602 E.02128
G1 X114.131 Y108.23 F9000
;WIPE_START
G1 F7200
G1 X114.943 Y107.233 E-.35386
G1 X115.458 Y106.211 E-.2718
G1 X115.819 Y105.572 E-.17434
;WIPE_END
G1 X159.697 Y116.918 F9000
G1 E.8 F1800
G1 F1200
G1 X159.675 Y118.362 E.03849
G1 X159.59 Y119.521 E.03097
G1 X159.447 Y120.675 E.03099
G1 X159.248 Y121.821 E.031
G1 X158.994 Y122.955 E.03097
G1 X158.684 Y124.076 E.031
G1 X158.319 Y125.18 E.03099
G1 X157.9 Y126.265 E.031
G1 X157.429 Y127.328 E.03099
G1 X156.906 Y128.366 E.03098
G1 X156.333 Y129.378 E.03099
G1 X155.711 Y130.36 E.03098
G1 X155.042 Y131.311 E.03099
G1 X154.326 Y132.228 E.03101
G1 X153.567 Y133.108 E.03097
G1 X152.765 Y133.95 E.03099
G1 X151.923 Y134.752 E.03099
G1 X151.043 Y135.511 E.03097
G1 X150.126 Y136.227 E.03101
G1 X149.175 Y136.896 E.03099
G1 X148.193 Y137.518 E.03098
G1 X147.181 Y138.091 E.03099
G1 X146.143 Y138.614 E.03098
G1 X145.08 Y139.085 E.03099
G1 X143.995 Y139.504 E.031
G1 X142.891 Y139.868 E.03098
G1 X141.77 Y140.179 E.031
G1 X140.636 Y140.433 E.03097
G1 X139.49 Y140.632 E.031
G1 X138.336 Y140.774 E.03099
G1 X137.177 Y140.86 E.03097
G1 X136.014 Y140.888 E.031
G1 X134.852 Y140.86 E.03098
G1 X133.692 Y140.774 E.031
G1 X132.538 Y140.632 E.03099
G1 X131.393 Y140.433 E.03097
G1 X130.258 Y140.179 E.031
G1 X129.138 Y139.868 E.03098
G1 X128.034 Y139.504 E.03098
G1 X126.949 Y139.085 E.031
G1 X125.886 Y138.614 E.03099
G1 X124.847 Y138.091 E.031
G1 X123.836 Y137.518 E.03097
G1 X122.853 Y136.896 E.031
G1 X121.903 Y136.227 E.03097
G1 X120.986 Y135.511 E.03101
G1 X120.106 Y134.752 E.03097
G1 X119.263 Y133.95 E.03101
G1 X118.462 Y133.108 E.03097
G1 X117.702 Y132.228 E.03099
G1 X116.987 Y131.311 E.03099
G1 X116.317 Y130.36 E.031
G1 X115.695 Y129.378 E.03098
G1 X115.122 Y128.366 E.03099
G1 X114.599 Y127.328 E.03098
G1 X114.128 Y126.265 E.03099
G1 X113.71 Y125.18 E.03099
G1 X113.345 Y124.076 E.03099
G1 X113.035 Y122.955 E.031
G1 X112.78 Y121.821 E.03098
G1 X112.581 Y120.675 E.031
G1 X112.439 Y119.521 E.03099
G1 X112.354 Y118.362 E.03097
G1 X112.325 Y117.199 E.031
G1 X112.354 Y116.037 E.03098
G1 X112.439 Y114.877 E.031
G1 X112.581 Y113.723 E.03099
G1 X112.78 Y112.578 E.03097
G1 X113.035 Y111.443 E.031
G1 X113.345 Y110.323 E.03097
G1 X113.71 Y109.219 E.03099
G1 X114.128 Y108.134 E.03099
G1 X114.6 Y107.071 E.031
G1 X115.122 Y106.032 E.03099
G1 X115.695 Y105.02 E.03099
G1 X116.317 Y104.038 E.03098
G1 X116.987 Y103.087 E.031
G1 X117.702 Y102.171 E.03097
G1 X118.462 Y101.29 E.03101
G1 X119.264 Y100.448 E.03099
G1 X120.106 Y99.647 E.03097
G1 X120.986 Y98.887 E.03099
G1 X121.903 Y98.172 E.03099
G1 X122.853 Y97.502 E.03098
G1 X123.836 Y96.88 E.031
G1 X124.847 Y96.307 E.03097
G1 X125.886 Y95.784 E.031
G1 X126.949 Y95.313 E.03099
G1 X128.034 Y94.895 E.03099
G1 X129.138 Y94.53 E.03099
G1 X130.258 Y94.22 E.03097
G1 X131.393 Y93.965 E.031
G1 X132.538 Y93.766 E.03097
G1 X133.692 Y93.624 E.03099
G1 X134.852 Y93.539 E.031
G1 X136.129 Y93.513 E.03404
G1 X137.177 Y93.538 E.02794
G1 X138.336 Y93.624 E.03097
G1 X139.49 Y93.766 E.03099
G1 X140.636 Y93.965 E.031
G1 X141.77 Y94.22 E.03098
G1 X142.891 Y94.53 E.031
G1 X143.995 Y94.895 E.03099
G1 X145.08 Y95.313 E.03099
G1 X146.143 Y95.784 E.03099
G1 X147.181 Y96.307 E.03098
G1 X148.193 Y96.88 E.03099
G1 X149.175 Y97.502 E.03098
G1 X150.126 Y98.172 E.031
G1 X151.043 Y98.887 E.03099
G1 X151.923 Y99.647 E.03099
G1 X152.765 Y100.448 E.03097
G1 X153.567 Y101.29 E.03099
G1 X154.326 Y102.171 E.03099
G1 X155.042 Y103.088 E.03101
G1 X155.711 Y104.038 E.03097
G1 X156.333 Y105.021 E.031
G1 X156.906 Y106.032 E.03097
G1 X157.429 Y107.071 E.031
G1 X157.9 Y108.134 E.03099
G1 X158.319 Y109.219 E.031
G1 X158.684 Y110.323 E.03099
G1 X158.994 Y111.443 E.03097
G1 X159.248 Y112.578 E.031
G1 X159.447 Y113.723 E.03097
G1 X159.59 Y114.877 E.03099
G1 X159.675 Y116.037 E.031
G1 X159.695 Y116.858 E.02189
G1 X159.352 Y117.12 F9000
; stop printing object test-stagejoiner.stl id:0 copy 0
; printing object test-stagejoiner3.stl id:1 copy 0
;WIPE_START
G1 F7200
G1 X159.675 Y118.362 E-.35723
G1 X159.59 Y119.521 E-.276
G1 X159.504 Y120.218 E-.16677
;WIPE_END
G1 X60.932 Y101.697 F9000
G1 E.8 F1800
G1 F1200
G1 X61.018 Y100.539 E.03095
G1 X61.156 Y99.414 E.03021
G1 X61.35 Y98.298 E.03019
G1 X61.598 Y97.193 E.03018
G1 X61.936 Y95.972 E.03376
G1 X62.568 Y95.673 E.01863
G1 X62.722 Y95.206 E.01311
G1 X63.13 Y94.149 E.0302
G1 X63.329 Y93.699 E.01311
G1 X63.062 Y93.053 E.01863
G1 X63.632 Y91.921 E.03378
G1 X64.19 Y90.936 E.03017
G1 X64.796 Y89.979 E.03019
G1 X65.448 Y89.052 E.0302
G1 X66.228 Y88.054 E.03376
G1 X66.926 Y88.019 E.01863
G1 X67.247 Y87.646 E.01312
G1 X68.028 Y86.826 E.03018
G1 X68.385 Y86.487 E.01312
G1 X68.385 Y85.788 E.01863
G1 X69.344 Y84.96 E.03377
G1 X70.237 Y84.263 E.03019
G1 X71.164 Y83.611 E.0302
G1 X72.121 Y83.005 E.03019
G1 X73.223 Y82.381 E.03375
G1 X73.881 Y82.616 E.01862
G1 X74.321 Y82.395 E.01312
G1 X75.356 Y81.935 E.03019
G1 X75.816 Y81.758 E.01314
G1 X76.083 Y81.113 E.0186
G1 X77.286 Y80.715 E.03377
G1 X78.378 Y80.413 E.0302
G1 X79.483 Y80.165 E.03018
G1 X80.599 Y79.971 E.03019
G1 X81.857 Y79.816 E.03378
G1 X82.375 Y80.285 E.01862
G1 X82.866 Y80.249 E.01312
G1 X83.998 Y80.221 E.03018
G1 X84.49 Y80.234 E.01312
G1 X84.984 Y79.74 E.01862
G1 X86.248 Y79.833 E.03378
G1 X87.372 Y79.971 E.03018
G1 X88.488 Y80.165 E.03019
G1 X89.594 Y80.413 E.03021
G1 X90.815 Y80.751 E.03376
G1 X91.113 Y81.383 E.01862
G1 X91.581 Y81.537 E.01313
G1 X92.53 Y81.904 E.02712
G1 X93.087 Y82.145 E.01617
G1 X93.733 Y81.877 E.01864
G1 X94.865 Y82.447 E.03378
G1 X95.851 Y83.005 E.03019
G1 X96.808 Y83.611 E.03019
G1 X97.734 Y84.263 E.03018
G1 X98.733 Y85.043 E.03378
G1 X98.767 Y85.741 E.01862
G1 X99.14 Y86.062 E.01312
G1 X99.96 Y86.844 E.0302
G1 X100.3 Y87.2 E.01312
G1 X100.998 Y87.2 E.0186
G1 X101.826 Y88.16 E.03379
G1 X102.523 Y89.053 E.03019
G1 X103.175 Y89.979 E.03018
G1 X103.781 Y90.936 E.03019
G1 X104.406 Y92.038 E.03376
G1 X104.171 Y92.696 E.01862
G1 X104.392 Y93.136 E.01312
G1 X104.851 Y94.171 E.03017
G1 X105.028 Y94.631 E.01314
G1 X105.674 Y94.898 E.01863
G1 X106.071 Y96.101 E.03376
G1 X106.373 Y97.193 E.0302
G1 X106.621 Y98.298 E.03018
G1 X106.815 Y99.414 E.03019
G1 X106.97 Y100.672 E.03378
G1 X106.501 Y101.19 E.01862
G1 X106.537 Y101.681 E.01312
G1 X106.565 Y102.813 E.03018
G1 X106.553 Y103.305 E.01312
G1 X107.047 Y103.799 E.01862
G1 X106.954 Y105.063 E.03378
G1 X106.815 Y106.187 E.03018
G1 X106.621 Y107.303 E.03019
G1 X106.373 Y108.409 E.03021
G1 X106.035 Y109.63 E.03376
G1 X105.404 Y109.929 E.01861
G1 X105.249 Y110.396 E.01311
G1 X104.841 Y111.453 E.0302
G1 X104.642 Y111.903 E.01311
G1 X104.909 Y112.548 E.0186
G1 X104.34 Y113.68 E.03377
G1 X103.781 Y114.666 E.03021
G1 X103.175 Y115.623 E.03019
G1 X102.523 Y116.549 E.03018
G1 X101.743 Y117.548 E.03378
G1 X101.046 Y117.582 E.0186
G1 X100.724 Y117.955 E.01313
G1 X99.943 Y118.776 E.0302
G1 X99.586 Y119.115 E.01312
G1 X99.586 Y119.814 E.01863
G1 X98.627 Y120.641 E.03375
G1 X97.734 Y121.338 E.03019
G1 X96.808 Y121.99 E.03018
G1 X95.851 Y122.596 E.03019
G1 X94.748 Y123.221 E.03379
G1 X94.09 Y122.986 E.01862
G1 X93.651 Y123.207 E.0131
G1 X92.615 Y123.666 E.0302
G1 X92.156 Y123.843 E.01311
G1 X91.888 Y124.489 E.01864
G1 X90.685 Y124.886 E.03376
G1 X89.593 Y125.188 E.0302
G1 X88.488 Y125.437 E.03019
G1 X87.372 Y125.63 E.03018
G1 X86.114 Y125.785 E.03378
G1 X85.597 Y125.316 E.0186
G1 X85.106 Y125.352 E.01312
G1 X83.973 Y125.38 E.0302
G1 X83.481 Y125.368 E.01312
G1 X82.987 Y125.862 E.01862
G1 X81.723 Y125.769 E.03378
G1 X80.599 Y125.63 E.03018
G1 X79.483 Y125.436 E.03019
G1 X78.378 Y125.188 E.03018
G1 X77.157 Y124.85 E.03376
G1 X76.858 Y124.219 E.01861
G1 X76.39 Y124.064 E.01314
G1 X75.333 Y123.657 E.03019
G1 X74.883 Y123.457 E.01312
G1 X74.238 Y123.724 E.0186
G1 X73.106 Y123.155 E.03377
G1 X72.121 Y122.596 E.03018
G1 X71.163 Y121.99 E.03021
G1 X70.237 Y121.338 E.03018
G1 X69.238 Y120.558 E.03378
G1 X69.204 Y119.861 E.0186
G1 X68.831 Y119.539 E.01313
G1 X68.011 Y118.758 E.03018
G1 X67.671 Y118.401 E.01314
G1 X66.973 Y118.401 E.0186
G1 X66.145 Y117.442 E.03377
G1 X65.448 Y116.549 E.03019
G1 X64.796 Y115.623 E.03018
G1 X64.19 Y114.666 E.03019
G1 X63.565 Y113.563 E.03379
G1 X63.801 Y112.905 E.01863
G1 X63.579 Y112.466 E.01311
G1 X63.12 Y111.43 E.0302
G1 X62.943 Y110.971 E.01311
G1 X62.298 Y110.703 E.01861
G1 X61.9 Y109.5 E.03377
G1 X61.598 Y108.408 E.0302
