; generated by PrusaSlicer 2.6.1+win64 on 2024-01-24 at 18:11:02 UTC

; 

; external perimeters extrusion width = 0.42mm
; perimeters extrusion width = 0.44mm
; infill extrusion width = 0.44mm
; solid infill extrusion width = 0.44mm
; top infill extrusion width = 0.40mm
; support material extrusion width = 0.36mm
; first layer extrusion width = 0.42mm

; external perimeters extrusion width = 0.42mm
; perimeters extrusion width = 0.44mm
; infill extrusion width = 0.44mm
; solid infill extrusion width = 0.44mm
; top infill extrusion width = 0.40mm
; support material extrusion width = 0.36mm
; first layer extrusion width = 0.42mm

M201 X500 Y500 Z100 E5000 ; sets maximum accelerations, mm/sec^2
M203 X500 Y500 Z10 E60 ; sets maximum feedrates, mm / sec
M204 S500 T1000 ; sets acceleration (S) and retract acceleration (R), mm/sec^2
M205 X8.00 Y8.00 Z0.40 E5.00 ; sets the jerk limits, mm/sec
M205 S0 T0 ; sets the minimum extruding and travel feed rate, mm/sec
;TYPE:Custom
G90 ; use absolute coordinates
M83 ; extruder relative mode
M104 S150 ; set temporary nozzle temp to prevent oozing during homing
M140 S60 ; set final bed temp
G4 S30 ; allow partial nozzle warmup
G28 ; home all axis and restore leveling
G1 Z50 F240
G1 X2.0 Y10 F3000
M104 S215 ; set final nozzle temp
M190 S60 ; wait for bed temp to stabilize
M109 S215 ; wait for nozzle temp to stabilize
G1 Z0.28 F240
G92 E0
G1 X2.0 Y140 E10 F1500 ; prime the nozzle
G1 X2.3 Y140 F5000
G92 E0
G1 X2.3 Y10 E10 F1200 ; prime the nozzle
G92 E0
G21 ; set units to millimeters
G90 ; use absolute coordinates
M83 ; use relative distances for extrusion
; Filament gcode
M107
;LAYER_CHANGE
;Z:0.2
;HEIGHT:0.2
;BEFORE_LAYER_CHANGE
G92 E0
;0.2


G1 E-.8 F1800
G1 Z.2 F9000
;AFTER_LAYER_CHANGE
;0.2
G1 X69.955 Y73.476
G1 E.8 F1800
M204 S500
;TYPE:Skirt/Brim
;WIDTH:0.42
G1 F1200
G1 X70.399 Y73.054 E.01633
G1 X72.347 Y71.454 E.06718
G1 X74.719 Y69.87 E.07602
G1 X76.942 Y68.681 E.06719
G1 X78.322 Y68.07 E.04022
G1 X79.577 Y67.59 E.03581
G1 X81.989 Y66.858 E.06718
G1 X83.462 Y66.527 E.04024
G1 X85.956 Y66.158 E.06719
G1 X88.896 Y66.02 E.07844
G1 X91.322 Y66.141 E.06474
G1 X92.82 Y66.326 E.04023
G1 X95.293 Y66.818 E.0672
G1 X96.747 Y67.22 E.0402
G1 X99.121 Y68.07 E.0672
G1 X100.501 Y68.681 E.04022
G1 X102.724 Y69.87 E.06719
G1 X103.999 Y70.677 E.04021
G1 X105.096 Y71.454 E.03583
G1 X148.582 Y105.393 E1.47014
G1 X149.725 Y106.379 E.04023
G1 X151.507 Y108.162 E.06718
G1 X152.493 Y109.304 E.04021
G1 X153.995 Y111.329 E.06719
G1 X155.383 Y113.629 E.07159
G1 X156.539 Y116.054 E.0716
G1 X157.452 Y118.581 E.07161
G1 X158.112 Y121.185 E.07159
G1 X158.514 Y123.841 E.07159
G1 X158.654 Y126.524 E.0716
G1 X158.531 Y129.208 E.07161
G1 X158.144 Y131.867 E.07161
G1 X157.5 Y134.475 E.07159
G1 X156.602 Y137.007 E.0716
G1 X155.461 Y139.439 E.07159
G1 X154.087 Y141.747 E.07159
G1 X152.493 Y143.91 E.07161
G1 X150.695 Y145.906 E.0716
G1 X148.71 Y147.716 E.07159
G1 X146.557 Y149.323 E.0716
G1 X144.11 Y150.789 E.07602
G1 X141.831 Y151.867 E.06719
G1 X140.423 Y152.41 E.04022
G1 X138.011 Y153.142 E.06718
G1 X136.538 Y153.473 E.04024
G1 X135.214 Y153.698 E.03579
G1 X132.705 Y153.945 E.06719
G1 X131.196 Y153.982 E.04023
G1 X128.678 Y153.859 E.06719
G1 X125.857 Y153.44 E.07601
G1 X123.411 Y152.828 E.0672
G1 X121.978 Y152.354 E.04023
G1 X120.726 Y151.867 E.0358
G1 X118.447 Y150.789 E.06719
G1 X117.134 Y150.045 E.04022
G1 X114.905 Y148.546 E.07159
G1 X71.419 Y114.607 E1.47014
G1 X70.276 Y113.621 E.04023
G1 X68.493 Y111.839 E.06718
G1 X67.507 Y110.696 E.04023
G1 X66.006 Y108.671 E.06718
G1 X65.198 Y107.396 E.04023
G1 X64.01 Y105.173 E.06718
G1 X62.918 Y102.538 E.07602
G1 X62.501 Y101.26 E.03583
G1 X61.888 Y98.815 E.06718
G1 X61.63 Y97.328 E.04022
G1 X61.383 Y94.819 E.06719
G1 X61.383 Y91.967 E.07601
G1 X61.63 Y89.458 E.06719
G1 X61.888 Y87.971 E.04022
G1 X62.501 Y85.526 E.06718
G1 X62.974 Y84.093 E.04022
G1 X63.939 Y81.764 E.06719
G1 X64.618 Y80.415 E.04025
G1 X65.914 Y78.253 E.06718
G1 X66.684 Y77.152 E.03581
G1 X67.612 Y75.962 E.04022
G1 X69.306 Y74.094 E.06721
G1 X69.911 Y73.517 E.02228
; printing object test-stagejoiner4M.stl id:0 copy 0
;WIPE_START
G1 F7200
G1 X70.399 Y73.054 E-.15976
G1 X72.347 Y71.454 E-.5987
G1 X72.492 Y71.357 E-.04154
;WIPE_END
G1 X66.116 Y87.712 F9000
G1 E.8 F1800
;TYPE:External perimeter
G1 F1200
G1 X66.416 Y86.627 E.03
G1 X66.775 Y85.54 E.03051
G1 X67.187 Y84.473 E.03048
G1 X67.65 Y83.427 E.03049
G1 X68.165 Y82.405 E.0305
G1 X68.729 Y81.41 E.03048
G1 X69.341 Y80.443 E.0305
G1 X69.999 Y79.508 E.03047
G1 X70.703 Y78.606 E.03049
G1 X71.451 Y77.74 E.0305
G1 X72.239 Y76.911 E.03048
G1 X73.068 Y76.122 E.0305
G1 X73.934 Y75.375 E.03048
G1 X74.836 Y74.671 E.03049
G1 X75.772 Y74.012 E.03051
G1 X76.738 Y73.4 E.03048
G1 X77.734 Y72.836 E.0305
G1 X78.756 Y72.322 E.03049
G1 X79.801 Y71.858 E.03047
G1 X80.869 Y71.446 E.03051
G1 X81.955 Y71.088 E.03048
G1 X83.058 Y70.782 E.03051
G1 X84.174 Y70.532 E.03048
G1 X85.301 Y70.336 E.03049
G1 X86.437 Y70.196 E.0305
G1 X87.578 Y70.112 E.03049
G1 X88.63 Y70.086 E.02805
G1 X89.865 Y70.112 E.03292
G1 X91.006 Y70.196 E.03049
G1 X92.142 Y70.336 E.0305
G1 X93.269 Y70.532 E.03049
G1 X94.385 Y70.782 E.03048
G1 X95.488 Y71.088 E.03051
G1 X96.574 Y71.446 E.03048
G1 X97.642 Y71.858 E.03051
G1 X98.687 Y72.322 E.03047
G1 X99.709 Y72.836 E.03049
G1 X100.705 Y73.4 E.0305
G1 X101.671 Y74.012 E.03048
G1 X102.607 Y74.671 E.03051
G1 X103.509 Y75.375 E.03049
G1 X104.375 Y76.122 E.03048
G1 X105.204 Y76.911 E.0305
G1 X105.992 Y77.74 E.03048
G1 X106.74 Y78.606 E.0305
G1 X107.444 Y79.508 E.03049
G1 X108.102 Y80.443 E.03047
G1 X108.714 Y81.41 E.0305
G1 X109.278 Y82.405 E.03048
G1 X109.793 Y83.427 E.0305
G1 X110.256 Y84.473 E.03049
G1 X110.668 Y85.54 E.03048
G1 X111.027 Y86.627 E.03051
G1 X111.332 Y87.729 E.03047
G1 X111.583 Y88.846 E.03051
G1 X111.778 Y89.973 E.03048
G1 X111.918 Y91.108 E.03048
G1 X112.003 Y92.249 E.03049
G1 X112.031 Y93.393 E.0305
G1 X112.003 Y94.537 E.0305
G1 X111.918 Y95.678 E.03049
G1 X111.778 Y96.813 E.03048
G1 X111.583 Y97.94 E.03048
G1 X111.332 Y99.057 E.03051
G1 X111.027 Y100.159 E.03047
G1 X110.668 Y101.246 E.03051
G1 X110.256 Y102.313 E.03048
G1 X109.793 Y103.359 E.03049
G1 X109.278 Y104.381 E.0305
G1 X108.714 Y105.376 E.03048
G1 X108.102 Y106.343 E.0305
G1 X107.444 Y107.278 E.03047
G1 X106.74 Y108.18 E.03049
G1 X105.992 Y109.047 E.03052
G1 X105.204 Y109.875 E.03046
G1 X104.375 Y110.664 E.0305
G1 X103.509 Y111.411 E.03048
G1 X102.607 Y112.115 E.03049
G1 X101.671 Y112.774 E.03051
G1 X100.705 Y113.386 E.03048
G1 X99.709 Y113.95 E.0305
G1 X98.687 Y114.464 E.03049
G1 X97.641 Y114.928 E.0305
G1 X96.574 Y115.34 E.03048
G1 X95.488 Y115.699 E.03048
G1 X94.385 Y116.004 E.0305
G1 X93.269 Y116.254 E.03048
G1 X92.142 Y116.45 E.03049
G1 X91.006 Y116.59 E.0305
G1 X89.865 Y116.674 E.03049
G1 X88.721 Y116.702 E.0305
G1 X87.578 Y116.674 E.03047
G1 X86.437 Y116.59 E.03049
G1 X85.301 Y116.45 E.0305
G1 X84.174 Y116.254 E.03049
G1 X83.058 Y116.004 E.03048
G1 X81.955 Y115.699 E.0305
G1 X80.869 Y115.34 E.03048
G1 X79.801 Y114.928 E.03051
G1 X78.756 Y114.464 E.03047
G1 X77.734 Y113.95 E.03049
G1 X76.738 Y113.386 E.0305
G1 X75.772 Y112.774 E.03048
G1 X74.836 Y112.115 E.03051
G1 X73.934 Y111.411 E.03049
G1 X73.068 Y110.664 E.03048
G1 X72.239 Y109.875 E.0305
G1 X71.451 Y109.047 E.03046
G1 X70.703 Y108.18 E.03052
G1 X69.999 Y107.278 E.03049
G1 X69.341 Y106.343 E.03047
G1 X68.729 Y105.376 E.0305
G1 X68.165 Y104.381 E.03048
G1 X67.65 Y103.359 E.0305
G1 X67.187 Y102.313 E.03049
G1 X66.775 Y101.246 E.03048
G1 X66.416 Y100.159 E.03051
G1 X66.111 Y99.057 E.03047
G1 X65.86 Y97.94 E.03051
G1 X65.665 Y96.813 E.03048
G1 X65.525 Y95.678 E.03048
G1 X65.44 Y94.537 E.03049
G1 X65.412 Y93.393 E.0305
G1 X65.44 Y92.249 E.0305
G1 X65.525 Y91.108 E.03049
G1 X65.665 Y89.973 E.03048
G1 X65.86 Y88.846 E.03048
G1 X66.102 Y87.77 E.02939
G1 X65.828 Y87.433 F9000
;WIPE_START
G1 F7200
G1 X66.416 Y86.627 E-.28152
G1 X66.775 Y85.54 E-.27188
G1 X67.149 Y84.571 E-.2466
;WIPE_END
G1 X85.259 Y69.959 F9000
G1 E.8 F1800
G1 F1200
G1 X86.4 Y69.818 E.03064
G1 X87.559 Y69.732 E.03097
G1 X88.81 Y69.706 E.03335
G1 X89.884 Y69.732 E.02863
G1 X91.043 Y69.818 E.03097
G1 X92.197 Y69.96 E.03099
G1 X93.343 Y70.159 E.031
G1 X94.477 Y70.414 E.03098
G1 X95.598 Y70.724 E.031
G1 X96.702 Y71.089 E.03099
G1 X97.787 Y71.507 E.03099
G1 X98.85 Y71.978 E.03099
G1 X99.889 Y72.501 E.031
G1 X100.9 Y73.074 E.03097
G1 X101.883 Y73.696 E.031
G1 X102.833 Y74.366 E.03098
G1 X103.75 Y75.081 E.03099
G1 X104.63 Y75.84 E.03097
G1 X105.472 Y76.642 E.03099
G1 X106.274 Y77.484 E.03099
G1 X107.034 Y78.365 E.03101
G1 X107.749 Y79.281 E.03097
G1 X108.418 Y80.232 E.03099
G1 X109.04 Y81.214 E.03098
G1 X109.614 Y82.226 E.03101
G1 X110.136 Y83.265 E.03099
G1 X110.608 Y84.328 E.031
G1 X111.026 Y85.412 E.03096
G1 X111.391 Y86.516 E.03099
G1 X111.701 Y87.637 E.031
G1 X111.956 Y88.772 E.031
G1 X112.154 Y89.917 E.03097
G1 X112.297 Y91.071 E.03099
G1 X112.382 Y92.231 E.031
G1 X112.411 Y93.393 E.03098
G1 X112.382 Y94.555 E.03098
G1 X112.297 Y95.715 E.031
G1 X112.154 Y96.869 E.03099
G1 X111.956 Y98.015 E.03099
G1 X111.701 Y99.149 E.03098
G1 X111.391 Y100.27 E.031
G1 X111.026 Y101.374 E.03099
G1 X110.607 Y102.459 E.031
G1 X110.136 Y103.522 E.03099
G1 X109.614 Y104.56 E.03097
G1 X109.04 Y105.572 E.03101
G1 X108.418 Y106.554 E.03098
G1 X107.749 Y107.505 E.03099
G1 X107.034 Y108.421 E.03097
G1 X106.274 Y109.302 E.03101
G1 X105.472 Y110.144 E.03099
G1 X104.63 Y110.946 E.03099
G1 X103.75 Y111.705 E.03097
G1 X102.833 Y112.42 E.03099
G1 X101.883 Y113.09 E.03098
G1 X100.9 Y113.712 E.031
G1 X99.889 Y114.285 E.03097
G1 X98.85 Y114.808 E.031
G1 X97.787 Y115.279 E.03099
G1 X96.702 Y115.698 E.031
G1 X95.598 Y116.062 E.03098
G1 X94.477 Y116.372 E.031
G1 X93.343 Y116.627 E.03098
G1 X92.197 Y116.826 E.031
G1 X91.043 Y116.968 E.03099
G1 X89.884 Y117.054 E.03097
G1 X88.721 Y117.082 E.031
G1 X87.559 Y117.054 E.03098
G1 X86.4 Y116.968 E.03097
G1 X85.246 Y116.826 E.03099
G1 X84.1 Y116.627 E.031
G1 X82.965 Y116.372 E.031
G1 X81.845 Y116.062 E.03097
G1 X80.741 Y115.698 E.03098
G1 X79.656 Y115.279 E.031
G1 X78.593 Y114.808 E.03099
G1 X77.554 Y114.285 E.031
G1 X76.543 Y113.712 E.03097
G1 X75.56 Y113.09 E.031
G1 X74.61 Y112.42 E.03098
G1 X73.693 Y111.705 E.03099
G1 X72.813 Y110.946 E.03097
G1 X71.971 Y110.144 E.03099
G1 X71.169 Y109.302 E.03099
G1 X70.409 Y108.421 E.03101
G1 X69.694 Y107.505 E.03097
G1 X69.025 Y106.554 E.03099
G1 X68.402 Y105.572 E.03099
G1 X67.829 Y104.56 E.03099
G1 X67.307 Y103.522 E.03097
G1 X66.835 Y102.459 E.031
G1 X66.417 Y101.374 E.03099
G1 X66.052 Y100.27 E.03099
G1 X65.742 Y99.149 E.031
G1 X65.487 Y98.015 E.03098
G1 X65.289 Y96.869 E.03099
G1 X65.146 Y95.715 E.03099
G1 X65.061 Y94.555 E.031
G1 X65.032 Y93.393 E.03098
G1 X65.061 Y92.231 E.03098
G1 X65.146 Y91.071 E.031
G1 X65.289 Y89.917 E.03099
G1 X65.487 Y88.771 E.03099
G1 X65.742 Y87.637 E.03098
G1 X66.052 Y86.516 E.031
G1 X66.417 Y85.412 E.03099
G1 X66.835 Y84.328 E.03096
G1 X67.307 Y83.265 E.031
G1 X67.829 Y82.226 E.03099
G1 X68.403 Y81.214 E.03101
G1 X69.025 Y80.232 E.03098
G1 X69.694 Y79.281 E.03099
G1 X70.409 Y78.365 E.03097
G1 X71.169 Y77.484 E.03101
G1 X71.971 Y76.642 E.03099
G1 X72.813 Y75.84 E.03099
G1 X73.693 Y75.081 E.03097
G1 X74.61 Y74.366 E.03099
G1 X75.56 Y73.696 E.03098
G1 X76.543 Y73.074 E.031
G1 X77.554 Y72.501 E.03097
G1 X78.593 Y71.978 E.031
G1 X79.656 Y71.507 E.03099
G1 X80.741 Y71.089 E.03099
G1 X81.845 Y70.724 E.03099
G1 X82.965 Y70.414 E.03097
G1 X84.1 Y70.159 E.031
G1 X85.2 Y69.968 E.02975
G1 X85.508 Y70.272 F9000
; stop printing object test-stagejoiner4M.stl id:0 copy 0
; printing object test-stagejoiner4F2.stl id:1 copy 0
;WIPE_START
G1 F7200
G1 X86.4 Y69.818 E-.28722
G1 X87.559 Y69.732 E-.27602
G1 X88.556 Y69.711 E-.23676
;WIPE_END
G1 X122.342 Y105.325 F9000
G1 E.8 F1800
G1 F1200
G1 X123.504 Y104.877 E.03319
G1 X124.579 Y104.522 E.03017
G1 X125.671 Y104.22 E.0302
G1 X126.776 Y103.971 E.03019
G1 X128.018 Y103.756 E.03359
G1 X128.595 Y104.195 E.01932
G1 X129.066 Y104.137 E.01265
G1 X130.171 Y104.055 E.02953
G1 X130.645 Y104.044 E.01264
G1 X131.151 Y103.525 E.01932
G1 X132.411 Y103.556 E.03359
G1 X133.541 Y103.639 E.0302
G1 X134.665 Y103.778 E.03018
G1 X135.782 Y103.971 E.03021
G1 X137.011 Y104.248 E.03358
G1 X137.376 Y104.874 E.01931
G1 X137.833 Y105 E.01263
G1 X138.359 Y105.174 E.01477
G1 X138.886 Y105.348 E.01479
G1 X139.328 Y105.519 E.01263
G1 X139.994 Y105.233 E.01932
G1 X141.147 Y105.744 E.03361
G1 X142.158 Y106.253 E.03017
G1 X143.144 Y106.811 E.03019
G1 X144.101 Y107.417 E.03019
G1 X145.131 Y108.143 E.03358
G1 X145.229 Y108.861 E.01931
G1 X145.603 Y109.153 E.01265
G1 X146.442 Y109.877 E.02953
G1 X146.786 Y110.204 E.01265
G1 X147.51 Y110.195 E.0193
G1 X148.379 Y111.108 E.03359
G1 X149.119 Y111.966 E.0302
G1 X149.816 Y112.859 E.03019
G1 X150.469 Y113.785 E.0302
G1 X151.143 Y114.85 E.03359
G1 X150.958 Y115.551 E.01932
G1 X151.192 Y115.963 E.01263
G1 X151.69 Y116.953 E.02953
G1 X151.882 Y117.387 E.01265
G1 X152.555 Y117.656 E.01932
G1 X153.009 Y118.832 E.0336
G1 X153.364 Y119.908 E.0302
G1 X153.666 Y120.999 E.03017
G1 X153.915 Y122.105 E.03021
G1 X154.13 Y123.346 E.03357
G1 X153.691 Y123.923 E.01932
G1 X153.749 Y124.394 E.01265
G1 X153.831 Y125.499 E.02953
G1 X153.842 Y125.974 E.01266
G1 X154.361 Y126.48 E.01932
G1 X154.33 Y127.74 E.03359
G1 X154.247 Y128.869 E.03017
G1 X154.108 Y129.994 E.03021
G1 X153.915 Y131.11 E.03018
G1 X153.638 Y132.339 E.03358
G1 X153.01 Y132.705 E.01937
G1 X152.77 Y133.512 E.02244
G1 X152.538 Y134.214 E.0197
G1 X152.367 Y134.656 E.01263
G1 X152.653 Y135.322 E.01932
G1 X152.142 Y136.475 E.03361
G1 X151.633 Y137.487 E.03019
G1 X151.075 Y138.472 E.03017
G1 X150.468 Y139.429 E.0302
G1 X149.743 Y140.46 E.03359
G1 X149.024 Y140.557 E.01934
G1 X148.695 Y140.975 E.01418
G1 X148.009 Y141.77 E.02799
G1 X147.682 Y142.114 E.01265
G1 X147.691 Y142.838 E.0193
G1 X146.778 Y143.708 E.03361
G1 X145.92 Y144.448 E.0302
G1 X145.027 Y145.144 E.03017
G1 X144.101 Y145.797 E.0302
G1 X143.036 Y146.471 E.03359
G1 X142.335 Y146.286 E.01932
G1 X141.922 Y146.52 E.01265
G1 X141.379 Y146.794 E.01621
G1 X140.499 Y147.211 E.02595
G1 X140.23 Y147.883 E.01929
G1 X139.054 Y148.337 E.0336
G1 X137.978 Y148.692 E.0302
G1 X136.887 Y148.995 E.03018
G1 X135.781 Y149.243 E.03021
G1 X134.54 Y149.458 E.03357
G1 X133.963 Y149.019 E.01932
G1 X133.492 Y149.077 E.01265
G1 X132.387 Y149.159 E.02953
G1 X131.912 Y149.171 E.01266
G1 X131.406 Y149.689 E.0193
G1 X130.146 Y149.658 E.03359
G1 X129.017 Y149.575 E.03017
G1 X127.892 Y149.436 E.03021
G1 X126.776 Y149.243 E.03018
G1 X125.547 Y148.966 E.03358
G1 X125.182 Y148.34 E.01931
G1 X124.724 Y148.214 E.01266
G1 X123.672 Y147.866 E.02953
G1 X123.23 Y147.695 E.01263
G1 X122.563 Y147.981 E.01934
G1 X121.411 Y147.47 E.03359
G1 X120.399 Y146.961 E.03019
G1 X119.414 Y146.403 E.03017
G1 X118.457 Y145.797 E.03019
G1 X117.426 Y145.071 E.03361
G1 X117.329 Y144.353 E.01931
G1 X116.955 Y144.061 E.01265
G1 X116.116 Y143.337 E.02953
G1 X115.772 Y143.01 E.01265
G1 X115.047 Y143.019 E.01932
G1 X114.178 Y142.106 E.03359
G1 X113.438 Y141.248 E.0302
G1 X112.741 Y140.355 E.03019
G1 X112.089 Y139.429 E.03018
G1 X111.415 Y138.364 E.03359
G1 X111.6 Y137.663 E.01932
G1 X111.366 Y137.251 E.01263
G1 X111.092 Y136.707 E.01623
G1 X110.675 Y135.827 E.02595
G1 X110.003 Y135.558 E.01929
G1 X109.549 Y134.382 E.0336
G1 X109.193 Y133.306 E.03021
G1 X108.891 Y132.215 E.03017
G1 X108.643 Y131.109 E.03021
G1 X108.428 Y129.868 E.03357
G1 X108.867 Y129.291 E.01932
G1 X108.809 Y128.82 E.01265
G1 X108.727 Y127.715 E.02953
G1 X108.715 Y127.241 E.01264
G1 X108.197 Y126.734 E.01932
G1 X108.228 Y125.475 E.03356
G1 X108.311 Y124.345 E.0302
G1 X108.45 Y123.221 E.03018
G1 X108.643 Y122.104 E.03021
G1 X108.92 Y120.875 E.03358
G1 X109.546 Y120.51 E.01931
G1 X109.672 Y120.053 E.01263
G1 X110.02 Y119 E.02956
G1 X110.191 Y118.558 E.01263
G1 X109.905 Y117.892 E.01932
G1 X110.416 Y116.739 E.03361
G1 X110.925 Y115.728 E.03017
G1 X111.483 Y114.742 E.03019
G1 X112.089 Y113.785 E.03019
G1 X112.815 Y112.755 E.03358
G1 X113.534 Y112.657 E.01934
G1 X113.863 Y112.239 E.01418
G1 X114.549 Y111.444 E.02799
