; generated by PrusaSlicer 2.6.1+win64 on 2024-01-24 at 16:32:43 UTC

; 

; external perimeters extrusion width = 0.42mm
; perimeters extrusion width = 0.44mm
; infill extrusion width = 0.44mm
; solid infill extrusion width = 0.44mm
; top infill extrusion width = 0.40mm
; support material extrusion width = 0.36mm
; first layer extrusion width = 0.42mm

M201 X500 Y500 Z100 E5000 ; sets maximum accelerations, mm/sec^2
M203 X500 Y500 Z10 E60 ; sets maximum feedrates, mm / sec
M204 S500 T1000 ; sets acceleration (S) and retract acceleration (R), mm/sec^2
M205 X8.00 Y8.00 Z0.40 E5.00 ; sets the jerk limits, mm/sec
M205 S0 T0 ; sets the minimum extruding and travel feed rate, mm/sec
;TYPE:Custom
G90 ; use absolute coordinates
M83 ; extruder relative mode
M104 S150 ; set temporary nozzle temp to prevent oozing during homing
M140 S60 ; set final bed temp
G4 S30 ; allow partial nozzle warmup
G28 ; home all axis and restore leveling
G1 Z50 F240
G1 X2.0 Y10 F3000
M104 S215 ; set final nozzle temp
M190 S60 ; wait for bed temp to stabilize
M109 S215 ; wait for nozzle temp to stabilize
G1 Z0.28 F240
G92 E0
G1 X2.0 Y140 E10 F1500 ; prime the nozzle
G1 X2.3 Y140 F5000
G92 E0
G1 X2.3 Y10 E10 F1200 ; prime the nozzle
G92 E0
G21 ; set units to millimeters
G90 ; use absolute coordinates
M83 ; use relative distances for extrusion
; Filament gcode
M107
;LAYER_CHANGE
;Z:0.2
;HEIGHT:0.2
;BEFORE_LAYER_CHANGE
G92 E0
;0.2


G1 E-.8 F1800
G1 Z.2 F9000
;AFTER_LAYER_CHANGE
;0.2
G1 X69.305 Y74.095
G1 E.8 F1800
M204 S500
;TYPE:Skirt/Brim
;WIDTH:0.42
G1 F1200
G1 X71.418 Y72.179 E.07602
G1 X73.443 Y70.678 E.06718
G1 X74.718 Y69.87 E.04023
G1 X76.941 Y68.682 E.06718
G1 X78.321 Y68.07 E.04023
G1 X80.695 Y67.221 E.06719
G1 X81.989 Y66.859 E.03581
G1 X83.461 Y66.528 E.04021
G1 X85.955 Y66.158 E.0672
G1 X88.921 Y66.021 E.07913
G1 X91.322 Y66.142 E.06407
G1 X92.82 Y66.327 E.04023
G1 X95.292 Y66.818 E.06717
G1 X96.747 Y67.221 E.04024
G1 X99.12 Y68.07 E.06717
G1 X100.5 Y68.682 E.04023
G1 X102.724 Y69.87 E.0672
G1 X103.999 Y70.678 E.04023
G1 X105.095 Y71.455 E.03581
G1 X148.582 Y105.392 E1.47013
G1 X149.725 Y106.378 E.04023
G1 X151.507 Y108.161 E.06718
G1 X152.493 Y109.304 E.04023
G1 X153.995 Y111.329 E.06719
G1 X155.383 Y113.629 E.07159
G1 X156.539 Y116.054 E.0716
G1 X157.452 Y118.58 E.07158
G1 X158.112 Y121.184 E.07159
G1 X158.515 Y123.841 E.07162
G1 X158.655 Y126.524 E.0716
G1 X158.531 Y129.207 E.07158
G1 X158.145 Y131.866 E.07161
G1 X157.5 Y134.474 E.0716
G1 X156.602 Y137.006 E.0716
G1 X155.461 Y139.438 E.07159
G1 X154.087 Y141.747 E.07161
G1 X152.493 Y143.909 E.07159
G1 X150.695 Y145.905 E.0716
G1 X148.71 Y147.715 E.07159
G1 X146.557 Y149.322 E.0716
G1 X145.282 Y150.13 E.04023
G1 X143.059 Y151.318 E.06718
G1 X140.424 Y152.41 E.07602
G1 X139.146 Y152.827 E.03583
G1 X136.701 Y153.44 E.06718
G1 X135.214 Y153.698 E.04022
G1 X132.705 Y153.945 E.06719
G1 X131.196 Y153.982 E.04023
G1 X128.678 Y153.858 E.06719
G1 X125.857 Y153.44 E.076
G1 X123.412 Y152.827 E.06718
G1 X122.135 Y152.41 E.0358
G1 X120.726 Y151.866 E.04025
G1 X118.448 Y150.788 E.06717
G1 X116.139 Y149.414 E.07161
G1 X114.905 Y148.545 E.04022
G1 X71.418 Y114.608 E1.47013
G1 X70.275 Y113.622 E.04023
G1 X68.493 Y111.839 E.06718
G1 X67.507 Y110.696 E.04023
G1 X66.005 Y108.671 E.06719
G1 X64.486 Y106.12 E.07913
G1 X63.461 Y103.946 E.06406
G1 X62.918 Y102.538 E.04022
G1 X62.186 Y100.126 E.06718
G1 X61.855 Y98.653 E.04024
G1 X61.586 Y96.978 E.04521
G1 X61.382 Y94.82 E.05777
G1 X61.382 Y91.968 E.07601
G1 X61.63 Y89.459 E.06719
G1 X61.888 Y87.972 E.04022
G1 X62.5 Y85.526 E.0672
G1 X62.974 Y84.093 E.04023
G1 X63.938 Y81.764 E.06718
G1 X64.617 Y80.416 E.04023
G1 X65.913 Y78.253 E.0672
G1 X66.782 Y77.019 E.04022
G1 X68.381 Y75.071 E.06717
G1 X69.264 Y74.138 E.03424
; printing object test-stagejoiner.stl id:0 copy 0
;WIPE_START
G1 F7200
G1 X71.418 Y72.179 E-.6915
G1 X71.785 Y71.907 E-.1085
;WIPE_END
G1 X67.083 Y84.74 F9000
G1 E.8 F1800
;TYPE:External perimeter
G1 F1200
G1 X67.65 Y83.428 E.03809
G1 X68.164 Y82.406 E.03049
G1 X68.728 Y81.41 E.0305
G1 X69.34 Y80.444 E.03048
G1 X69.999 Y79.508 E.03051
G1 X70.703 Y78.606 E.03049
G1 X71.45 Y77.74 E.03048
G1 X72.239 Y76.911 E.0305
G1 X73.067 Y76.123 E.03046
G1 X73.934 Y75.375 E.03052
G1 X74.836 Y74.671 E.03049
G1 X75.771 Y74.013 E.03047
G1 X76.738 Y73.401 E.0305
G1 X77.733 Y72.837 E.03048
G1 X78.755 Y72.322 E.0305
G1 X79.801 Y71.859 E.03049
G1 X80.868 Y71.447 E.03048
G1 X81.955 Y71.088 E.03051
G1 X83.057 Y70.783 E.03047
G1 X84.173 Y70.532 E.03049
G1 X85.301 Y70.337 E.03051
G1 X86.436 Y70.197 E.03048
G1 X87.577 Y70.112 E.03049
G1 X88.605 Y70.087 E.02741
G1 X89.864 Y70.112 E.03356
G1 X91.006 Y70.197 E.03052
G1 X92.141 Y70.337 E.03048
G1 X93.268 Y70.532 E.03048
G1 X94.385 Y70.783 E.03051
G1 X95.487 Y71.088 E.03047
G1 X96.574 Y71.447 E.03051
G1 X97.641 Y71.859 E.03048
G1 X98.687 Y72.322 E.03049
G1 X99.709 Y72.837 E.0305
G1 X100.704 Y73.401 E.03048
G1 X101.671 Y74.013 E.0305
G1 X102.606 Y74.671 E.03047
G1 X103.508 Y75.375 E.03049
G1 X104.374 Y76.123 E.0305
G1 X105.203 Y76.912 E.0305
G1 X105.992 Y77.74 E.03048
G1 X106.739 Y78.606 E.03048
G1 X107.443 Y79.508 E.03049
G1 X108.102 Y80.444 E.03051
G1 X108.714 Y81.41 E.03048
G1 X109.278 Y82.406 E.0305
G1 X109.792 Y83.428 E.03049
G1 X110.256 Y84.474 E.0305
G1 X110.667 Y85.541 E.03047
G1 X111.026 Y86.627 E.03048
G1 X111.331 Y87.73 E.0305
G1 X111.582 Y88.846 E.03049
G1 X111.778 Y89.973 E.03049
G1 X111.918 Y91.109 E.0305
G1 X112.002 Y92.25 E.03049
G1 X112.03 Y93.394 E.0305
G1 X112.002 Y94.537 E.03047
G1 X111.918 Y95.678 E.03049
G1 X111.778 Y96.814 E.0305
G1 X111.582 Y97.941 E.03049
G1 X111.331 Y99.057 E.03049
G1 X111.026 Y100.16 E.0305
G1 X110.667 Y101.246 E.03048
G1 X110.256 Y102.314 E.0305
G1 X109.792 Y103.36 E.0305
G1 X109.278 Y104.381 E.03046
G1 X108.714 Y105.377 E.0305
G1 X108.102 Y106.343 E.03048
G1 X107.443 Y107.279 E.03051
G1 X106.739 Y108.181 E.03049
G1 X105.992 Y109.047 E.03048
G1 X105.203 Y109.876 E.0305
G1 X104.374 Y110.665 E.0305
G1 X103.508 Y111.412 E.03048
G1 X102.606 Y112.116 E.03049
G1 X101.671 Y112.774 E.03047
G1 X100.704 Y113.387 E.03051
G1 X99.709 Y113.95 E.03047
G1 X98.687 Y114.465 E.0305
G1 X97.641 Y114.928 E.03049
G1 X96.573 Y115.34 E.03051
G1 X95.487 Y115.699 E.03048
G1 X94.384 Y116.004 E.0305
G1 X93.268 Y116.255 E.03049
G1 X92.141 Y116.45 E.03048
G1 X91.006 Y116.59 E.03048
G1 X89.865 Y116.675 E.03049
G1 X88.721 Y116.703 E.0305
G1 X87.577 Y116.675 E.0305
G1 X86.436 Y116.59 E.03049
G1 X85.301 Y116.45 E.03048
G1 X84.173 Y116.255 E.03051
G1 X83.057 Y116.004 E.03049
G1 X81.955 Y115.699 E.03047
G1 X80.868 Y115.34 E.03051
G1 X79.801 Y114.928 E.03048
G1 X78.755 Y114.465 E.03049
G1 X77.733 Y113.95 E.0305
G1 X76.738 Y113.387 E.03047
G1 X75.771 Y112.774 E.03051
G1 X74.836 Y112.116 E.03047
G1 X73.934 Y111.412 E.03049
G1 X73.067 Y110.665 E.0305
G1 X72.239 Y109.876 E.03048
G1 X71.45 Y109.047 E.0305
G1 X70.703 Y108.181 E.03048
G1 X69.999 Y107.279 E.03049
G1 X69.34 Y106.343 E.03051
G1 X68.728 Y105.377 E.03048
G1 X68.164 Y104.381 E.0305
G1 X67.65 Y103.36 E.03046
G1 X67.186 Y102.314 E.0305
G1 X66.774 Y101.246 E.03051
G1 X66.415 Y100.16 E.03048
G1 X66.11 Y99.057 E.0305
G1 X65.86 Y97.941 E.03048
G1 X65.664 Y96.814 E.03049
G1 X65.524 Y95.678 E.0305
G1 X65.44 Y94.537 E.03049
G1 X65.412 Y93.394 E.03047
G1 X65.44 Y92.25 E.0305
G1 X65.524 Y91.109 E.03049
G1 X65.664 Y89.973 E.0305
G1 X65.86 Y88.846 E.03049
G1 X66.11 Y87.73 E.03048
G1 X66.415 Y86.627 E.0305
G1 X66.774 Y85.541 E.03048
G1 X67.062 Y84.796 E.02129
G1 X66.837 Y84.424 F9000
;WIPE_START
G1 F7200
G1 X67.65 Y83.428 E-.35364
G1 X68.164 Y82.406 E-.27169
G1 X68.526 Y81.766 E-.17467
;WIPE_END
G1 X112.403 Y93.112 F9000
G1 E.8 F1800
G1 F1200
G1 X112.382 Y94.556 E.03849
G1 X112.296 Y95.716 E.031
G1 X112.154 Y96.87 E.03099
G1 X111.955 Y98.015 E.03097
G1 X111.7 Y99.15 E.031
G1 X111.39 Y100.27 E.03097
G1 X111.025 Y101.374 E.03099
G1 X110.607 Y102.459 E.03099
G1 X110.136 Y103.522 E.03099
G1 X109.613 Y104.561 E.031
G1 X109.04 Y105.572 E.03097
G1 X108.418 Y106.555 E.031
G1 X107.748 Y107.505 E.03098
G1 X107.033 Y108.422 E.03099
G1 X106.273 Y109.302 E.03099
G1 X105.472 Y110.144 E.03097
G1 X104.63 Y110.946 E.03099
G1 X103.749 Y111.706 E.03101
G1 X102.833 Y112.421 E.03097
G1 X101.882 Y113.091 E.031
G1 X100.9 Y113.713 E.03098
G1 X99.888 Y114.286 E.03099
G1 X98.849 Y114.808 E.03099
G1 X97.786 Y115.28 E.031
G1 X96.702 Y115.698 E.03096
G1 X95.597 Y116.063 E.03101
G1 X94.477 Y116.373 E.03097
G1 X93.342 Y116.628 E.031
G1 X92.197 Y116.826 E.03097
G1 X91.043 Y116.969 E.03099
G1 X89.883 Y117.054 E.031
G1 X88.721 Y117.083 E.03098
G1 X87.558 Y117.054 E.031
G1 X86.399 Y116.969 E.03097
G1 X85.245 Y116.826 E.03099
G1 X84.099 Y116.628 E.03099
G1 X82.965 Y116.373 E.03098
G1 X81.844 Y116.063 E.031
G1 X80.74 Y115.698 E.03099
G1 X79.655 Y115.28 E.03099
G1 X78.592 Y114.808 E.031
G1 X77.554 Y114.286 E.03097
G1 X76.542 Y113.713 E.03099
G1 X75.56 Y113.09 E.03099
G1 X74.609 Y112.421 E.03099
G1 X73.693 Y111.706 E.03097
G1 X72.812 Y110.946 E.03101
G1 X71.97 Y110.144 E.03099
G1 X71.168 Y109.302 E.03099
G1 X70.409 Y108.422 E.03097
G1 X69.693 Y107.505 E.03101
G1 X69.024 Y106.555 E.03097
G1 X68.402 Y105.572 E.031
G1 X67.829 Y104.561 E.03097
G1 X67.306 Y103.522 E.031
G1 X66.835 Y102.459 E.03099
G1 X66.416 Y101.374 E.031
G1 X66.052 Y100.27 E.03098
G1 X65.742 Y99.15 E.03097
G1 X65.487 Y98.015 E.031
G1 X65.288 Y96.869 E.031
G1 X65.146 Y95.715 E.03099
G1 X65.06 Y94.556 E.03097
G1 X65.032 Y93.394 E.03098
G1 X65.06 Y92.231 E.031
G1 X65.146 Y91.072 E.03097
G1 X65.288 Y89.918 E.03099
G1 X65.487 Y88.772 E.031
G1 X65.742 Y87.638 E.03098
G1 X66.052 Y86.517 E.031
G1 X66.416 Y85.413 E.03098
G1 X66.835 Y84.328 E.031
G1 X67.306 Y83.265 E.03099
G1 X67.829 Y82.226 E.031
G1 X68.402 Y81.215 E.03097
G1 X69.024 Y80.232 E.031
G1 X69.693 Y79.282 E.03097
G1 X70.409 Y78.365 E.03101
G1 X71.168 Y77.485 E.03097
G1 X71.97 Y76.643 E.03099
G1 X72.812 Y75.841 E.03099
G1 X73.693 Y75.082 E.03099
G1 X74.609 Y74.366 E.03099
G1 X75.56 Y73.697 E.03099
G1 X76.542 Y73.075 E.03098
G1 X77.554 Y72.501 E.03101
G1 X78.592 Y71.979 E.03097
G1 X79.655 Y71.508 E.03099
G1 X80.74 Y71.089 E.031
G1 X81.844 Y70.724 E.03099
G1 X82.965 Y70.414 E.031
G1 X84.099 Y70.159 E.03098
G1 X85.245 Y69.961 E.03099
G1 X86.399 Y69.818 E.03099
G1 X87.558 Y69.733 E.03097
G1 X88.836 Y69.707 E.03407
G1 X89.883 Y69.733 E.02791
G1 X91.043 Y69.818 E.031
G1 X92.197 Y69.961 E.03099
G1 X93.342 Y70.159 E.03097
G1 X94.477 Y70.414 E.031
G1 X95.598 Y70.724 E.031
G1 X96.702 Y71.089 E.03099
G1 X97.786 Y71.508 E.03097
G1 X98.849 Y71.979 E.03099
G1 X99.888 Y72.502 E.031
G1 X100.9 Y73.075 E.03099
G1 X101.882 Y73.697 E.03098
G1 X102.833 Y74.366 E.03099
G1 X103.749 Y75.082 E.03099
G1 X104.63 Y75.841 E.03099
G1 X105.472 Y76.643 E.03099
G1 X106.273 Y77.485 E.03097
G1 X107.033 Y78.365 E.03099
G1 X107.748 Y79.282 E.03099
G1 X108.418 Y80.233 E.031
G1 X109.04 Y81.215 E.03098
G1 X109.613 Y82.227 E.03099
G1 X110.136 Y83.265 E.03098
G1 X110.607 Y84.328 E.03099
G1 X111.025 Y85.413 E.03099
G1 X111.39 Y86.517 E.03099
G1 X111.7 Y87.638 E.031
G1 X111.955 Y88.772 E.03098
G1 X112.154 Y89.918 E.031
G1 X112.296 Y91.072 E.03099
G1 X112.382 Y92.231 E.03097
G1 X112.402 Y93.052 E.02189
G1 X112.058 Y93.315 F9000
; stop printing object test-stagejoiner.stl id:0 copy 0
; printing object test-stagejoiner.stl id:0 copy 1
;WIPE_START
G1 F7200
G1 X112.382 Y94.556 E-.35723
G1 X112.296 Y95.716 E-.27626
G1 X112.21 Y96.412 E-.16651
;WIPE_END
G1 X109.642 Y117.953 F9000
G1 E.8 F1800
G1 F1200
G1 X110.208 Y116.64 E.03811
G1 X110.722 Y115.619 E.03046
G1 X111.286 Y114.623 E.0305
G1 X111.898 Y113.657 E.03048
G1 X112.557 Y112.721 E.03051
G1 X113.261 Y111.819 E.03049
G1 X114.008 Y110.953 E.03048
G1 X114.797 Y110.124 E.0305
G1 X115.626 Y109.335 E.0305
G1 X116.492 Y108.588 E.03048
G1 X117.394 Y107.884 E.03049
G1 X118.329 Y107.226 E.03047
G1 X119.296 Y106.613 E.03051
G1 X120.291 Y106.05 E.03047
G1 X121.313 Y105.535 E.0305
G1 X122.359 Y105.072 E.03049
G1 X123.427 Y104.66 E.03051
G1 X124.513 Y104.301 E.03048
G1 X125.616 Y103.996 E.0305
G1 X126.732 Y103.745 E.03049
G1 X127.859 Y103.55 E.03048
G1 X128.994 Y103.41 E.03048
G1 X130.135 Y103.325 E.03049
G1 X131.163 Y103.3 E.02741
G1 X132.422 Y103.325 E.03356
G1 X133.564 Y103.41 E.03052
G1 X134.699 Y103.55 E.03048
G1 X135.827 Y103.745 E.03051
G1 X136.943 Y103.996 E.03049
G1 X138.045 Y104.301 E.03047
G1 X139.132 Y104.66 E.03051
G1 X140.199 Y105.072 E.03048
G1 X141.245 Y105.535 E.03049
G1 X142.267 Y106.05 E.0305
G1 X143.262 Y106.614 E.03048
G1 X144.229 Y107.226 E.0305
G1 X145.164 Y107.884 E.03047
G1 X146.066 Y108.588 E.03049
G1 X146.933 Y109.335 E.0305
G1 X147.761 Y110.124 E.03048
G1 X148.55 Y110.953 E.0305
G1 X149.297 Y111.819 E.03048
G1 X150.001 Y112.721 E.03049
G1 X150.66 Y113.657 E.03051
G1 X151.272 Y114.623 E.03048
G1 X151.836 Y115.619 E.0305
G1 X152.35 Y116.641 E.03049
G1 X152.814 Y117.686 E.03047
G1 X153.226 Y118.754 E.03051
G1 X153.585 Y119.84 E.03048
G1 X153.89 Y120.943 E.0305
G1 X154.14 Y122.059 E.03048
G1 X154.336 Y123.186 E.03049
G1 X154.476 Y124.322 E.0305
G1 X154.56 Y125.463 E.03049
G1 X154.588 Y126.606 E.03047
G1 X154.56 Y127.75 E.0305
G1 X154.476 Y128.891 E.03049
G1 X154.336 Y130.027 E.0305
G1 X154.14 Y131.154 E.03049
G1 X153.89 Y132.27 E.03048
G1 X153.585 Y133.373 E.0305
G1 X153.226 Y134.459 E.03048
G1 X152.814 Y135.526 E.03048
G1 X152.35 Y136.572 E.0305
G1 X151.836 Y137.594 E.03049
G1 X151.272 Y138.59 E.0305
G1 X150.66 Y139.556 E.03048
G1 X150.001 Y140.492 E.03051
G1 X149.297 Y141.394 E.03049
G1 X148.55 Y142.26 E.03048
G1 X147.761 Y143.089 E.0305
G1 X146.933 Y143.877 E.03046
G1 X146.066 Y144.625 E.03052
G1 X145.164 Y145.329 E.03049
G1 X144.229 Y145.987 E.03047
G1 X143.262 Y146.599 E.0305
G1 X142.267 Y147.163 E.03048
G1 X141.245 Y147.678 E.0305
G1 X140.199 Y148.141 E.03049
G1 X139.132 Y148.553 E.03048
G1 X138.045 Y148.912 E.03051
G1 X136.943 Y149.217 E.03047
G1 X135.827 Y149.468 E.03049
G1 X134.699 Y149.663 E.03051
G1 X133.564 Y149.803 E.03048
G1 X132.423 Y149.888 E.03049
G1 X131.279 Y149.916 E.0305
G1 X130.135 Y149.888 E.0305
G1 X128.994 Y149.803 E.03049
G1 X127.859 Y149.663 E.03048
G1 X126.732 Y149.468 E.03048
G1 X125.615 Y149.217 E.03051
G1 X124.513 Y148.912 E.03047
G1 X123.427 Y148.553 E.03048
G1 X122.359 Y148.141 E.03051
G1 X121.313 Y147.678 E.03049
G1 X120.291 Y147.163 E.0305
G1 X119.296 Y146.599 E.03048
G1 X118.329 Y145.987 E.0305
G1 X117.394 Y145.329 E.03047
G1 X116.492 Y144.625 E.03049
G1 X115.626 Y143.877 E.0305
G1 X114.797 Y143.088 E.0305
G1 X114.008 Y142.26 E.03048
G1 X113.261 Y141.394 E.03048
G1 X112.557 Y140.492 E.03049
G1 X111.898 Y139.556 E.03051
G1 X111.286 Y138.59 E.03048
G1 X110.722 Y137.594 E.0305
G1 X110.208 Y136.572 E.03049
G1 X109.744 Y135.526 E.0305
G1 X109.333 Y134.459 E.03047
G1 X108.974 Y133.373 E.03048
G1 X108.669 Y132.27 E.0305
G1 X108.418 Y131.154 E.03049
G1 X108.222 Y130.027 E.03049
G1 X108.082 Y128.891 E.0305
G1 X107.998 Y127.75 E.03049
G1 X107.97 Y126.606 E.0305
G1 X107.998 Y125.463 E.03047
G1 X108.082 Y124.322 E.03049
G1 X108.222 Y123.186 E.0305
G1 X108.418 Y122.059 E.03049
G1 X108.669 Y120.943 E.03049
G1 X108.974 Y119.84 E.0305
G1 X109.333 Y118.754 E.03048
G1 X109.62 Y118.009 E.02128
G1 X109.396 Y117.637 F9000
;WIPE_START
G1 F7200
G1 X110.208 Y116.64 E-.35386
G1 X110.722 Y115.619 E-.27148
G1 X111.084 Y114.979 E-.17466
;WIPE_END
G1 X154.962 Y126.325 F9000
G1 E.8 F1800
G1 F1200
G1 X154.94 Y127.769 E.03849
G1 X154.854 Y128.928 E.03097
G1 X154.712 Y130.082 E.03099
G1 X154.513 Y131.228 E.031
G1 X154.258 Y132.362 E.03098
G1 X153.948 Y133.483 E.031
G1 X153.584 Y134.587 E.03098
G1 X153.165 Y135.672 E.031
G1 X152.694 Y136.735 E.03099
G1 X152.171 Y137.774 E.031
G1 X151.598 Y138.785 E.03097
G1 X150.976 Y139.768 E.031
G1 X150.307 Y140.718 E.03097
G1 X149.591 Y141.635 E.03101
G1 X148.832 Y142.515 E.03097
G1 X148.03 Y143.357 E.03099
G1 X147.188 Y144.159 E.03099
G1 X146.307 Y144.919 E.03101
G1 X145.391 Y145.634 E.03097
G1 X144.44 Y146.303 E.03099
G1 X143.458 Y146.925 E.03098
G1 X142.446 Y147.499 E.03101
G1 X141.408 Y148.021 E.03097
G1 X140.345 Y148.492 E.03099
G1 X139.26 Y148.911 E.031
G1 X138.156 Y149.276 E.03099
G1 X137.035 Y149.586 E.031
