; generated by PrusaSlicer 2.6.1+win64 on 2024-01-25 at 16:06:12 UTC

; 

; external perimeters extrusion width = 0.42mm
; perimeters extrusion width = 0.44mm
; infill extrusion width = 0.44mm
; solid infill extrusion width = 0.44mm
; top infill extrusion width = 0.40mm
; support material extrusion width = 0.36mm
; first layer extrusion width = 0.42mm

M201 X500 Y500 Z100 E5000 ; sets maximum accelerations, mm/sec^2
M203 X500 Y500 Z10 E60 ; sets maximum feedrates, mm / sec
M204 S500 T1000 ; sets acceleration (S) and retract acceleration (R), mm/sec^2
M205 X8.00 Y8.00 Z0.40 E5.00 ; sets the jerk limits, mm/sec
M205 S0 T0 ; sets the minimum extruding and travel feed rate, mm/sec
;TYPE:Custom
G90 ; use absolute coordinates
M83 ; extruder relative mode
M104 S150 ; set temporary nozzle temp to prevent oozing during homing
M140 S60 ; set final bed temp
G4 S30 ; allow partial nozzle warmup
G28 ; home all axis and restore leveling
G1 Z50 F240
G1 X2.0 Y10 F3000
M104 S215 ; set final nozzle temp
M190 S60 ; wait for bed temp to stabilize
M109 S215 ; wait for nozzle temp to stabilize
G1 Z0.28 F240
G92 E0
G1 X2.0 Y140 E10 F1500 ; prime the nozzle
G1 X2.3 Y140 F5000
G92 E0
G1 X2.3 Y10 E10 F1200 ; prime the nozzle
G92 E0
G21 ; set units to millimeters
G90 ; use absolute coordinates
M83 ; use relative distances for extrusion
; Filament gcode
M107
;LAYER_CHANGE
;Z:0.2
;HEIGHT:0.2
;BEFORE_LAYER_CHANGE
G92 E0
;0.2


G1 E-.8 F1800
G1 Z.2 F9000
;AFTER_LAYER_CHANGE
;0.2
G1 X65.504 Y79.174
G1 E.8 F1800
M204 S500
;TYPE:Skirt/Brim
;WIDTH:0.42
G1 F1200
G1 X67.608 Y77.614 E.06981
G1 X68.924 Y76.78 E.04152
G1 X71.338 Y75.496 E.07287
G1 X72.766 Y74.87 E.04155
G1 X75.284 Y73.984 E.07114
G1 X77.824 Y73.347 E.06979
G1 X79.36 Y73.081 E.04155
G1 X82.081 Y72.818 E.07286
G1 X83.639 Y72.786 E.04153
G1 X86.14 Y72.914 E.06674
G1 X87.687 Y73.105 E.04154
G1 X90.256 Y73.616 E.06981
G1 X91.766 Y74.034 E.04176
G1 X146.149 Y92.132 E1.52752
G1 X148.767 Y93.223 E.07559
G1 X151.218 Y94.542 E.07418
G1 X153.529 Y96.096 E.07422
G1 X155.639 Y97.835 E.07287
G1 X157.64 Y99.845 E.07559
G1 X159.4 Y102.002 E.07419
G1 X160.94 Y104.322 E.07421
G1 X162.224 Y106.736 E.07287
G1 X163.304 Y109.358 E.07558
G1 X164.104 Y112.024 E.07418
G1 X164.639 Y114.757 E.07422
G1 X164.902 Y117.479 E.07288
G1 X164.896 Y120.315 E.07558
G1 X164.615 Y123.084 E.07418
G1 X164.064 Y125.814 E.07422
G1 X163.265 Y128.429 E.07287
G1 X162.174 Y131.047 E.07559
G1 X160.855 Y133.498 E.07418
G1 X159.301 Y135.808 E.0742
G1 X157.562 Y137.918 E.07287
G1 X156.483 Y139.043 E.04154
G1 X154.624 Y140.721 E.06674
G1 X152.254 Y142.478 E.07863
G1 X150.007 Y143.825 E.06982
G1 X148.662 Y144.504 E.04015
G1 X146.039 Y145.584 E.0756
G1 X143.534 Y146.344 E.06977
G1 X142.176 Y146.653 E.03712
G1 X139.249 Y147.086 E.07886
G1 X137.746 Y147.19 E.04015
G1 X135.241 Y147.184 E.06676
G1 X132.313 Y146.895 E.07841
G1 X129.744 Y146.384 E.06981
G1 X128.234 Y145.966 E.04176
G1 X73.688 Y127.809 E1.53214
G1 X71.233 Y126.777 E.07097
G1 X68.782 Y125.458 E.07418
G1 X66.471 Y123.904 E.07422
G1 X64.361 Y122.165 E.07287
G1 X63.237 Y121.086 E.04152
G1 X61.454 Y119.099 E.07115
G1 X59.894 Y116.995 E.06981
G1 X59.06 Y115.679 E.04152
G1 X58.284 Y114.278 E.04268
G1 X57.21 Y111.984 E.06751
G1 X56.311 Y109.478 E.07096
G1 X55.896 Y107.976 E.04153
G1 X55.385 Y105.407 E.06981
G1 X55.193 Y103.852 E.04176
G1 X55.09 Y102.348 E.04018
G1 X55.104 Y99.685 E.07097
G1 X55.361 Y97.08 E.06976
G1 X55.627 Y95.544 E.04155
G1 X56.264 Y93.003 E.06982
G1 X56.794 Y91.409 E.04477
G1 X57.826 Y88.953 E.071
G1 X59.06 Y86.645 E.06975
G1 X59.894 Y85.328 E.04155
G1 X61.455 Y83.223 E.06984
G1 X62.555 Y81.954 E.04476
G1 X64.33 Y80.186 E.06677
G1 X65.459 Y79.213 E.03972
; printing object test-stagejoinerattachment.stl id:0 copy 0
;WIPE_START
G1 F7200
G1 X67.608 Y77.614 E-.63617
G1 X68.191 Y77.245 E-.16383
;WIPE_END
G1 X147.732 Y97.953 F9000
G1 E.8 F1800
;TYPE:Perimeter
G1 F1200
G1 X148.736 Y98.522 E.03076
G1 X149.718 Y99.144 E.03098
G1 X150.669 Y99.813 E.03099
G1 X151.585 Y100.528 E.03097
G1 X152.542 Y101.358 E.03376
G1 X153.381 Y102.163 E.03099
G1 X154.109 Y102.931 E.0282
G1 X154.869 Y103.812 E.03101
G1 X155.584 Y104.729 E.03099
G1 X156.253 Y105.679 E.03097
G1 X156.875 Y106.661 E.03098
G1 X157.448 Y107.673 E.03099
G1 X158.015 Y108.805 E.03374
G1 X158.482 Y109.87 E.03099
G1 X158.86 Y110.858 E.02819
G1 X159.225 Y111.963 E.03101
G1 X159.535 Y113.083 E.03097
G1 X159.79 Y114.218 E.031
G1 X159.989 Y115.363 E.03097
G1 X160.131 Y116.516 E.03096
G1 X160.221 Y117.78 E.03377
G1 X160.245 Y118.942 E.03098
G1 X160.217 Y120 E.02821
G1 X160.131 Y121.16 E.031
G1 X159.989 Y122.314 E.03099
G1 X159.79 Y123.459 E.03097
G1 X159.535 Y124.594 E.031
G1 X159.225 Y125.714 E.03097
G1 X158.825 Y126.916 E.03376
G1 X158.402 Y127.999 E.03099
G1 X157.971 Y128.965 E.02819
G1 X157.448 Y130.004 E.031
G1 X156.875 Y131.016 E.03099
G1 X156.253 Y131.998 E.03098
G1 X155.584 Y132.948 E.03097
G1 X154.869 Y133.865 E.03099
G1 X154.039 Y134.822 E.03376
G1 X153.234 Y135.66 E.03097
G1 X152.466 Y136.389 E.02822
G1 X151.585 Y137.148 E.03099
G1 X150.669 Y137.864 E.03099
G1 X149.718 Y138.533 E.03099
G1 X148.736 Y139.155 E.03098
G1 X147.725 Y139.728 E.03097
G1 X146.592 Y140.295 E.03377
G1 X145.527 Y140.761 E.03098
G1 X144.539 Y141.14 E.0282
G1 X143.434 Y141.505 E.03101
G1 X142.314 Y141.815 E.03097
G1 X141.18 Y142.07 E.03098
G1 X140.034 Y142.268 E.03099
G1 X138.881 Y142.411 E.03096
G1 X137.617 Y142.501 E.03377
G1 X136.455 Y142.525 E.03098
G1 X135.397 Y142.496 E.02821
G1 X134.237 Y142.411 E.031
G1 X133.083 Y142.268 E.03099
G1 X131.938 Y142.07 E.03097
G1 X130.803 Y141.815 E.031
G1 X129.683 Y141.505 E.03097
G1 X128.481 Y141.105 E.03376
G1 X127.399 Y140.682 E.03096
G1 X126.432 Y140.251 E.02822
G1 X125.393 Y139.728 E.031
G1 X124.381 Y139.155 E.03099
G1 X123.399 Y138.533 E.03098
G1 X122.449 Y137.863 E.03098
G1 X121.533 Y137.148 E.03097
G1 X120.575 Y136.319 E.03376
G1 X119.737 Y135.514 E.03097
G1 X119.008 Y134.745 E.02824
G1 X118.249 Y133.865 E.03097
G1 X117.534 Y132.948 E.03099
G1 X116.864 Y131.998 E.03098
G1 X116.242 Y131.016 E.03098
G1 X115.669 Y130.004 E.03099
G1 X115.102 Y128.872 E.03374
G1 X114.636 Y127.807 E.03098
G1 X114.257 Y126.818 E.02823
G1 X113.892 Y125.714 E.03099
G1 X113.582 Y124.594 E.03097
G1 X113.328 Y123.459 E.031
G1 X113.129 Y122.314 E.03097
G1 X112.986 Y121.16 E.03099
G1 X112.896 Y119.897 E.03375
G1 X112.873 Y118.735 E.03097
G1 X112.901 Y117.677 E.02821
G1 X112.986 Y116.517 E.031
G1 X113.129 Y115.363 E.03099
G1 X113.328 Y114.217 E.031
G1 X113.582 Y113.083 E.03097
G1 X113.892 Y111.963 E.03097
G1 X114.292 Y110.761 E.03376
G1 X114.715 Y109.678 E.03099
G1 X115.146 Y108.712 E.02819
G1 X115.669 Y107.673 E.031
G1 X116.242 Y106.661 E.03099
G1 X116.864 Y105.679 E.03098
G1 X117.534 Y104.728 E.031
G1 X118.249 Y103.812 E.03097
G1 X119.078 Y102.855 E.03374
G1 X119.883 Y102.017 E.03097
G1 X120.652 Y101.288 E.02824
G1 X121.532 Y100.529 E.03097
G1 X122.449 Y99.813 E.03101
G1 X123.399 Y99.144 E.03097
G1 X124.382 Y98.522 E.031
G1 X125.393 Y97.949 E.03097
G1 X126.525 Y97.382 E.03374
G1 X127.59 Y96.916 E.03098
G1 X128.579 Y96.537 E.02823
G1 X129.683 Y96.172 E.03099
G1 X130.803 Y95.862 E.03097
G1 X131.938 Y95.607 E.031
G1 X133.083 Y95.408 E.03097
G1 X134.237 Y95.266 E.03099
G1 X135.5 Y95.176 E.03375
G1 X136.649 Y95.153 E.03063
G1 X137.72 Y95.181 E.02855
G1 X138.88 Y95.266 E.031
G1 X140.034 Y95.408 E.03099
G1 X141.18 Y95.607 E.031
G1 X142.314 Y95.862 E.03098
G1 X143.434 Y96.172 E.03097
G1 X144.636 Y96.572 E.03376
G1 X145.719 Y96.995 E.03099
G1 X146.686 Y97.426 E.02822
G1 X147.679 Y97.926 E.02963
G1 X147.545 Y98.281 F9000
;TYPE:External perimeter
G1 F1200
G1 X148.542 Y98.846 E.03054
G1 X149.509 Y99.458 E.0305
G1 X150.444 Y100.116 E.03047
G1 X151.345 Y100.82 E.03047
G1 X152.288 Y101.637 E.03325
G1 X153.113 Y102.429 E.03048
G1 X153.829 Y103.184 E.02773
G1 X154.577 Y104.051 E.03052
G1 X155.281 Y104.953 E.03049
G1 X155.94 Y105.889 E.03051
G1 X156.552 Y106.855 E.03048
G1 X157.115 Y107.85 E.03047
G1 X157.674 Y108.965 E.03324
G1 X158.133 Y110.013 E.03049
G1 X158.505 Y110.985 E.02774
G1 X158.864 Y112.072 E.03051
G1 X159.169 Y113.175 E.0305
G1 X159.42 Y114.291 E.03049
G1 X159.616 Y115.418 E.03049
G1 X159.756 Y116.553 E.03048
G1 X159.845 Y117.797 E.03324
G1 X159.868 Y118.941 E.0305
G1 X159.84 Y119.981 E.02773
G1 X159.756 Y121.123 E.03052
G1 X159.616 Y122.259 E.0305
G1 X159.42 Y123.386 E.03049
G1 X159.169 Y124.502 E.03049
G1 X158.864 Y125.604 E.03047
G1 X158.471 Y126.787 E.03322
G1 X158.054 Y127.853 E.03051
G1 X157.63 Y128.804 E.02775
G1 X157.116 Y129.826 E.03049
G1 X156.552 Y130.822 E.0305
G1 X155.94 Y131.788 E.03048
G1 X155.281 Y132.724 E.03051
G1 X154.577 Y133.625 E.03047
G1 X153.761 Y134.568 E.03324
G1 X152.968 Y135.393 E.0305
G1 X152.213 Y136.109 E.02773
G1 X151.346 Y136.857 E.03052
G1 X150.444 Y137.561 E.03049
G1 X149.509 Y138.219 E.03047
G1 X148.542 Y138.831 E.0305
G1 X147.547 Y139.395 E.03048
G1 X146.432 Y139.953 E.03323
G1 X145.384 Y140.412 E.03049
G1 X144.412 Y140.785 E.02775
G1 X143.325 Y141.144 E.03051
G1 X142.222 Y141.449 E.0305
G1 X141.106 Y141.7 E.03049
G1 X139.979 Y141.895 E.03048
G1 X138.844 Y142.035 E.03048
G1 X137.6 Y142.124 E.03324
G1 X136.456 Y142.147 E.0305
G1 X135.416 Y142.12 E.02773
G1 X134.274 Y142.035 E.03052
G1 X133.139 Y141.895 E.03048
G1 X132.011 Y141.7 E.03051
G1 X130.895 Y141.449 E.03049
G1 X129.793 Y141.144 E.03047
G1 X128.61 Y140.75 E.03323
G1 X127.544 Y140.334 E.0305
G1 X126.593 Y139.91 E.02775
G1 X125.571 Y139.395 E.0305
G1 X124.575 Y138.831 E.0305
G1 X123.609 Y138.219 E.03048
G1 X122.673 Y137.561 E.03049
G1 X121.772 Y136.857 E.03047
G1 X120.829 Y136.04 E.03325
G1 X120.004 Y135.248 E.03048
G1 X119.288 Y134.492 E.02775
G1 X118.54 Y133.626 E.0305
G1 X117.837 Y132.724 E.03048
G1 X117.178 Y131.788 E.03051
G1 X116.566 Y130.822 E.03048
G1 X116.002 Y129.827 E.03048
G1 X115.444 Y128.712 E.03323
G1 X114.985 Y127.664 E.03049
G1 X114.612 Y126.692 E.02775
G1 X114.253 Y125.605 E.03051
G1 X113.948 Y124.502 E.0305
G1 X113.697 Y123.386 E.03049
G1 X113.502 Y122.259 E.03048
G1 X113.362 Y121.124 E.03048
G1 X113.273 Y119.88 E.03324
G1 X113.25 Y118.736 E.0305
G1 X113.278 Y117.695 E.02775
G1 X113.362 Y116.554 E.03049
G1 X113.502 Y115.418 E.0305
G1 X113.697 Y114.291 E.03048
G1 X113.948 Y113.175 E.03049
G1 X114.253 Y112.073 E.03047
G1 X114.647 Y110.889 E.03326
G1 X115.063 Y109.824 E.03047
G1 X115.487 Y108.873 E.02775
G1 X116.002 Y107.851 E.0305
G1 X116.566 Y106.855 E.0305
G1 X117.178 Y105.889 E.03048
G1 X117.837 Y104.953 E.03051
G1 X118.54 Y104.052 E.03046
G1 X119.357 Y103.109 E.03325
G1 X120.149 Y102.284 E.03048
G1 X120.905 Y101.568 E.02775
G1 X121.772 Y100.82 E.03052
G1 X122.674 Y100.116 E.03049
G1 X123.609 Y99.458 E.03047
G1 X124.575 Y98.846 E.03048
G1 X125.57 Y98.282 E.03048
G1 X126.686 Y97.724 E.03325
G1 X127.733 Y97.265 E.03047
G1 X128.705 Y96.892 E.02775
G1 X129.792 Y96.533 E.03051
G1 X130.895 Y96.228 E.0305
G1 X132.011 Y95.977 E.03049
G1 X133.139 Y95.782 E.03051
G1 X134.273 Y95.642 E.03045
G1 X135.517 Y95.553 E.03324
G1 X136.648 Y95.53 E.03015
G1 X137.702 Y95.557 E.0281
G1 X138.843 Y95.642 E.03049
G1 X139.979 Y95.782 E.0305
G1 X141.106 Y95.977 E.03048
G1 X142.222 Y96.228 E.03049
G1 X143.324 Y96.533 E.03047
G1 X144.508 Y96.927 E.03326
G1 X145.573 Y97.343 E.03047
G1 X146.524 Y97.767 E.02775
G1 X147.491 Y98.254 E.02886
G1 X147.885 Y98.07 F9000
;WIPE_START
G1 F7200
G1 X148.542 Y98.846 E-.28649
G1 X149.509 Y99.458 E-.27179
G1 X150.341 Y100.044 E-.24172
;WIPE_END
G1 X135.36 Y143.121 F9000
G1 E.8 F1800
;TYPE:Perimeter
G1 F1200
G1 X134.176 Y143.034 E.03164
G1 X132.991 Y142.888 E.03182
G1 X131.816 Y142.684 E.03178
G1 X130.651 Y142.422 E.03182
G1 X129.501 Y142.104 E.0318
G1 X128.269 Y141.694 E.0346
G1 X127.157 Y141.259 E.03182
G1 X126.164 Y140.816 E.02898
G1 X125.098 Y140.28 E.0318
G1 X124.06 Y139.692 E.03179
G1 X123.051 Y139.053 E.03183
G1 X122.076 Y138.366 E.03179
G1 X121.135 Y137.632 E.03181
G1 X120.153 Y136.782 E.03461
G1 X119.293 Y135.955 E.0318
G1 X118.544 Y135.165 E.02901
G1 X117.765 Y134.262 E.03178
G1 X117.031 Y133.321 E.03181
G1 X116.344 Y132.346 E.03179
G1 X115.705 Y131.337 E.03183
G1 X115.117 Y130.299 E.03179
G1 X114.536 Y129.138 E.0346
G1 X114.057 Y128.045 E.0318
G1 X113.667 Y127.029 E.029
G1 X113.293 Y125.896 E.0318
G1 X112.975 Y124.746 E.0318
G1 X112.714 Y123.582 E.03179
G1 X112.509 Y122.406 E.03181
G1 X112.363 Y121.221 E.03182
G1 X112.271 Y119.926 E.0346
G1 X112.247 Y118.733 E.0318
G1 X112.276 Y117.645 E.02901
G1 X112.363 Y116.455 E.0318
G1 X112.509 Y115.271 E.03179
G1 X112.714 Y114.095 E.03181
G1 X112.975 Y112.931 E.03179
G1 X113.293 Y111.781 E.0318
G1 X113.703 Y110.548 E.03463
G1 X114.138 Y109.437 E.0318
G1 X114.581 Y108.443 E.029
G1 X115.117 Y107.378 E.03178
G1 X115.705 Y106.339 E.03182
G1 X116.344 Y105.331 E.03181
G1 X117.031 Y104.356 E.03179
G1 X117.765 Y103.415 E.03181
G1 X118.616 Y102.433 E.03463
G1 X119.442 Y101.572 E.0318
G1 X120.232 Y100.824 E.02899
G1 X121.135 Y100.045 E.03178
G1 X122.076 Y99.311 E.03181
G1 X123.052 Y98.623 E.03182
G1 X124.06 Y97.985 E.03179
G1 X125.098 Y97.397 E.03179
G1 X126.26 Y96.815 E.03464
G1 X127.353 Y96.337 E.03179
G1 X128.368 Y95.947 E.02898
G1 X129.501 Y95.573 E.0318
G1 X130.651 Y95.255 E.0318
G1 X131.816 Y94.993 E.03182
G1 X132.991 Y94.789 E.03178
G1 X134.176 Y94.643 E.03182
G1 X135.47 Y94.55 E.03458
G1 X136.773 Y94.529 E.03473
G1 X137.752 Y94.555 E.0261
G1 X138.942 Y94.643 E.0318
G1 X140.126 Y94.789 E.03179
G1 X141.302 Y94.993 E.03181
G1 X142.466 Y95.255 E.0318
G1 X143.617 Y95.573 E.03182
G1 X144.849 Y95.983 E.0346
G1 X145.96 Y96.417 E.03179
G1 X146.954 Y96.86 E.029
G1 X148.02 Y97.397 E.03181
G1 X149.058 Y97.985 E.03179
G1 X150.066 Y98.623 E.03179
G1 X151.042 Y99.311 E.03182
G1 X151.983 Y100.045 E.03181
G1 X152.964 Y100.895 E.03459
G1 X153.825 Y101.722 E.03182
G1 X154.573 Y102.512 E.02899
G1 X155.352 Y103.415 E.03178
G1 X156.087 Y104.356 E.03182
G1 X156.774 Y105.331 E.03179
G1 X157.412 Y106.339 E.03179
G1 X158.001 Y107.378 E.03183
G1 X158.582 Y108.539 E.0346
G1 X159.061 Y109.632 E.0318
G1 X159.45 Y110.648 E.02899
G1 X159.824 Y111.781 E.0318
G1 X160.143 Y112.931 E.03181
G1 X160.404 Y114.095 E.03179
G1 X160.608 Y115.271 E.03181
G1 X160.754 Y116.456 E.03182
G1 X160.847 Y117.751 E.0346
G1 X160.871 Y118.944 E.0318
G1 X160.842 Y120.032 E.02901
G1 X160.754 Y121.222 E.0318
G1 X160.608 Y122.406 E.03179
G1 X160.404 Y123.582 E.03181
G1 X160.142 Y124.746 E.0318
G1 X159.824 Y125.896 E.0318
G1 X159.414 Y127.129 E.03463
G1 X158.98 Y128.24 E.03179
G1 X158.537 Y129.234 E.029
G1 X158 Y130.299 E.03179
G1 X157.412 Y131.338 E.03182
G1 X156.774 Y132.346 E.03179
G1 X156.087 Y133.321 E.03179
G1 X155.352 Y134.262 E.03182
G1 X154.502 Y135.244 E.03461
G1 X153.675 Y136.105 E.03182
G1 X152.886 Y136.853 E.02898
G1 X151.982 Y137.632 E.0318
G1 X151.042 Y138.366 E.03178
G1 X150.066 Y139.053 E.03181
G1 X149.058 Y139.692 E.03181
G1 X148.019 Y140.28 E.03182
G1 X146.858 Y140.862 E.03461
G1 X145.765 Y141.34 E.03179
G1 X144.749 Y141.73 E.029
G1 X143.616 Y142.104 E.0318
G1 X142.466 Y142.422 E.0318
G1 X141.302 Y142.684 E.0318
G1 X140.126 Y142.888 E.03181
G1 X138.941 Y143.034 E.03182
G1 X137.646 Y143.127 E.0346
G1 X136.453 Y143.151 E.0318
G1 X135.42 Y143.123 E.02754
G1 X135.332 Y143.497 F9000
;TYPE:External perimeter
G1 F1200
G1 X134.139 Y143.409 E.03188
G1 X132.936 Y143.261 E.0323
G1 X131.742 Y143.054 E.0323
G1 X130.56 Y142.788 E.03229
G1 X129.391 Y142.465 E.03232
G1 X128.14 Y142.049 E.03514
G1 X127.012 Y141.607 E.03229
G1 X126.002 Y141.157 E.02947
G1 X124.92 Y140.613 E.03228
G1 X123.866 Y140.015 E.0323
G1 X122.842 Y139.367 E.0323
G1 X121.851 Y138.669 E.0323
G1 X120.895 Y137.923 E.03232
G1 X119.899 Y137.06 E.03512
G1 X119.025 Y136.221 E.03229
G1 X118.264 Y135.418 E.02948
G1 X117.473 Y134.501 E.03228
G1 X116.728 Y133.546 E.03228
G1 X116.03 Y132.555 E.0323
G1 X115.382 Y131.531 E.0323
G1 X114.784 Y130.476 E.03232
G1 X114.194 Y129.298 E.03511
G1 X113.708 Y128.188 E.03229
G1 X113.312 Y127.155 E.02948
G1 X112.932 Y126.005 E.03228
G1 X112.609 Y124.838 E.03227
G1 X112.344 Y123.655 E.03231
G1 X112.136 Y122.461 E.0323
G1 X111.988 Y121.258 E.0323
G1 X111.894 Y119.943 E.03514
G1 X111.869 Y118.731 E.03231
