; generated by PrusaSlicer 2.6.1+win64 on 2024-01-24 at 17:06:05 UTC

; 

; external perimeters extrusion width = 0.42mm
; perimeters extrusion width = 0.44mm
; infill extrusion width = 0.44mm
; solid infill extrusion width = 0.44mm
; top infill extrusion width = 0.40mm
; support material extrusion width = 0.36mm
; first layer extrusion width = 0.42mm

; external perimeters extrusion width = 0.42mm
; perimeters extrusion width = 0.44mm
; infill extrusion width = 0.44mm
; solid infill extrusion width = 0.44mm
; top infill extrusion width = 0.40mm
; support material extrusion width = 0.36mm
; first layer extrusion width = 0.42mm

M201 X500 Y500 Z100 E5000 ; sets maximum accelerations, mm/sec^2
M203 X500 Y500 Z10 E60 ; sets maximum feedrates, mm / sec
M204 S500 T1000 ; sets acceleration (S) and retract acceleration (R), mm/sec^2
M205 X8.00 Y8.00 Z0.40 E5.00 ; sets the jerk limits, mm/sec
M205 S0 T0 ; sets the minimum extruding and travel feed rate, mm/sec
;TYPE:Custom
G90 ; use absolute coordinates
M83 ; extruder relative mode
M104 S150 ; set temporary nozzle temp to prevent oozing during homing
M140 S60 ; set final bed temp
G4 S30 ; allow partial nozzle warmup
G28 ; home all axis and restore leveling
G1 Z50 F240
G1 X2.0 Y10 F3000
M104 S215 ; set final nozzle temp
M190 S60 ; wait for bed temp to stabilize
M109 S215 ; wait for nozzle temp to stabilize
G1 Z0.28 F240
G92 E0
G1 X2.0 Y140 E10 F1500 ; prime the nozzle
G1 X2.3 Y140 F5000
G92 E0
G1 X2.3 Y10 E10 F1200 ; prime the nozzle
G92 E0
G21 ; set units to millimeters
G90 ; use absolute coordinates
M83 ; use relative distances for extrusion
; Filament gcode
M107
;LAYER_CHANGE
;Z:0.2
;HEIGHT:0.2
;BEFORE_LAYER_CHANGE
G92 E0
;0.2


G1 E-.8 F1800
G1 Z.2 F9000
;AFTER_LAYER_CHANGE
;0.2
G1 X74.118 Y69.609
G1 E.8 F1800
M204 S500
;TYPE:Skirt/Brim
;WIDTH:0.42
G1 F1200
G1 X76.135 Y67.592 E.07602
G1 X77.155 Y66.718 E.0358
G1 X79.18 Y65.216 E.06719
G1 X81.626 Y63.75 E.076
G1 X82.828 Y63.149 E.03582
G1 X85.157 Y62.184 E.06719
G1 X87.886 Y61.357 E.076
G1 X89.314 Y61.046 E.03895
G1 X91.692 Y60.696 E.06406
G1 X94.658 Y60.559 E.07913
G1 X97.058 Y60.68 E.06404
G1 X98.392 Y60.84 E.03581
G1 X101.029 Y61.357 E.07162
G1 X103.602 Y62.129 E.07159
G1 X106.087 Y63.149 E.07159
G1 X108.46 Y64.408 E.07159
G1 X110.699 Y65.894 E.07162
G1 X112.78 Y67.592 E.07158
G1 X114.686 Y69.486 E.07161
G1 X116.495 Y71.691 E.07601
G1 X148.258 Y116.79 E1.47012
G1 X149.646 Y119.091 E.07162
G1 X150.802 Y121.516 E.0716
G1 X151.715 Y124.042 E.07158
G1 X152.376 Y126.646 E.0716
G1 X152.778 Y129.303 E.07162
G1 X152.918 Y131.985 E.07158
G1 X152.794 Y134.669 E.07161
G1 X152.408 Y137.328 E.07161
G1 X151.763 Y139.936 E.0716
G1 X150.866 Y142.468 E.07159
G1 X149.724 Y144.9 E.07161
G1 X148.35 Y147.208 E.07159
G1 X146.756 Y149.371 E.07161
G1 X144.958 Y151.367 E.0716
G1 X142.973 Y153.177 E.07159
G1 X140.82 Y154.784 E.0716
G1 X138.52 Y156.172 E.07159
G1 X136.095 Y157.328 E.0716
G1 X134.687 Y157.871 E.04022
G1 X132.274 Y158.603 E.0672
G1 X129.36 Y159.174 E.07914
G1 X126.968 Y159.407 E.06405
G1 X125.46 Y159.444 E.0402
G1 X122.942 Y159.32 E.06719
G1 X121.444 Y159.135 E.04023
G1 X118.971 Y158.643 E.0672
G1 X117.516 Y158.241 E.04023
G1 X116.242 Y157.816 E.03579
G1 X113.913 Y156.851 E.06719
G1 X112.565 Y156.172 E.04023
G1 X110.402 Y154.876 E.0672
G1 X109.168 Y154.007 E.04022
G1 X107.22 Y152.408 E.06717
G1 X105.203 Y150.391 E.07602
G1 X103.505 Y148.309 E.0716
G1 X71.742 Y103.21 E1.47012
G1 X70.354 Y100.909 E.07162
G1 X69.198 Y98.484 E.0716
G1 X68.237 Y95.799 E.076
G1 X67.624 Y93.354 E.06718
G1 X67.391 Y92.03 E.03583
G1 X67.111 Y89.192 E.076
G1 X67.111 Y86.671 E.06719
G1 X67.206 Y85.331 E.0358
G1 X67.624 Y82.51 E.076
G1 X68.237 Y80.064 E.0672
G1 X68.655 Y78.787 E.03581
G1 X69.799 Y76.047 E.07913
G1 X70.934 Y73.929 E.06404
G1 X71.742 Y72.654 E.04023
G1 X72.591 Y71.465 E.03894
G1 X74.08 Y69.655 E.06246
; printing object test-stagejoiner2.stl id:0 copy 0
;WIPE_START
G1 F7200
G1 X76.135 Y67.592 E-.69157
G1 X76.482 Y67.295 E-.10843
;WIPE_END
G1 X101.53 Y110.152 F9000
G1 E.8 F1800
;TYPE:External perimeter
G1 F1200
G1 X100.121 Y110.542 E.03896
G1 X99.005 Y110.793 E.03049
G1 X97.564 Y111.043 E.03898
G1 X97.501 Y110.531 E.01375
G1 X96.693 Y110.631 E.0217
G1 X95.577 Y110.713 E.02982
G1 X94.458 Y110.741 E.02983
G1 X93.338 Y110.713 E.02986
G1 X92.526 Y110.653 E.0217
G1 X92.489 Y111.168 E.01376
G1 X91.037 Y110.989 E.03899
G1 X89.91 Y110.793 E.03049
G1 X88.484 Y110.473 E.03895
G1 X88.621 Y109.976 E.01374
G1 X87.836 Y109.759 E.02171
G1 X86.773 Y109.407 E.02984
G1 X85.729 Y109.004 E.02982
G1 X84.705 Y108.551 E.02984
G1 X83.978 Y108.185 E.02169
G1 X83.746 Y108.645 E.01373
G1 X82.474 Y107.925 E.03895
G1 X81.508 Y107.313 E.03048
G1 X80.312 Y106.471 E.03898
G1 X80.63 Y106.064 E.01377
G1 X79.988 Y105.563 E.0217
G1 X79.14 Y104.832 E.02984
G1 X78.329 Y104.06 E.02984
G1 X77.557 Y103.249 E.02984
G1 X77.025 Y102.633 E.02169
G1 X76.635 Y102.97 E.01374
G1 X75.736 Y101.817 E.03897
G1 X75.143 Y100.976 E.02743
G1 X74.294 Y99.647 E.04203
G1 X74.743 Y99.392 E.01376
G1 X74.342 Y98.684 E.02169
G1 X73.839 Y97.684 E.02983
G1 X73.385 Y96.66 E.02985
G1 X72.982 Y95.616 E.02982
G1 X72.727 Y94.843 E.02169
G1 X72.237 Y95.004 E.01375
G1 X71.847 Y93.595 E.03896
G1 X71.596 Y92.479 E.03049
G1 X71.346 Y91.039 E.03895
G1 X71.858 Y90.975 E.01375
G1 X71.758 Y90.167 E.0217
G1 X71.676 Y89.051 E.02982
G1 X71.649 Y87.932 E.02983
G1 X71.676 Y86.812 E.02986
G1 X71.736 Y86.001 E.02167
G1 X71.222 Y85.963 E.01374
G1 X71.401 Y84.512 E.03896
G1 X71.596 Y83.384 E.03051
G1 X71.917 Y81.958 E.03896
G1 X72.414 Y82.095 E.01374
G1 X72.631 Y81.311 E.02168
G1 X72.982 Y80.248 E.02983
G1 X73.385 Y79.203 E.02985
G1 X73.839 Y78.18 E.02983
G1 X74.205 Y77.452 E.02172
G1 X73.744 Y77.221 E.01374
G1 X74.465 Y75.948 E.03899
G1 X75.077 Y74.982 E.03048
G1 X75.919 Y73.786 E.03898
G1 X76.325 Y74.104 E.01374
G1 X76.826 Y73.462 E.0217
G1 X77.557 Y72.614 E.02984
G1 X78.329 Y71.803 E.02984
G1 X79.14 Y71.031 E.02984
G1 X79.757 Y70.5 E.02169
G1 X79.42 Y70.109 E.01376
G1 X80.572 Y69.21 E.03894
G1 X81.413 Y68.617 E.02743
G1 X82.743 Y67.768 E.04205
G1 X82.997 Y68.217 E.01375
G1 X83.706 Y67.816 E.02171
G1 X84.706 Y67.313 E.02983
G1 X85.729 Y66.859 E.02983
G1 X86.774 Y66.456 E.02985
G1 X87.547 Y66.201 E.02169
G1 X87.385 Y65.711 E.01375
G1 X88.794 Y65.321 E.03896
G1 X89.91 Y65.07 E.03049
G1 X91.351 Y64.82 E.03898
G1 X91.414 Y65.332 E.01375
G1 X92.222 Y65.233 E.0217
G1 X93.338 Y65.15 E.02982
G1 X94.458 Y65.123 E.02986
G1 X95.577 Y65.15 E.02983
G1 X96.389 Y65.21 E.0217
G1 X96.427 Y64.696 E.01374
G1 X97.878 Y64.875 E.03896
G1 X99.005 Y65.07 E.03048
G1 X100.432 Y65.391 E.03898
G1 X100.294 Y65.888 E.01375
G1 X101.079 Y66.105 E.02171
G1 X102.142 Y66.456 E.02983
G1 X103.186 Y66.859 E.02982
G1 X104.21 Y67.313 E.02985
G1 X104.937 Y67.679 E.02169
G1 X105.169 Y67.218 E.01375
G1 X106.441 Y67.939 E.03897
G1 X107.408 Y68.551 E.0305
G1 X108.603 Y69.393 E.03896
G1 X108.286 Y69.799 E.01373
G1 X108.928 Y70.3 E.0217
G1 X109.775 Y71.031 E.02982
G1 X110.586 Y71.803 E.02984
G1 X111.358 Y72.614 E.02984
G1 X111.89 Y73.231 E.02171
G1 X112.28 Y72.894 E.01374
G1 X113.18 Y74.046 E.03896
G1 X113.838 Y74.982 E.03049
G1 X114.621 Y76.217 E.03897
G1 X114.172 Y76.471 E.01375
G1 X114.573 Y77.18 E.02171
G1 X115.077 Y78.18 E.02984
G1 X115.53 Y79.203 E.02982
G1 X115.933 Y80.248 E.02985
G1 X116.189 Y81.021 E.0217
G1 X116.678 Y80.859 E.01373
G1 X117.068 Y82.268 E.03896
G1 X117.319 Y83.384 E.03049
G1 X117.569 Y84.825 E.03898
G1 X117.057 Y84.888 E.01375
G1 X117.157 Y85.696 E.0217
G1 X117.239 Y86.813 E.02985
G1 X117.267 Y87.932 E.02983
G1 X117.239 Y89.051 E.02983
G1 X117.179 Y89.863 E.0217
G1 X117.693 Y89.901 E.01374
G1 X117.514 Y91.352 E.03896
G1 X117.319 Y92.479 E.03048
G1 X116.999 Y93.906 E.03898
G1 X116.502 Y93.768 E.01375
G1 X116.284 Y94.553 E.02171
G1 X115.933 Y95.616 E.02983
G1 X115.53 Y96.66 E.02982
G1 X115.077 Y97.684 E.02984
G1 X114.711 Y98.411 E.02169
G1 X115.171 Y98.643 E.01373
G1 X114.451 Y99.915 E.03895
G1 X113.838 Y100.882 E.03051
G1 X112.997 Y102.077 E.03894
G1 X112.59 Y101.76 E.01375
G1 X112.089 Y102.402 E.0217
G1 X111.358 Y103.249 E.02982
G1 X110.586 Y104.06 E.02984
G1 X109.775 Y104.832 E.02984
G1 X109.159 Y105.364 E.02169
G1 X109.495 Y105.754 E.01372
G1 X108.343 Y106.654 E.03896
G1 X107.407 Y107.313 E.03051
G1 X106.172 Y108.095 E.03896
G1 X105.918 Y107.646 E.01375
G1 X105.21 Y108.047 E.02169
G1 X104.21 Y108.551 E.02984
G1 X103.186 Y109.004 E.02984
G1 X102.142 Y109.407 E.02982
G1 X101.369 Y109.663 E.0217
G1 X101.512 Y110.095 E.01213
G1 X101.511 Y110.552 F9000
;WIPE_START
G1 F7200
G1 X100.121 Y110.542 E-.347
G1 X99.005 Y110.793 E-.27167
G1 X98.253 Y110.924 E-.18133
;WIPE_END
G1 X96.04 Y64.806 F9000
G1 E.8 F1800
;TYPE:Perimeter
G1 F1200
G1 X95.595 Y64.773 E.01189
G1 X94.458 Y64.746 E.03031
G1 X93.32 Y64.773 E.03034
G1 X92.185 Y64.857 E.03033
G1 X91.742 Y64.912 E.0119
G1 X91.727 Y64.787 E.00336
G1 X92.173 Y64.732 E.01198
G1 X93.312 Y64.648 E.03044
G1 X94.572 Y64.622 E.03359
G1 X95.602 Y64.648 E.02746
G1 X96.05 Y64.681 E.01197
G1 X96.045 Y64.746 E.00174
;WIPE_START
G1 F7200
G1 X95.595 Y64.773 E-.10707
G1 X94.458 Y64.746 E-.27011
G1 X93.32 Y64.773 E-.27035
G1 X92.68 Y64.82 E-.15247
;WIPE_END
G1 X100.758 Y65.625 F9000
G1 E.8 F1800
G1 F1200
G1 X100.792 Y65.504 E.00335
G1 X101.225 Y65.623 E.01197
G1 X102.311 Y65.982 E.03048
G1 X103.379 Y66.394 E.03051
G1 X104.425 Y66.858 E.0305
G1 X104.826 Y67.06 E.01197
G1 X104.77 Y67.172 E.00334
G1 X104.371 Y66.972 E.01189
G1 X103.331 Y66.51 E.03033
G1 X102.269 Y66.101 E.03033
G1 X101.188 Y65.744 E.03034
G1 X100.816 Y65.641 E.01029
;WIPE_START
G1 F7200
G1 X100.792 Y65.504 E-.03303
G1 X101.225 Y65.623 E-.10665
G1 X102.311 Y65.982 E-.27165
G1 X103.379 Y66.394 E-.27187
G1 X103.829 Y66.593 E-.1168
;WIPE_END
G1 X108.815 Y69.734 F9000
G1 E.8 F1800
G1 F1200
G1 X108.892 Y69.635 E.00334
G1 X109.247 Y69.911 E.01198
G1 X110.113 Y70.659 E.0305
G1 X110.942 Y71.448 E.0305
G1 X111.731 Y72.276 E.03048
G1 X112.024 Y72.617 E.01198
G1 X111.929 Y72.699 E.00334
G1 X111.637 Y72.361 E.0119
G1 X110.853 Y71.537 E.03031
G1 X110.029 Y70.752 E.03033
G1 X109.167 Y70.009 E.03033
G1 X108.862 Y69.771 E.01031
;WIPE_START
G1 F7200
G1 X108.892 Y69.635 E-.03308
G1 X109.247 Y69.911 E-.1068
G1 X110.113 Y70.659 E-.27178
G1 X110.942 Y71.448 E-.27181
G1 X111.28 Y71.803 E-.11653
;WIPE_END
G1 X114.686 Y76.613 F9000
G1 E.8 F1800
G1 F1200
G1 X114.796 Y76.551 E.00337
G1 X115.017 Y76.942 E.01197
G1 X115.532 Y77.965 E.03052
G1 X115.995 Y79.011 E.03049
G1 X116.407 Y80.078 E.03048
G1 X116.548 Y80.505 E.01198
G1 X116.428 Y80.544 E.00336
G1 X116.288 Y80.121 E.01187
G1 X115.879 Y79.059 E.03033
G1 X115.418 Y78.018 E.03034
G1 X114.906 Y77.002 E.03032
G1 X114.716 Y76.666 E.01029
;WIPE_START
G1 F7200
G1 X114.796 Y76.551 E-.03327
G1 X115.017 Y76.942 E-.10667
G1 X115.532 Y77.965 E-.27201
G1 X115.995 Y79.011 E-.27167
G1 X116.172 Y79.468 E-.11638
;WIPE_END
G1 X117.478 Y85.216 F9000
G1 E.8 F1800
G1 F1200
G1 X117.602 Y85.201 E.00333
G1 X117.657 Y85.647 E.01198
G1 X117.742 Y86.788 E.03049
G1 X117.77 Y87.932 E.0305
G1 X117.742 Y89.076 E.0305
G1 X117.709 Y89.524 E.01197
G1 X117.583 Y89.515 E.00337
G1 X117.616 Y89.069 E.01192
G1 X117.644 Y87.932 E.03031
G1 X117.616 Y86.794 E.03034
G1 X117.532 Y85.659 E.03033
G1 X117.485 Y85.276 E.01028
;WIPE_START
G1 F7200
G1 X117.602 Y85.201 E-.03301
G1 X117.657 Y85.647 E-.10673
G1 X117.742 Y86.788 E-.27174
G1 X117.77 Y87.932 E-.27178
G1 X117.758 Y88.423 E-.11674
;WIPE_END
G1 X116.764 Y94.232 F9000
G1 E.8 F1800
G1 F1200
G1 X116.886 Y94.266 E.00338
G1 X116.766 Y94.699 E.01197
G1 X116.407 Y95.785 E.03048
G1 X115.995 Y96.853 E.03051
G1 X115.531 Y97.899 E.0305
G1 X115.329 Y98.3 E.01197
G1 X115.217 Y98.244 E.00334
G1 X115.418 Y97.845 E.01191
G1 X115.879 Y96.805 E.03032
G1 X116.288 Y95.743 E.03033
G1 X116.645 Y94.662 E.03034
G1 X116.748 Y94.29 E.01029
;WIPE_START
G1 F7200
G1 X116.886 Y94.266 E-.03327
G1 X116.766 Y94.699 E-.10671
G1 X116.407 Y95.785 E-.27165
G1 X115.995 Y96.853 E-.27187
G1 X115.796 Y97.301 E-.1165
;WIPE_END
G1 X112.655 Y102.289 F9000
G1 E.8 F1800
G1 F1200
G1 X112.755 Y102.366 E.00336
G1 X112.478 Y102.721 E.012
G1 X111.731 Y103.587 E.03048
G1 X110.942 Y104.416 E.0305
G1 X110.113 Y105.205 E.0305
G1 X109.773 Y105.498 E.01196
G1 X109.691 Y105.403 E.00334
G1 X110.028 Y105.112 E.01187
G1 X110.853 Y104.327 E.03035
G1 X111.637 Y103.503 E.03031
G1 X112.381 Y102.641 E.03035
G1 X112.618 Y102.336 E.01029
;WIPE_START
G1 F7200
G1 X112.755 Y102.366 E-.03331
G1 X112.478 Y102.721 E-.10694
G1 X111.731 Y103.587 E-.27162
G1 X110.942 Y104.416 E-.27181
G1 X110.587 Y104.754 E-.11632
;WIPE_END
G1 X101.845 Y109.903 F9000
G1 E.8 F1800
G1 F1200
G1 X102.269 Y109.763 E.0119
G1 X103.331 Y109.353 E.03034
G1 X104.371 Y108.892 E.03032
G1 X105.387 Y108.38 E.03032
G1 X105.776 Y108.16 E.01191
G1 X105.838 Y108.27 E.00337
G1 X105.447 Y108.491 E.01197
G1 X104.425 Y109.006 E.0305
G1 X103.379 Y109.469 E.03049
G1 X102.311 Y109.881 E.03051
G1 X101.884 Y110.022 E.01198
G1 X101.864 Y109.96 E.00174
;WIPE_START
G1 F7200
G1 X102.269 Y109.763 E-.10696
G1 X103.331 Y109.353 E-.27037
G1 X104.371 Y108.892 E-.27018
G1 X104.944 Y108.603 E-.15249
;WIPE_END
G1 X92.875 Y111.057 F9000
G1 E.8 F1800
G1 F1200
G1 X93.32 Y111.09 E.01189
G1 X94.458 Y111.118 E.03034
G1 X95.595 Y111.09 E.03031
G1 X96.73 Y111.006 E.03033
G1 X97.173 Y110.952 E.01189
G1 X97.189 Y111.077 E.00336
G1 X96.743 Y111.132 E.01198
G1 X95.601 Y111.216 E.03052
G1 X94.458 Y111.244 E.03047
G1 X93.314 Y111.216 E.0305
G1 X92.865 Y111.183 E.012
G1 X92.87 Y111.117 E.00176
;WIPE_START
G1 F7200
G1 X93.32 Y111.09 E-.10707
G1 X94.458 Y111.118 E-.27036
G1 X95.595 Y111.09 E-.27012
G1 X96.235 Y111.043 E-.15245
;WIPE_END
G1 X88.124 Y110.36 F9000
G1 E.8 F1800
G1 F1200
G1 X87.69 Y110.24 E.012
G1 X86.604 Y109.881 E.03048
G1 X85.536 Y109.469 E.03051
G1 X84.49 Y109.006 E.03049
G1 X84.089 Y108.803 E.01198
G1 X84.146 Y108.691 E.00335
G1 X84.544 Y108.892 E.01188
G1 X85.585 Y109.353 E.03034
G1 X86.646 Y109.763 E.03031
G1 X87.727 Y110.12 E.03034
G1 X88.157 Y110.239 E.01189
G1 X88.14 Y110.302 E.00174
;WIPE_START
G1 F7200
G1 X87.69 Y110.24 E-.10788
G1 X86.604 Y109.881 E-.27165
G1 X85.536 Y109.469 E-.27187
G1 X84.964 Y109.216 E-.1486
;WIPE_END
G1 X80.1 Y106.129 F9000
G1 E.8 F1800
G1 F1200
G1 X80.023 Y106.229 E.00336
G1 X79.669 Y105.952 E.01198
G1 X78.802 Y105.205 E.0305
G1 X77.973 Y104.416 E.0305
G1 X77.184 Y103.587 E.0305
G1 X76.891 Y103.247 E.01196
G1 X76.986 Y103.165 E.00334
G1 X77.278 Y103.503 E.0119
G1 X78.062 Y104.327 E.03031
G1 X78.887 Y105.112 E.03035
G1 X79.748 Y105.855 E.03031
G1 X80.053 Y106.093 E.01031
;WIPE_START
G1 F7200
G1 X80.023 Y106.229 E-.03308
G1 X79.669 Y105.952 E-.10675
G1 X78.802 Y105.205 E-.2718
G1 X77.973 Y104.416 E-.27181
G1 X77.635 Y104.061 E-.11656
;WIPE_END
G1 X74.229 Y99.25 F9000
G1 E.8 F1800
G1 F1200
G1 X74.12 Y99.312 E.00334
G1 X73.898 Y98.921 E.01198
G1 X73.384 Y97.899 E.03049
G1 X72.92 Y96.853 E.0305
G1 X72.508 Y95.785 E.03051
G1 X72.367 Y95.359 E.01196
G1 X72.487 Y95.319 E.00337
G1 X72.627 Y95.743 E.0119
G1 X73.036 Y96.805 E.03033
G1 X73.498 Y97.845 E.03033
G1 X74.009 Y98.862 E.03033
G1 X74.2 Y99.198 E.0103
;WIPE_START
G1 F7200
G1 X74.12 Y99.312 E-.03308
G1 X73.898 Y98.921 E-.10679
G1 X73.384 Y97.899 E-.27169
G1 X72.92 Y96.853 E-.27177
G1 X72.743 Y96.395 E-.11667
;WIPE_END
G1 X71.438 Y90.647 F9000
G1 E.8 F1800
G1 F1200
G1 X71.313 Y90.663 E.00336
G1 X71.258 Y90.217 E.01198
G1 X71.174 Y89.076 E.03049
G1 X71.146 Y87.932 E.0305
G1 X71.174 Y86.788 E.0305
G1 X71.207 Y86.34 E.01197
G1 X71.332 Y86.349 E.00334
G1 X71.299 Y86.794 E.01189
G1 X71.271 Y87.932 E.03034
G1 X71.299 Y89.069 E.03031
G1 X71.383 Y90.204 E.03033
G1 X71.43 Y90.588 E.01031
;WIPE_START
G1 F7200
G1 X71.313 Y90.663 E-.03301
G1 X71.258 Y90.217 E-.10673
G1 X71.174 Y89.076 E-.27172
G1 X71.146 Y87.932 E-.27178
G1 X71.158 Y87.441 E-.11676
;WIPE_END
G1 X72.151 Y81.631 F9000
G1 E.8 F1800
G1 F1200
G1 X72.029 Y81.598 E.00337
G1 X72.149 Y81.165 E.01197
G1 X72.508 Y80.078 E.03051
G1 X72.92 Y79.011 E.03048
G1 X73.384 Y77.964 E.03052
G1 X73.586 Y77.563 E.01197
G1 X73.698 Y77.62 E.00335
G1 X73.498 Y78.018 E.01187
G1 X73.036 Y79.059 E.03035
G1 X72.627 Y80.12 E.03031
